( Made using CamBam - http://www.cambam.co.uk )
( midi_organ_v0.3.gcode.complete 8/22/2014 3:09:03 AM )
( T0 : 0.0 )
G21 G90 G64 G40
G0 Z3.0
( T0 : 0.0 )
T0 M6
( drill-1mm-mirror )
G17
M3 S1000
G0 X83.1349 Y187.8249
G98
G81 X83.1349 Y187.8249 Z-2.35 R3.0 F300.0
G81 Z-2.35
G81 X78.0549 Z-2.35
G81 Z-2.35
G81 X72.9749 Y182.7449 Z-2.35
G81 Z-2.35
G81 Y177.6649 Z-2.35
G81 Z-2.35
G81 X75.5149 Y175.1249 Z-2.35
G81 Z-2.35
G81 X80.5949 Y177.6649 Z-2.35
G81 Z-2.35
G81 X85.6749 Y175.1249 Z-2.35
G81 Z-2.35
G81 X88.2149 Y177.6649 Z-2.35
G81 Z-2.35
G81 Y182.7449 Z-2.35
G81 Z-2.35
G81 X62.8149 Z-2.35
G81 Z-2.35
G81 Y177.6649 Z-2.35
G81 Z-2.35
G81 X60.2749 Y175.1249 Z-2.35
G81 Z-2.35
G81 X55.1949 Y177.6649 Z-2.35
G81 Z-2.35
G81 X50.1149 Y175.1249 Z-2.35
G81 Z-2.35
G81 X47.5749 Y177.6649 Z-2.35
G81 Z-2.35
G81 Y182.7449 Z-2.35
G81 Z-2.35
G81 X52.6549 Y187.8249 Z-2.35
G81 Z-2.35
G81 X57.7349 Z-2.35
G81 Z-2.35
G80
G0 Z3.0
M5
M30
