( Made using CamBam - http://www.cambam.co.uk )
( fatar_converter.gcode.bottom 8/22/2014 6:24:34 PM )
( T0 : 0.0 )
G21 G90 G64 G40
G0 Z3.0
( T0 : 0.0 )
T0 M6
( bottom )
G17
M3 S1000
G0 X30.5637 Y54.5243
G0 Z1.2
G1 F400.0 Z-0.2
G1 Y52.3653
G1 X32.7227
G1 Y52.831
G1 X33.9927
G1 X45.846 Y40.9353
G1 Y40.639
G1 X45.9307 Y40.3003
G1 X46.4387 Y39.7923
G1 X46.7773 Y39.7077
G1 X46.989
G1 X47.3277 Y39.7923
G1 X47.7087 Y40.131
G1 X48.3437
G1 Y39.6653
G1 X50.5027
G1 Y41.8243
G1 X48.3437
G1 Y41.3587
G1 X47.7087
G1 X47.3277 Y41.6973
G1 X46.989 Y41.782
G1 X46.6503
G1 X34.543 Y53.9317
G1 X34.289 Y54.0587
G1 X32.7227
G1 Y54.5243
G1 X30.5637
G0 Z3.0
G0 X29.9922 Y53.9528
G0 Z1.2
G1 Z-0.2
G1 X29.5477 Y54.3973
G1 X29.209 Y54.482
G1 X28.9127
G1 X28.6587 Y54.3973
G1 X28.1507 Y53.8893
G1 X28.066 Y53.5507
G1 Y53.339
G1 X28.1507 Y53.0003
G1 X28.6587 Y52.4923
G1 X28.9973 Y52.4077
G1 X29.209
G1 X29.5477 Y52.4923
G1 X30.0557 Y53.0003
G1 X30.1403 Y53.339
G1 Y53.5507
G1 X30.0557 Y53.8893
G1 X29.9922 Y53.9528
G0 Z3.0
G0 X29.473 Y51.876
G0 Z1.2
G1 Z-0.2
G1 X29.209 Y51.942
G1 X28.9127
G1 X28.6587 Y51.8573
G1 X28.2777 Y51.5187
G1 X23.9173
G1 X23.6633 Y51.3917
G1 X13.6727 Y41.3587
G1 X12.4027
G1 Y41.8243
G1 X10.2437
G1 Y39.6653
G1 X12.4027
G1 Y40.131
G1 X13.969
G1 X14.223 Y40.258
G1 X24.2137 Y50.291
G1 X28.2777
G1 X28.6587 Y49.9523
G1 X28.9973 Y49.8677
G1 X29.209
G1 X29.5477 Y49.9523
G1 X30.0557 Y50.4603
G1 X30.1403 Y50.799
G1 Y51.0107
G1 X30.0557 Y51.3493
G1 X29.5477 Y51.8573
G1 X29.473 Y51.876
G0 Z3.0
G0 X30.6907 Y51.3493
G0 Z1.2
G1 Z-0.2
G1 X30.606 Y51.0107
G1 Y50.799
G1 X30.6907 Y50.4603
G1 X31.1987 Y49.9523
G1 X31.5373 Y49.8677
G1 X31.749
G1 X32.0877 Y49.9523
G1 X32.4687 Y50.291
G1 X33.9927
G1 X45.846 Y38.3953
G1 Y38.099
G1 X45.9307 Y37.7603
G1 X46.4387 Y37.2523
G1 X46.7773 Y37.1677
G1 X46.989
G1 X47.3277 Y37.2523
G1 X47.7087 Y37.591
G1 X48.5977
G1 X48.9787 Y37.2523
G1 X49.3173 Y37.1677
G1 X49.529
G1 X49.8677 Y37.2523
G1 X50.3757 Y37.7603
G1 X50.4603 Y38.099
G1 Y38.3107
G1 X50.3757 Y38.6493
G1 X49.8677 Y39.1573
G1 X49.529 Y39.242
G1 X49.3173
G1 X48.9787 Y39.1573
G1 X48.5977 Y38.8187
G1 X47.7087
G1 X47.3277 Y39.1573
G1 X46.989 Y39.242
G1 X46.6503
G1 X34.543 Y51.3917
G1 X34.289 Y51.5187
G1 X32.4687
G1 X32.0877 Y51.8573
G1 X31.749 Y51.942
G1 X31.4527
G1 X31.1987 Y51.8573
G1 X30.6907 Y51.3493
G0 Z3.0
G0 X31.3511 Y49.3681
G0 Z1.2
G1 Z-0.2
G1 X31.1987 Y49.3173
G1 X30.6907 Y48.8093
G1 X30.606 Y48.4707
G1 Y48.259
G1 X30.6907 Y47.9203
G1 X31.1987 Y47.4123
G1 X31.5373 Y47.3277
G1 X31.749
G1 X32.0877 Y47.4123
G1 X32.4687 Y47.751
G1 X33.9927
G1 X45.846 Y35.8553
G1 Y35.559
G1 X45.9307 Y35.2203
G1 X46.4387 Y34.7123
G1 X46.7773 Y34.6277
G1 X46.989
G1 X47.3277 Y34.7123
G1 X47.7087 Y35.051
G1 X48.5977
G1 X48.9787 Y34.7123
G1 X49.3173 Y34.6277
G1 X49.529
G1 X49.8677 Y34.7123
G1 X50.3757 Y35.2203
G1 X50.4603 Y35.559
G1 Y35.7707
G1 X50.3757 Y36.1093
G1 X49.8677 Y36.6173
G1 X49.529 Y36.702
G1 X49.3173
G1 X48.9787 Y36.6173
G1 X48.5977 Y36.2787
G1 X47.7087
G1 X47.3277 Y36.6173
G1 X46.989 Y36.702
G1 X46.6503
G1 X34.543 Y48.8517
G1 X34.289 Y48.9787
G1 X32.4687
G1 X32.0877 Y49.3173
G1 X31.749 Y49.402
G1 X31.4527
G1 X31.3511 Y49.3681
G0 Z3.0
G0 X30.0557 Y48.8093
G0 Z1.2
G1 Z-0.2
G1 X29.5477 Y49.3173
G1 X29.209 Y49.402
G1 X28.9127
G1 X28.6587 Y49.3173
G1 X28.1507 Y48.8093
G1 X28.066 Y48.4707
G1 Y48.259
G1 X28.1507 Y47.9203
G1 X28.6587 Y47.4123
G1 X28.9973 Y47.3277
G1 X29.209
G1 X29.5477 Y47.4123
G1 X30.0557 Y47.9203
G1 X30.1403 Y48.259
G1 Y48.4707
G1 X30.0557 Y48.8093
G0 Z3.0
G0 X29.5477 Y46.7773
G0 Z1.2
G1 Z-0.2
G1 X29.209 Y46.862
G1 X28.9127
G1 X28.6587 Y46.7773
G1 X28.2777 Y46.4387
G1 X21.3773
G1 X21.1233 Y46.3117
G1 X13.6727 Y38.8187
G1 X12.1487
G1 X11.7677 Y39.1573
G1 X11.429 Y39.242
G1 X11.2173
G1 X10.8787 Y39.1573
G1 X10.3707 Y38.6493
G1 X10.286 Y38.3107
G1 Y38.099
G1 X10.3707 Y37.7603
G1 X10.8787 Y37.2523
G1 X11.2173 Y37.1677
G1 X11.429
G1 X11.7677 Y37.2523
G1 X12.1487 Y37.591
G1 X13.969
G1 X14.223 Y37.718
G1 X21.6737 Y45.211
G1 X28.2777
G1 X28.6587 Y44.8723
G1 X28.9973 Y44.7877
G1 X29.209
G1 X29.5477 Y44.8723
G1 X30.0557 Y45.3803
G1 X30.1403 Y45.719
G1 Y45.9307
G1 X30.0557 Y46.2693
G1 X29.5477 Y46.7773
G0 Z3.0
G0 X30.6907 Y46.2693
G0 Z1.2
G1 Z-0.2
G1 X30.606 Y45.9307
G1 Y45.719
G1 X30.6907 Y45.3803
G1 X31.1987 Y44.8723
G1 X31.5373 Y44.7877
G1 X31.749
G1 X32.0877 Y44.8723
G1 X32.4687 Y45.211
G1 X33.9927
G1 X45.846 Y33.3153
G1 Y33.019
G1 X45.9307 Y32.6803
G1 X46.4387 Y32.1723
G1 X46.7773 Y32.0877
G1 X46.989
G1 X47.3277 Y32.1723
G1 X47.7087 Y32.511
G1 X48.5977
G1 X48.9787 Y32.1723
G1 X49.3173 Y32.0877
G1 X49.529
G1 X49.8677 Y32.1723
G1 X50.3757 Y32.6803
G1 X50.4603 Y33.019
G1 Y33.2307
G1 X50.3757 Y33.5693
G1 X49.8677 Y34.0773
G1 X49.529 Y34.162
G1 X49.3173
G1 X48.9787 Y34.0773
G1 X48.5977 Y33.7387
G1 X47.7087
G1 X47.3277 Y34.0773
G1 X46.989 Y34.162
G1 X46.6503
G1 X34.543 Y46.3117
G1 X34.289 Y46.4387
G1 X32.4687
G1 X32.0877 Y46.7773
G1 X31.749 Y46.862
G1 X31.4527
G1 X31.1987 Y46.7773
G1 X30.6907 Y46.2693
G0 Z3.0
G0 X31.3511 Y44.2881
G0 Z1.2
G1 Z-0.2
G1 X31.1987 Y44.2373
G1 X30.6907 Y43.7293
G1 X30.606 Y43.3907
G1 Y43.179
G1 X30.6907 Y42.8403
G1 X31.1987 Y42.3323
G1 X31.5373 Y42.2477
G1 X31.749
G1 X32.0877 Y42.3323
G1 X32.4687 Y42.671
G1 X33.9927
G1 X45.846 Y30.7753
G1 Y30.479
G1 X45.9307 Y30.1403
G1 X46.4387 Y29.6323
G1 X46.7773 Y29.5477
G1 X46.989
G1 X47.3277 Y29.6323
G1 X47.7087 Y29.971
G1 X48.5977
G1 X48.9787 Y29.6323
G1 X49.3173 Y29.5477
G1 X49.529
G1 X49.8677 Y29.6323
G1 X50.3757 Y30.1403
G1 X50.4603 Y30.479
G1 Y30.6907
G1 X50.3757 Y31.0293
G1 X49.8677 Y31.5373
G1 X49.529 Y31.622
G1 X49.3173
G1 X48.9787 Y31.5373
G1 X48.5977 Y31.1987
G1 X47.7087
G1 X47.3277 Y31.5373
G1 X46.989 Y31.622
G1 X46.6503
G1 X34.543 Y43.7717
G1 X34.289 Y43.8987
G1 X32.4687
G1 X32.0877 Y44.2373
G1 X31.749 Y44.322
G1 X31.4527
G1 X31.3511 Y44.2881
G0 Z3.0
G0 X30.0557 Y43.7293
G0 Z1.2
G1 Z-0.2
G1 X29.5477 Y44.2373
G1 X29.209 Y44.322
G1 X28.9127
G1 X28.6587 Y44.2373
G1 X28.1507 Y43.7293
G1 X28.066 Y43.3907
G1 Y43.179
G1 X28.1507 Y42.8403
G1 X28.6587 Y42.3323
G1 X28.9973 Y42.2477
G1 X29.209
G1 X29.5477 Y42.3323
G1 X30.0557 Y42.8403
G1 X30.1403 Y43.179
G1 Y43.3907
G1 X30.0557 Y43.7293
G0 Z3.0
G0 X29.5477 Y41.6973
G0 Z1.2
G1 Z-0.2
G1 X29.209 Y41.782
G1 X28.9127
G1 X28.6587 Y41.6973
G1 X28.2777 Y41.3587
G1 X18.8373
G1 X18.5833 Y41.2317
G1 X13.6727 Y36.2787
G1 X12.1487
G1 X11.7677 Y36.6173
G1 X11.429 Y36.702
G1 X11.2173
G1 X10.8787 Y36.6173
G1 X10.3707 Y36.1093
G1 X10.286 Y35.7707
G1 Y35.559
G1 X10.3707 Y35.2203
G1 X10.8787 Y34.7123
G1 X11.2173 Y34.6277
G1 X11.429
G1 X11.7677 Y34.7123
G1 X12.1487 Y35.051
G1 X13.969
G1 X14.223 Y35.178
G1 X19.1337 Y40.131
G1 X28.2777
G1 X28.6587 Y39.7923
G1 X28.9973 Y39.7077
G1 X29.209
G1 X29.5477 Y39.7923
G1 X30.0557 Y40.3003
G1 X30.1403 Y40.639
G1 Y40.8507
G1 X30.0557 Y41.1893
G1 X29.5477 Y41.6973
G0 Z3.0
G0 X30.6907 Y41.1893
G0 Z1.2
G1 Z-0.2
G1 X30.606 Y40.8507
G1 Y40.639
G1 X30.6907 Y40.3003
G1 X31.1987 Y39.7923
G1 X31.5373 Y39.7077
G1 X31.749
G1 X32.0877 Y39.7923
G1 X32.4687 Y40.131
G1 X33.9927
G1 X45.846 Y28.2353
G1 Y27.939
G1 X45.9307 Y27.6003
G1 X46.4387 Y27.0923
G1 X46.7773 Y27.0077
G1 X46.989
G1 X47.3277 Y27.0923
G1 X47.7087 Y27.431
G1 X48.5977
G1 X48.9787 Y27.0923
G1 X49.3173 Y27.0077
G1 X49.529
G1 X49.8677 Y27.0923
G1 X50.3757 Y27.6003
G1 X50.4603 Y27.939
G1 Y28.1507
G1 X50.3757 Y28.4893
G1 X49.8677 Y28.9973
G1 X49.529 Y29.082
G1 X49.3173
G1 X48.9787 Y28.9973
G1 X48.5977 Y28.6587
G1 X47.7087
G1 X47.3277 Y28.9973
G1 X46.989 Y29.082
G1 X46.6503
G1 X34.543 Y41.2317
G1 X34.289 Y41.3587
G1 X32.4687
G1 X32.0877 Y41.6973
G1 X31.749 Y41.782
G1 X31.4527
G1 X31.1987 Y41.6973
G1 X30.6907 Y41.1893
G0 Z3.0
G0 X31.3511 Y39.2081
G0 Z1.2
G1 Z-0.2
G1 X31.1987 Y39.1573
G1 X30.6907 Y38.6493
G1 X30.606 Y38.3107
G1 Y38.099
G1 X30.6907 Y37.7603
G1 X31.1987 Y37.2523
G1 X31.5373 Y37.1677
G1 X31.749
G1 X32.0877 Y37.2523
G1 X32.4687 Y37.591
G1 X33.9927
G1 X45.846 Y25.6953
G1 Y25.399
G1 X45.9307 Y25.0603
G1 X46.4387 Y24.5523
G1 X46.7773 Y24.4677
G1 X46.989
G1 X47.3277 Y24.5523
G1 X47.7087 Y24.891
G1 X48.5977
G1 X48.9787 Y24.5523
G1 X49.3173 Y24.4677
G1 X49.529
G1 X49.8677 Y24.5523
G1 X50.3757 Y25.0603
G1 X50.4603 Y25.399
G1 Y25.6107
G1 X50.3757 Y25.9493
G1 X49.8677 Y26.4573
G1 X49.529 Y26.542
G1 X49.3173
G1 X48.9787 Y26.4573
G1 X48.5977 Y26.1187
G1 X47.7087
G1 X47.3277 Y26.4573
G1 X46.989 Y26.542
G1 X46.6503
G1 X34.543 Y38.6917
G1 X34.289 Y38.8187
G1 X32.4687
G1 X32.0877 Y39.1573
G1 X31.749 Y39.242
G1 X31.4527
G1 X31.3511 Y39.2081
G0 Z3.0
G0 X30.0557 Y38.6493
G0 Z1.2
G1 Z-0.2
G1 X29.5477 Y39.1573
G1 X29.209 Y39.242
G1 X28.9127
G1 X28.6587 Y39.1573
G1 X28.1507 Y38.6493
G1 X28.066 Y38.3107
G1 Y38.099
G1 X28.1507 Y37.7603
G1 X28.6587 Y37.2523
G1 X28.9973 Y37.1677
G1 X29.209
G1 X29.5477 Y37.2523
G1 X30.0557 Y37.7603
G1 X30.1403 Y38.099
G1 Y38.3107
G1 X30.0557 Y38.6493
G0 Z3.0
G0 X29.5477 Y36.6173
G0 Z1.2
G1 Z-0.2
G1 X29.209 Y36.702
G1 X28.9127
G1 X28.6587 Y36.6173
G1 X28.2777 Y36.2787
G1 X16.2973
G1 X16.0433 Y36.1517
G1 X13.6727 Y33.7387
G1 X12.1487
G1 X11.7677 Y34.0773
G1 X11.429 Y34.162
G1 X11.2173
G1 X10.8787 Y34.0773
G1 X10.3707 Y33.5693
G1 X10.286 Y33.2307
G1 Y33.019
G1 X10.3707 Y32.6803
G1 X10.8787 Y32.1723
G1 X11.2173 Y32.0877
G1 X11.429
G1 X11.7677 Y32.1723
G1 X12.1487 Y32.511
G1 X13.969
G1 X14.223 Y32.638
G1 X16.5937 Y35.051
G1 X28.2777
G1 X28.6587 Y34.7123
G1 X28.9973 Y34.6277
G1 X29.209
G1 X29.5477 Y34.7123
G1 X30.0557 Y35.2203
G1 X30.1403 Y35.559
G1 Y35.7707
G1 X30.0557 Y36.1093
G1 X29.5477 Y36.6173
G0 Z3.0
G0 X30.6907 Y36.1093
G0 Z1.2
G1 Z-0.2
G1 X30.606 Y35.7707
G1 Y35.559
G1 X30.6907 Y35.2203
G1 X31.1987 Y34.7123
G1 X31.5373 Y34.6277
G1 X31.749
G1 X32.0877 Y34.7123
G1 X32.4687 Y35.051
G1 X33.9927
G1 X45.846 Y23.1553
G1 Y22.859
G1 X45.9307 Y22.5203
G1 X46.4387 Y22.0123
G1 X46.7773 Y21.9277
G1 X46.989
G1 X47.3277 Y22.0123
G1 X47.7087 Y22.351
G1 X48.5977
G1 X48.9787 Y22.0123
G1 X49.3173 Y21.9277
G1 X49.529
G1 X49.8677 Y22.0123
G1 X50.3757 Y22.5203
G1 X50.4603 Y22.859
G1 Y23.0707
G1 X50.3757 Y23.4093
G1 X49.8677 Y23.9173
G1 X49.529 Y24.002
G1 X49.3173
G1 X48.9787 Y23.9173
G1 X48.5977 Y23.5787
G1 X47.7087
G1 X47.3277 Y23.9173
G1 X46.989 Y24.002
G1 X46.6503
G1 X34.543 Y36.1517
G1 X34.289 Y36.2787
G1 X32.4687
G1 X32.0877 Y36.6173
G1 X31.749 Y36.702
G1 X31.4527
G1 X31.1987 Y36.6173
G1 X30.6907 Y36.1093
G0 Z3.0
G0 Y29.1243
G0 Z1.2
G1 Z-0.2
G1 X30.5637
G1 Y26.9653
G1 X32.7227
G1 Y27.431
G1 X33.3577
G1 X33.7387 Y27.0923
G1 X34.0773 Y27.0077
G1 X34.289
G1 X34.6277 Y27.0923
G1 X35.1357 Y27.6003
G1 X35.2203 Y27.939
G1 Y28.1507
G1 X35.1357 Y28.4893
G1 X34.6277 Y28.9973
G1 X34.289 Y29.082
G1 X34.0773
G1 X33.7387 Y28.9973
G1 X33.3577 Y28.6587
G1 X32.7227
G1 Y29.1243
G1 X30.6907
G0 Z3.0
G0 X30.0557 Y28.4893
G0 Z1.2
G1 Z-0.2
G1 X29.5477 Y28.9973
G1 X29.209 Y29.082
G1 X28.9127
G1 X28.6587 Y28.9973
G1 X28.1507 Y28.4893
G1 X28.066 Y28.1507
G1 Y27.939
G1 X28.1507 Y27.6003
G1 X28.6587 Y27.0923
G1 X28.9973 Y27.0077
G1 X29.209
G1 X29.5477 Y27.0923
G1 X30.0557 Y27.6003
G1 X30.1403 Y27.939
G1 Y28.1507
G1 X30.0557 Y28.4893
G0 Z3.0
G0 X29.5477 Y26.4573
G0 Z1.2
G1 Z-0.2
G1 X29.209 Y26.542
G1 X28.9973
G1 X28.6587 Y26.4573
G1 X28.2777 Y26.1187
G1 X19.1337
G1 X14.223 Y31.0717
G1 X13.969 Y31.1987
G1 X12.1487
G1 X11.7677 Y31.5373
G1 X11.429 Y31.622
G1 X11.1327
G1 X10.8787 Y31.5373
G1 X10.3707 Y31.0293
G1 X10.286 Y30.6907
G1 Y30.479
G1 X10.3707 Y30.1403
G1 X10.8787 Y29.6323
G1 X11.2173 Y29.5477
G1 X11.429
G1 X11.7677 Y29.6323
G1 X12.1487 Y29.971
G1 X13.6727
G1 X18.5833 Y25.018
G1 X18.8373 Y24.891
G1 X28.2777
G1 X28.6587 Y24.5523
G1 X28.9973 Y24.4677
G1 X29.209
G1 X29.5477 Y24.5523
G1 X30.0557 Y25.0603
G1 X30.1403 Y25.399
G1 Y25.6107
G1 X30.0557 Y25.9493
G1 X29.5477 Y26.4573
G0 Z3.0
G0 X30.6907 Y25.9493
G0 Z1.2
G1 Z-0.2
G1 X30.606 Y25.6107
G1 Y25.399
G1 X30.6907 Y25.0603
G1 X31.1987 Y24.5523
G1 X31.5373 Y24.4677
G1 X31.749
G1 X32.0877 Y24.5523
G1 X32.4687 Y24.891
G1 X33.3577
G1 X33.7387 Y24.5523
G1 X34.0773 Y24.4677
G1 X34.289
G1 X34.6277 Y24.5523
G1 X35.1357 Y25.0603
G1 X35.2203 Y25.399
G1 Y25.6107
G1 X35.1357 Y25.9493
G1 X34.6277 Y26.4573
G1 X34.289 Y26.542
G1 X34.0773
G1 X33.7387 Y26.4573
G1 X33.3577 Y26.1187
G1 X32.4687
G1 X32.0877 Y26.4573
G1 X31.749 Y26.542
G1 X31.4527
G1 X31.1987 Y26.4573
G1 X30.6907 Y25.9493
G0 Z3.0
G0 X31.3511 Y23.9681
G0 Z1.2
G1 Z-0.2
G1 X31.1987 Y23.9173
G1 X30.6907 Y23.4093
G1 X30.606 Y23.0707
G1 Y22.859
G1 X30.6907 Y22.5203
G1 X31.1987 Y22.0123
G1 X31.5373 Y21.9277
G1 X31.749
G1 X32.0877 Y22.0123
G1 X32.4687 Y22.351
G1 X33.3577
G1 X33.7387 Y22.0123
G1 X34.0773 Y21.9277
G1 X34.289
G1 X34.6277 Y22.0123
G1 X35.1357 Y22.5203
G1 X35.2203 Y22.859
G1 Y23.0707
G1 X35.1357 Y23.4093
G1 X34.6277 Y23.9173
G1 X34.289 Y24.002
G1 X34.0773
G1 X33.7387 Y23.9173
G1 X33.3577 Y23.5787
G1 X32.4687
G1 X32.0877 Y23.9173
G1 X31.749 Y24.002
G1 X31.4527
G1 X31.3511 Y23.9681
G0 Z3.0
G0 X30.0557 Y23.4093
G0 Z1.2
G1 Z-0.2
G1 X29.5477 Y23.9173
G1 X29.209 Y24.002
G1 X28.9127
G1 X28.6587 Y23.9173
G1 X28.1507 Y23.4093
G1 X28.066 Y23.0707
G1 Y22.859
G1 X28.1507 Y22.5203
G1 X28.6587 Y22.0123
G1 X28.9973 Y21.9277
G1 X29.209
G1 X29.5477 Y22.0123
G1 X30.0557 Y22.5203
G1 X30.1403 Y22.859
G1 Y23.0707
G1 X30.0557 Y23.4093
G0 Z3.0
G0 X29.5477 Y21.3773
G0 Z1.2
G1 Z-0.2
G1 X29.209 Y21.462
G1 X28.9973
G1 X28.6587 Y21.3773
G1 X28.2777 Y21.0387
G1 X21.6737
G1 X14.223 Y28.5317
G1 X13.969 Y28.6587
G1 X12.1487
G1 X11.7677 Y28.9973
G1 X11.429 Y29.082
G1 X11.1327
G1 X10.8787 Y28.9973
G1 X10.3707 Y28.4893
G1 X10.286 Y28.1507
G1 Y27.939
G1 X10.3707 Y27.6003
G1 X10.8787 Y27.0923
G1 X11.2173 Y27.0077
G1 X11.429
G1 X11.7677 Y27.0923
G1 X12.1487 Y27.431
G1 X13.6727
G1 X21.1233 Y19.938
G1 X21.3773 Y19.811
G1 X28.2777
G1 X28.6587 Y19.4723
G1 X28.9973 Y19.3877
G1 X29.209
G1 X29.5477 Y19.4723
G1 X30.0557 Y19.9803
G1 X30.1403 Y20.319
G1 Y20.5307
G1 X30.0557 Y20.8693
G1 X29.5477 Y21.3773
G0 Z3.0
G0 X30.6907 Y20.8693
G0 Z1.2
G1 Z-0.2
G1 X30.606 Y20.5307
G1 Y20.319
G1 X30.6907 Y19.9803
G1 X31.1987 Y19.4723
G1 X31.5373 Y19.3877
G1 X31.749
G1 X32.0877 Y19.4723
G1 X32.4687 Y19.811
G1 X33.3577
G1 X33.7387 Y19.4723
G1 X34.0773 Y19.3877
G1 X34.289
G1 X34.6277 Y19.4723
G1 X35.1357 Y19.9803
G1 X35.2203 Y20.319
G1 Y20.5307
G1 X35.1357 Y20.8693
G1 X34.6277 Y21.3773
G1 X34.289 Y21.462
G1 X34.0773
G1 X33.7387 Y21.3773
G1 X33.3577 Y21.0387
G1 X32.4687
G1 X32.0877 Y21.3773
G1 X31.749 Y21.462
G1 X31.4527
G1 X31.1987 Y21.3773
G1 X30.6907 Y20.8693
G0 Z3.0
G0 X31.3511 Y18.8881
G0 Z1.2
G1 Z-0.2
G1 X31.1987 Y18.8373
G1 X30.6907 Y18.3293
G1 X30.606 Y17.9907
G1 Y17.779
G1 X30.6907 Y17.4403
G1 X31.1987 Y16.9323
G1 X31.5373 Y16.8477
G1 X31.749
G1 X32.0877 Y16.9323
G1 X32.4687 Y17.271
G1 X33.3577
G1 X33.7387 Y16.9323
G1 X34.0773 Y16.8477
G1 X34.289
G1 X34.6277 Y16.9323
G1 X35.1357 Y17.4403
G1 X35.2203 Y17.779
G1 Y17.9907
G1 X35.1357 Y18.3293
G1 X34.6277 Y18.8373
G1 X34.289 Y18.922
G1 X34.0773
G1 X33.7387 Y18.8373
G1 X33.3577 Y18.4987
G1 X32.4687
G1 X32.0877 Y18.8373
G1 X31.749 Y18.922
G1 X31.4527
G1 X31.3511 Y18.8881
G0 Z3.0
G0 X30.0557 Y18.3293
G0 Z1.2
G1 Z-0.2
G1 X29.5477 Y18.8373
G1 X29.209 Y18.922
G1 X28.9127
G1 X28.6587 Y18.8373
G1 X28.1507 Y18.3293
G1 X28.066 Y17.9907
G1 Y17.779
G1 X28.1507 Y17.4403
G1 X28.6587 Y16.9323
G1 X28.9973 Y16.8477
G1 X29.209
G1 X29.5477 Y16.9323
G1 X30.0557 Y17.4403
G1 X30.1403 Y17.779
G1 Y17.9907
G1 X30.0557 Y18.3293
G0 Z3.0
G0 X29.5477 Y16.2973
G0 Z1.2
G1 Z-0.2
G1 X29.209 Y16.382
G1 X28.9973
G1 X28.6587 Y16.2973
G1 X28.2777 Y15.9587
G1 X24.2137
G1 X14.223 Y25.9917
G1 X13.969 Y26.1187
G1 X12.1487
G1 X11.7677 Y26.4573
G1 X11.429 Y26.542
G1 X11.1327
G1 X10.8787 Y26.4573
G1 X10.3707 Y25.9493
G1 X10.286 Y25.6107
G1 Y25.399
G1 X10.3707 Y25.0603
G1 X10.8787 Y24.5523
G1 X11.2173 Y24.4677
G1 X11.429
G1 X11.7677 Y24.5523
G1 X12.1487 Y24.891
G1 X13.6727
G1 X23.6633 Y14.858
G1 X23.9173 Y14.731
G1 X28.2777
G1 X28.6587 Y14.3923
G1 X28.9973 Y14.3077
G1 X29.209
G1 X29.5477 Y14.3923
G1 X30.0557 Y14.9003
G1 X30.1403 Y15.239
G1 Y15.4507
G1 X30.0557 Y15.7893
G1 X29.5477 Y16.2973
G0 Z3.0
G0 X30.6907 Y15.7893
G0 Z1.2
G1 Z-0.2
G1 X30.606 Y15.4507
G1 Y15.239
G1 X30.6907 Y14.9003
G1 X31.1987 Y14.3923
G1 X31.5373 Y14.3077
G1 X31.749
G1 X32.0877 Y14.3923
G1 X32.4687 Y14.731
G1 X33.3577
G1 X33.7387 Y14.3923
G1 X34.0773 Y14.3077
G1 X34.289
G1 X34.6277 Y14.3923
G1 X35.1357 Y14.9003
G1 X35.2203 Y15.239
G1 Y15.4507
G1 X35.1357 Y15.7893
G1 X34.6277 Y16.2973
G1 X34.289 Y16.382
G1 X34.0773
G1 X33.7387 Y16.2973
G1 X33.3577 Y15.9587
G1 X32.4687
G1 X32.0877 Y16.2973
G1 X31.749 Y16.382
G1 X31.4527
G1 X31.1987 Y16.2973
G1 X30.6907 Y15.7893
G0 Z3.0
G0 X31.3511 Y13.8081
G0 Z1.2
G1 Z-0.2
G1 X31.1987 Y13.7573
G1 X30.6907 Y13.2493
G1 X30.606 Y12.9107
G1 Y12.699
G1 X30.6907 Y12.3603
G1 X31.1987 Y11.8523
G1 X31.5373 Y11.7677
G1 X31.749
G1 X32.0877 Y11.8523
G1 X32.4687 Y12.191
G1 X33.3577
G1 X33.7387 Y11.8523
G1 X34.0773 Y11.7677
G1 X34.289
G1 X34.6277 Y11.8523
G1 X35.1357 Y12.3603
G1 X35.2203 Y12.699
G1 Y12.9107
G1 X35.1357 Y13.2493
G1 X34.6277 Y13.7573
G1 X34.289 Y13.842
G1 X34.0773
G1 X33.7387 Y13.7573
G1 X33.3577 Y13.4187
G1 X32.4687
G1 X32.0877 Y13.7573
G1 X31.749 Y13.842
G1 X31.4527
G1 X31.3511 Y13.8081
G0 Z3.0
G0 X30.0557 Y13.2493
G0 Z1.2
G1 Z-0.2
G1 X29.5477 Y13.7573
G1 X29.209 Y13.842
G1 X28.9127
G1 X28.6587 Y13.7573
G1 X28.1507 Y13.2493
G1 X28.066 Y12.9107
G1 Y12.699
G1 X28.1507 Y12.3603
G1 X28.6587 Y11.8523
G1 X28.9973 Y11.7677
G1 X29.209
G1 X29.5477 Y11.8523
G1 X30.0557 Y12.3603
G1 X30.1403 Y12.699
G1 Y12.9107
G1 X30.0557 Y13.2493
G0 Z3.0
G0 X29.5477 Y11.2173
G0 Z1.2
G1 Z-0.2
G1 X29.209 Y11.302
G1 X28.9973
G1 X28.6587 Y11.2173
G1 X28.2777 Y10.8787
G1 X26.7537
G1 X14.223 Y23.4517
G1 X13.969 Y23.5787
G1 X12.1487
G1 X11.7677 Y23.9173
G1 X11.429 Y24.002
G1 X11.1327
G1 X10.8787 Y23.9173
G1 X10.3707 Y23.4093
G1 X10.286 Y23.0707
G1 Y22.859
G1 X10.3707 Y22.5203
G1 X10.8787 Y22.0123
G1 X11.2173 Y21.9277
G1 X11.429
G1 X11.7677 Y22.0123
G1 X12.1487 Y22.351
G1 X13.6727
G1 X26.2033 Y9.778
G1 X26.4573 Y9.651
G1 X28.2777
G1 X28.6587 Y9.3123
G1 X28.9973 Y9.2277
G1 X29.209
G1 X29.5477 Y9.3123
G1 X30.0557 Y9.8203
G1 X30.1403 Y10.159
G1 Y10.3707
G1 X30.0557 Y10.7093
G1 X29.5477 Y11.2173
G0 Z3.0
G0 X30.6907 Y10.7093
G0 Z1.2
G1 Z-0.2
G1 X30.606 Y10.3707
G1 Y10.159
G1 X30.6907 Y9.8203
G1 X31.1987 Y9.3123
G1 X31.5373 Y9.2277
G1 X31.749
G1 X32.0877 Y9.3123
G1 X32.4687 Y9.651
G1 X33.3577
G1 X33.7387 Y9.3123
G1 X34.0773 Y9.2277
G1 X34.289
G1 X34.6277 Y9.3123
G1 X35.1357 Y9.8203
G1 X35.2203 Y10.159
G1 Y10.3707
G1 X35.1357 Y10.7093
G1 X34.6277 Y11.2173
G1 X34.289 Y11.302
G1 X34.0773
G1 X33.7387 Y11.2173
G1 X33.3577 Y10.8787
G1 X32.4687
G1 X32.0877 Y11.2173
G1 X31.749 Y11.302
G1 X31.4527
G1 X31.1987 Y11.2173
G1 X30.6907 Y10.7093
G0 Z3.0
G0 X56.3707 Y22.5203
G0 Z1.2
G1 Z-0.2
G1 X56.8787 Y22.0123
G1 X57.2173 Y21.9277
G1 X57.429
G1 X57.7677 Y22.0123
G1 X58.1487 Y22.351
G1 X59.6727
G1 X72.2033 Y9.778
G1 X72.4573 Y9.651
G1 X74.2777
G1 X74.6587 Y9.3123
G1 X74.9973 Y9.2277
G1 X75.209
G1 X75.5477 Y9.3123
G1 X76.0557 Y9.8203
G1 X76.1403 Y10.159
G1 Y10.3707
G1 X76.0557 Y10.7093
G1 X75.5477 Y11.2173
G1 X75.209 Y11.302
G1 X74.9973
G1 X74.6587 Y11.2173
G1 X74.2777 Y10.8787
G1 X72.7537
G1 X60.223 Y23.4517
G1 X59.969 Y23.5787
G1 X58.1487
G1 X57.7677 Y23.9173
G1 X57.429 Y24.002
G1 X57.1327
G1 X56.8787 Y23.9173
G1 X56.3707 Y23.4093
G1 X56.286 Y23.0707
G1 Y22.859
G1 X56.3707 Y22.5203
G0 Z3.0
G0 X56.8787 Y24.5523
G0 Z1.2
G1 Z-0.2
G1 X57.2173 Y24.4677
G1 X57.429
G1 X57.7677 Y24.5523
G1 X58.1487 Y24.891
G1 X59.6727
G1 X69.6633 Y14.858
G1 X69.9173 Y14.731
G1 X74.2777
G1 X74.6587 Y14.3923
G1 X74.9973 Y14.3077
G1 X75.209
G1 X75.5477 Y14.3923
G1 X76.0557 Y14.9003
G1 X76.1403 Y15.239
G1 Y15.4507
G1 X76.0557 Y15.7893
G1 X75.5477 Y16.2973
G1 X75.209 Y16.382
G1 X74.9973
G1 X74.6587 Y16.2973
G1 X74.2777 Y15.9587
G1 X70.2137
G1 X60.223 Y25.9917
G1 X59.969 Y26.1187
G1 X58.1487
G1 X57.7677 Y26.4573
G1 X57.429 Y26.542
G1 X57.1327
G1 X56.8787 Y26.4573
G1 X56.3707 Y25.9493
G1 X56.286 Y25.6107
G1 Y25.399
G1 X56.3707 Y25.0603
G1 X56.8787 Y24.5523
G0 Z3.0
G0 X57.2173 Y27.0077
G0 Z1.2
G1 Z-0.2
G1 X57.429
G1 X57.7677 Y27.0923
G1 X58.1487 Y27.431
G1 X59.6727
G1 X67.1233 Y19.938
G1 X67.3773 Y19.811
G1 X74.2777
G1 X74.6587 Y19.4723
G1 X74.9973 Y19.3877
G1 X75.209
G1 X75.5477 Y19.4723
G1 X76.0557 Y19.9803
G1 X76.1403 Y20.319
G1 Y20.5307
G1 X76.0557 Y20.8693
G1 X75.5477 Y21.3773
G1 X75.209 Y21.462
G1 X74.9973
G1 X74.6587 Y21.3773
G1 X74.2777 Y21.0387
G1 X67.6737
G1 X60.223 Y28.5317
G1 X59.969 Y28.6587
G1 X58.1487
G1 X57.7677 Y28.9973
G1 X57.429 Y29.082
G1 X57.1327
G1 X56.8787 Y28.9973
G1 X56.3707 Y28.4893
G1 X56.286 Y28.1507
G1 Y27.939
G1 X56.3707 Y27.6003
G1 X56.8787 Y27.0923
G1 X57.2173 Y27.0077
G0 Z3.0
G0 Y29.5477
G0 Z1.2
G1 Z-0.2
G1 X57.429
G1 X57.7677 Y29.6323
G1 X58.1487 Y29.971
G1 X59.6727
G1 X64.5833 Y25.018
G1 X64.8373 Y24.891
G1 X74.2777
G1 X74.6587 Y24.5523
G1 X74.9973 Y24.4677
G1 X75.209
G1 X75.5477 Y24.5523
G1 X76.0557 Y25.0603
G1 X76.1403 Y25.399
G1 Y25.6107
G1 X76.0557 Y25.9493
G1 X75.5477 Y26.4573
G1 X75.209 Y26.542
G1 X74.9973
G1 X74.6587 Y26.4573
G1 X74.2777 Y26.1187
G1 X65.1337
G1 X60.223 Y31.0717
G1 X59.969 Y31.1987
G1 X58.1487
G1 X57.7677 Y31.5373
G1 X57.429 Y31.622
G1 X57.1327
G1 X56.8787 Y31.5373
G1 X56.3707 Y31.0293
G1 X56.286 Y30.6907
G1 Y30.479
G1 X56.3707 Y30.1403
G1 X56.8787 Y29.6323
G1 X57.2173 Y29.5477
G0 Z3.0
G0 Y32.0877
G0 Z1.2
G1 Z-0.2
G1 X57.429
G1 X57.7677 Y32.1723
G1 X58.1487 Y32.511
G1 X59.969
G1 X60.223 Y32.638
G1 X62.5937 Y35.051
G1 X74.2777
G1 X74.6587 Y34.7123
G1 X74.9973 Y34.6277
G1 X75.209
G1 X75.5477 Y34.7123
G1 X76.0557 Y35.2203
G1 X76.1403 Y35.559
G1 Y35.7707
G1 X76.0557 Y36.1093
G1 X75.5477 Y36.6173
G1 X75.209 Y36.702
G1 X74.9127
G1 X74.6587 Y36.6173
G1 X74.2777 Y36.2787
G1 X62.2973
G1 X62.0433 Y36.1517
G1 X59.6727 Y33.7387
G1 X58.1487
G1 X57.7677 Y34.0773
G1 X57.429 Y34.162
G1 X57.2173
G1 X56.8787 Y34.0773
G1 X56.3707 Y33.5693
G1 X56.286 Y33.2307
G1 Y33.019
G1 X56.3707 Y32.6803
G1 X56.8787 Y32.1723
G1 X57.2173 Y32.0877
G0 Z3.0
G0 Y34.6277
G0 Z1.2
G1 Z-0.2
G1 X57.429
G1 X57.7677 Y34.7123
G1 X58.1487 Y35.051
G1 X59.969
G1 X60.223 Y35.178
G1 X65.1337 Y40.131
G1 X74.2777
G1 X74.6587 Y39.7923
G1 X74.9973 Y39.7077
G1 X75.209
G1 X75.5477 Y39.7923
G1 X76.0557 Y40.3003
G1 X76.1403 Y40.639
G1 Y40.8507
G1 X76.0557 Y41.1893
G1 X75.5477 Y41.6973
G1 X75.209 Y41.782
G1 X74.9127
G1 X74.6587 Y41.6973
G1 X74.2777 Y41.3587
G1 X64.8373
G1 X64.5833 Y41.2317
G1 X59.6727 Y36.2787
G1 X58.1487
G1 X57.7677 Y36.6173
G1 X57.429 Y36.702
G1 X57.2173
G1 X56.8787 Y36.6173
G1 X56.3707 Y36.1093
G1 X56.286 Y35.7707
G1 Y35.559
G1 X56.3707 Y35.2203
G1 X56.8787 Y34.7123
G1 X57.2173 Y34.6277
G0 Z3.0
G0 Y37.1677
G0 Z1.2
G1 Z-0.2
G1 X57.429
G1 X57.7677 Y37.2523
G1 X58.1487 Y37.591
G1 X59.969
G1 X60.223 Y37.718
G1 X67.6737 Y45.211
G1 X74.2777
G1 X74.6587 Y44.8723
G1 X74.9973 Y44.7877
G1 X75.209
G1 X75.5477 Y44.8723
G1 X76.0557 Y45.3803
G1 X76.1403 Y45.719
G1 Y45.9307
G1 X76.0557 Y46.2693
G1 X75.5477 Y46.7773
G1 X75.209 Y46.862
G1 X74.9127
G1 X74.6587 Y46.7773
G1 X74.2777 Y46.4387
G1 X67.3773
G1 X67.1233 Y46.3117
G1 X59.6727 Y38.8187
G1 X58.1487
G1 X57.7677 Y39.1573
G1 X57.429 Y39.242
G1 X57.2173
G1 X56.8787 Y39.1573
G1 X56.3707 Y38.6493
G1 X56.286 Y38.3107
G1 Y38.099
G1 X56.3707 Y37.7603
G1 X56.8787 Y37.2523
G1 X57.2173 Y37.1677
G0 Z3.0
G0 Y39.6653
G0 Z1.2
G1 Z-0.2
G1 X58.4027
G1 Y40.131
G1 X59.969
G1 X60.223 Y40.258
G1 X70.2137 Y50.291
G1 X74.2777
G1 X74.6587 Y49.9523
G1 X74.9973 Y49.8677
G1 X75.209
G1 X75.5477 Y49.9523
G1 X76.0557 Y50.4603
G1 X76.1403 Y50.799
G1 Y51.0107
G1 X76.0557 Y51.3493
G1 X75.5477 Y51.8573
G1 X75.209 Y51.942
G1 X74.9127
G1 X74.6587 Y51.8573
G1 X74.2777 Y51.5187
G1 X69.9173
G1 X69.6633 Y51.3917
G1 X59.6727 Y41.3587
G1 X58.4027
G1 Y41.8243
G1 X56.2437
G1 Y39.6653
G1 X57.2173
G0 Z3.0
G0 X74.066 Y38.3107
G0 Z1.2
G1 Z-0.2
G1 Y38.099
G1 X74.1507 Y37.7603
G1 X74.6587 Y37.2523
G1 X74.9973 Y37.1677
G1 X75.209
G1 X75.5477 Y37.2523
G1 X76.0557 Y37.7603
G1 X76.1403 Y38.099
G1 Y38.3107
G1 X76.0557 Y38.6493
G1 X75.5477 Y39.1573
G1 X75.209 Y39.242
G1 X74.9127
G1 X74.6587 Y39.1573
G1 X74.1507 Y38.6493
G1 X74.066 Y38.3107
G0 Z3.0
G0 X76.606
G0 Z1.2
G1 Z-0.2
G1 Y38.099
G1 X76.6907 Y37.7603
G1 X77.1987 Y37.2523
G1 X77.5373 Y37.1677
G1 X77.749
G1 X78.0877 Y37.2523
G1 X78.4687 Y37.591
G1 X79.9927
G1 X91.846 Y25.6953
G1 Y25.399
G1 X91.9307 Y25.0603
G1 X92.4387 Y24.5523
G1 X92.7773 Y24.4677
G1 X92.989
G1 X93.3277 Y24.5523
G1 X93.7087 Y24.891
G1 X94.5977
G1 X94.9787 Y24.5523
G1 X95.3173 Y24.4677
G1 X95.529
G1 X95.8677 Y24.5523
G1 X96.3757 Y25.0603
G1 X96.4603 Y25.399
G1 Y25.6107
G1 X96.3757 Y25.9493
G1 X95.8677 Y26.4573
G1 X95.529 Y26.542
G1 X95.3173
G1 X94.9787 Y26.4573
G1 X94.5977 Y26.1187
G1 X93.7087
G1 X93.3277 Y26.4573
G1 X92.989 Y26.542
G1 X92.6503
G1 X80.543 Y38.6917
G1 X80.289 Y38.8187
G1 X78.4687
G1 X78.0877 Y39.1573
G1 X77.749 Y39.242
G1 X77.4527
G1 X77.1987 Y39.1573
G1 X76.6907 Y38.6493
G1 X76.606 Y38.3107
G0 Z3.0
G0 X77.1987 Y39.7923
G0 Z1.2
G1 Z-0.2
G1 X77.5373 Y39.7077
G1 X77.749
G1 X78.0877 Y39.7923
G1 X78.4687 Y40.131
G1 X79.9927
G1 X91.846 Y28.2353
G1 Y27.939
G1 X91.9307 Y27.6003
G1 X92.4387 Y27.0923
G1 X92.7773 Y27.0077
G1 X92.989
G1 X93.3277 Y27.0923
G1 X93.7087 Y27.431
G1 X94.5977
G1 X94.9787 Y27.0923
G1 X95.3173 Y27.0077
G1 X95.529
G1 X95.8677 Y27.0923
G1 X96.3757 Y27.6003
G1 X96.4603 Y27.939
G1 Y28.1507
G1 X96.3757 Y28.4893
G1 X95.8677 Y28.9973
G1 X95.529 Y29.082
G1 X95.3173
G1 X94.9787 Y28.9973
G1 X94.5977 Y28.6587
G1 X93.7087
G1 X93.3277 Y28.9973
G1 X92.989 Y29.082
G1 X92.6503
G1 X80.543 Y41.2317
G1 X80.289 Y41.3587
G1 X78.4687
G1 X78.0877 Y41.6973
G1 X77.749 Y41.782
G1 X77.4527
G1 X77.1987 Y41.6973
G1 X76.6907 Y41.1893
G1 X76.606 Y40.8507
G1 Y40.639
G1 X76.6907 Y40.3003
G1 X77.1987 Y39.7923
G0 Z3.0
G0 X77.5373 Y42.2477
G0 Z1.2
G1 Z-0.2
G1 X77.749
G1 X78.0877 Y42.3323
G1 X78.4687 Y42.671
G1 X79.9927
G1 X91.846 Y30.7753
G1 Y30.479
G1 X91.9307 Y30.1403
G1 X92.4387 Y29.6323
G1 X92.7773 Y29.5477
G1 X92.989
G1 X93.3277 Y29.6323
G1 X93.7087 Y29.971
G1 X94.5977
G1 X94.9787 Y29.6323
G1 X95.3173 Y29.5477
G1 X95.529
G1 X95.8677 Y29.6323
G1 X96.3757 Y30.1403
G1 X96.4603 Y30.479
G1 Y30.6907
G1 X96.3757 Y31.0293
G1 X95.8677 Y31.5373
G1 X95.529 Y31.622
G1 X95.3173
G1 X94.9787 Y31.5373
G1 X94.5977 Y31.1987
G1 X93.7087
G1 X93.3277 Y31.5373
G1 X92.989 Y31.622
G1 X92.6503
G1 X80.543 Y43.7717
G1 X80.289 Y43.8987
G1 X78.4687
G1 X78.0877 Y44.2373
G1 X77.749 Y44.322
G1 X77.4527
G1 X77.1987 Y44.2373
G1 X76.6907 Y43.7293
G1 X76.606 Y43.3907
G1 Y43.179
G1 X76.6907 Y42.8403
G1 X77.1987 Y42.3323
G1 X77.5373 Y42.2477
G0 Z3.0
G0 X76.0557 Y42.8403
G0 Z1.2
G1 Z-0.2
G1 X76.1403 Y43.179
G1 Y43.3907
G1 X76.0557 Y43.7293
G1 X75.5477 Y44.2373
G1 X75.209 Y44.322
G1 X74.9127
G1 X74.6587 Y44.2373
G1 X74.1507 Y43.7293
G1 X74.066 Y43.3907
G1 Y43.179
G1 X74.1507 Y42.8403
G1 X74.6587 Y42.3323
G1 X74.9973 Y42.2477
G1 X75.209
G1 X75.5477 Y42.3323
G1 X76.0557 Y42.8403
G0 Z3.0
G0 X77.1987 Y44.8723
G0 Z1.2
G1 Z-0.2
G1 X77.5373 Y44.7877
G1 X77.749
G1 X78.0877 Y44.8723
G1 X78.4687 Y45.211
G1 X79.9927
G1 X91.846 Y33.3153
G1 Y33.019
G1 X91.9307 Y32.6803
G1 X92.4387 Y32.1723
G1 X92.7773 Y32.0877
G1 X92.989
G1 X93.3277 Y32.1723
G1 X93.7087 Y32.511
G1 X94.5977
G1 X94.9787 Y32.1723
G1 X95.3173 Y32.0877
G1 X95.529
G1 X95.8677 Y32.1723
G1 X96.3757 Y32.6803
G1 X96.4603 Y33.019
G1 Y33.2307
G1 X96.3757 Y33.5693
G1 X95.8677 Y34.0773
G1 X95.529 Y34.162
G1 X95.3173
G1 X94.9787 Y34.0773
G1 X94.5977 Y33.7387
G1 X93.7087
G1 X93.3277 Y34.0773
G1 X92.989 Y34.162
G1 X92.6503
G1 X80.543 Y46.3117
G1 X80.289 Y46.4387
G1 X78.4687
G1 X78.0877 Y46.7773
G1 X77.749 Y46.862
G1 X77.4527
G1 X77.1987 Y46.7773
G1 X76.6907 Y46.2693
G1 X76.606 Y45.9307
G1 Y45.719
G1 X76.6907 Y45.3803
G1 X77.1987 Y44.8723
G0 Z3.0
G0 X77.5373 Y47.3277
G0 Z1.2
G1 Z-0.2
G1 X77.749
G1 X78.0877 Y47.4123
G1 X78.4687 Y47.751
G1 X79.9927
G1 X91.846 Y35.8553
G1 Y35.559
G1 X91.9307 Y35.2203
G1 X92.4387 Y34.7123
G1 X92.7773 Y34.6277
G1 X92.989
G1 X93.3277 Y34.7123
G1 X93.7087 Y35.051
G1 X94.5977
G1 X94.9787 Y34.7123
G1 X95.3173 Y34.6277
G1 X95.529
G1 X95.8677 Y34.7123
G1 X96.3757 Y35.2203
G1 X96.4603 Y35.559
G1 Y35.7707
G1 X96.3757 Y36.1093
G1 X95.8677 Y36.6173
G1 X95.529 Y36.702
G1 X95.3173
G1 X94.9787 Y36.6173
G1 X94.5977 Y36.2787
G1 X93.7087
G1 X93.3277 Y36.6173
G1 X92.989 Y36.702
G1 X92.6503
G1 X80.543 Y48.8517
G1 X80.289 Y48.9787
G1 X78.4687
G1 X78.0877 Y49.3173
G1 X77.749 Y49.402
G1 X77.4527
G1 X77.1987 Y49.3173
G1 X76.6907 Y48.8093
G1 X76.606 Y48.4707
G1 Y48.259
G1 X76.6907 Y47.9203
G1 X77.1987 Y47.4123
G1 X77.5373 Y47.3277
G0 Z3.0
G0 X76.0557 Y47.9203
G0 Z1.2
G1 Z-0.2
G1 X76.1403 Y48.259
G1 Y48.4707
G1 X76.0557 Y48.8093
G1 X75.5477 Y49.3173
G1 X75.209 Y49.402
G1 X74.9127
G1 X74.6587 Y49.3173
G1 X74.1507 Y48.8093
G1 X74.066 Y48.4707
G1 Y48.259
G1 X74.1507 Y47.9203
G1 X74.6587 Y47.4123
G1 X74.9973 Y47.3277
G1 X75.209
G1 X75.5477 Y47.4123
G1 X76.0557 Y47.9203
G0 Z3.0
G0 X77.1987 Y49.9523
G0 Z1.2
G1 Z-0.2
G1 X77.5373 Y49.8677
G1 X77.749
G1 X78.0877 Y49.9523
G1 X78.4687 Y50.291
G1 X79.9927
G1 X91.846 Y38.3953
G1 Y38.099
G1 X91.9307 Y37.7603
G1 X92.4387 Y37.2523
G1 X92.7773 Y37.1677
G1 X92.989
G1 X93.3277 Y37.2523
G1 X93.7087 Y37.591
G1 X94.5977
G1 X94.9787 Y37.2523
G1 X95.3173 Y37.1677
G1 X95.529
G1 X95.8677 Y37.2523
G1 X96.3757 Y37.7603
G1 X96.4603 Y38.099
G1 Y38.3107
G1 X96.3757 Y38.6493
G1 X95.8677 Y39.1573
G1 X95.529 Y39.242
G1 X95.3173
G1 X94.9787 Y39.1573
G1 X94.5977 Y38.8187
G1 X93.7087
G1 X93.3277 Y39.1573
G1 X92.989 Y39.242
G1 X92.6503
G1 X80.543 Y51.3917
G1 X80.289 Y51.5187
G1 X78.4687
G1 X78.0877 Y51.8573
G1 X77.749 Y51.942
G1 X77.4527
G1 X77.1987 Y51.8573
G1 X76.6907 Y51.3493
G1 X76.606 Y51.0107
G1 Y50.799
G1 X76.6907 Y50.4603
G1 X77.1987 Y49.9523
G0 Z3.0
G0 Y52.3653
G0 Z1.2
G1 Z-0.2
G1 X78.7227
G1 Y52.831
G1 X79.9927
G1 X91.846 Y40.9353
G1 Y40.639
G1 X91.9307 Y40.3003
G1 X92.4387 Y39.7923
G1 X92.7773 Y39.7077
G1 X92.989
G1 X93.3277 Y39.7923
G1 X93.7087 Y40.131
G1 X94.3437
G1 Y39.6653
G1 X96.5027
G1 Y41.8243
G1 X94.3437
G1 Y41.3587
G1 X93.7087
G1 X93.3277 Y41.6973
G1 X92.989 Y41.782
G1 X92.6503
G1 X80.543 Y53.9317
G1 X80.289 Y54.0587
G1 X78.7227
G1 Y54.5243
G1 X76.5637
G1 Y52.3653
G1 X77.1987
G0 Z3.0
G0 X76.0557 Y53.0003
G0 Z1.2
G1 Z-0.2
G1 X76.1403 Y53.339
G1 Y53.5507
G1 X76.0557 Y53.8893
G1 X75.5477 Y54.3973
G1 X75.209 Y54.482
G1 X74.9127
G1 X74.6587 Y54.3973
G1 X74.1507 Y53.8893
G1 X74.066 Y53.5507
G1 Y53.339
G1 X74.1507 Y53.0003
G1 X74.6587 Y52.4923
G1 X74.9973 Y52.4077
G1 X75.209
G1 X75.5477 Y52.4923
G1 X76.0557 Y53.0003
G0 Z3.0
G0 X75.209 Y59.2277
G0 Z1.2
G1 Z-0.2
G1 X75.5477 Y59.3123
G1 X76.0557 Y59.8203
G1 X76.1403 Y60.159
G1 Y60.3707
G1 X76.0557 Y60.7093
G1 X75.5477 Y61.2173
G1 X75.209 Y61.302
G1 X74.9973
G1 X74.6587 Y61.2173
G1 X74.2777 Y60.8787
G1 X72.7537
G1 X60.223 Y73.4517
G1 X59.969 Y73.5787
G1 X58.1487
G1 X57.7677 Y73.9173
G1 X57.429 Y74.002
G1 X57.1327
G1 X56.8787 Y73.9173
G1 X56.3707 Y73.4093
G1 X56.286 Y73.0707
G1 Y72.859
G1 X56.3707 Y72.5203
G1 X56.8787 Y72.0123
G1 X57.2173 Y71.9277
G1 X57.429
G1 X57.7677 Y72.0123
G1 X58.1487 Y72.351
G1 X59.6727
G1 X72.2033 Y59.778
G1 X72.4573 Y59.651
G1 X74.2777
G1 X74.6587 Y59.3123
G1 X74.9973 Y59.2277
G1 X75.209
G0 Z3.0
G0 X76.6907 Y59.8203
G0 Z1.2
G1 Z-0.2
G1 X77.1987 Y59.3123
G1 X77.5373 Y59.2277
G1 X77.749
G1 X78.0877 Y59.3123
G1 X78.4687 Y59.651
G1 X79.3577
G1 X79.7387 Y59.3123
G1 X80.0773 Y59.2277
G1 X80.289
G1 X80.6277 Y59.3123
G1 X81.1357 Y59.8203
G1 X81.2203 Y60.159
G1 Y60.3707
G1 X81.1357 Y60.7093
G1 X80.6277 Y61.2173
G1 X80.289 Y61.302
G1 X80.0773
G1 X79.7387 Y61.2173
G1 X79.3577 Y60.8787
G1 X78.4687
G1 X78.0877 Y61.2173
G1 X77.749 Y61.302
G1 X77.4527
G1 X77.1987 Y61.2173
G1 X76.6907 Y60.7093
G1 X76.606 Y60.3707
G1 Y60.159
G1 X76.6907 Y59.8203
G0 Z3.0
G0 X77.1987 Y61.8523
G0 Z1.2
G1 Z-0.2
G1 X77.5373 Y61.7677
G1 X77.749
G1 X78.0877 Y61.8523
G1 X78.4687 Y62.191
G1 X79.3577
G1 X79.7387 Y61.8523
G1 X80.0773 Y61.7677
G1 X80.289
G1 X80.6277 Y61.8523
G1 X81.1357 Y62.3603
G1 X81.2203 Y62.699
G1 Y62.9107
G1 X81.1357 Y63.2493
G1 X80.6277 Y63.7573
G1 X80.289 Y63.842
G1 X80.0773
G1 X79.7387 Y63.7573
G1 X79.3577 Y63.4187
G1 X78.4687
G1 X78.0877 Y63.7573
G1 X77.749 Y63.842
G1 X77.4527
G1 X77.1987 Y63.7573
G1 X76.6907 Y63.2493
G1 X76.606 Y62.9107
G1 Y62.699
G1 X76.6907 Y62.3603
G1 X77.1987 Y61.8523
G0 Z3.0
G0 X76.0557 Y62.3603
G0 Z1.2
G1 Z-0.2
G1 X76.1403 Y62.699
G1 Y62.9107
G1 X76.0557 Y63.2493
G1 X75.5477 Y63.7573
G1 X75.209 Y63.842
G1 X74.9127
G1 X74.6587 Y63.7573
G1 X74.1507 Y63.2493
G1 X74.066 Y62.9107
G1 Y62.699
G1 X74.1507 Y62.3603
G1 X74.6587 Y61.8523
G1 X74.9973 Y61.7677
G1 X75.209
G1 X75.5477 Y61.8523
G1 X76.0557 Y62.3603
G0 Z3.0
G0 X75.5477 Y64.3923
G0 Z1.2
G1 Z-0.2
G1 X76.0557 Y64.9003
G1 X76.1403 Y65.239
G1 Y65.4507
G1 X76.0557 Y65.7893
G1 X75.5477 Y66.2973
G1 X75.209 Y66.382
G1 X74.9973
G1 X74.6587 Y66.2973
G1 X74.2777 Y65.9587
G1 X70.2137
G1 X60.223 Y75.9917
G1 X59.969 Y76.1187
G1 X58.1487
G1 X57.7677 Y76.4573
G1 X57.429 Y76.542
G1 X57.1327
G1 X56.8787 Y76.4573
G1 X56.3707 Y75.9493
G1 X56.286 Y75.6107
G1 Y75.399
G1 X56.3707 Y75.0603
G1 X56.8787 Y74.5523
G1 X57.2173 Y74.4677
G1 X57.429
G1 X57.7677 Y74.5523
G1 X58.1487 Y74.891
G1 X59.6727
G1 X69.6633 Y64.858
G1 X69.9173 Y64.731
G1 X74.2777
G1 X74.6587 Y64.3923
G1 X74.9973 Y64.3077
G1 X75.209
G1 X75.5477 Y64.3923
G0 Z3.0
G0 X76.6907 Y64.9003
G0 Z1.2
G1 Z-0.2
G1 X77.1987 Y64.3923
G1 X77.5373 Y64.3077
G1 X77.749
G1 X78.0877 Y64.3923
G1 X78.4687 Y64.731
G1 X79.3577
G1 X79.7387 Y64.3923
G1 X80.0773 Y64.3077
G1 X80.289
G1 X80.6277 Y64.3923
G1 X81.1357 Y64.9003
G1 X81.2203 Y65.239
G1 Y65.4507
G1 X81.1357 Y65.7893
G1 X80.6277 Y66.2973
G1 X80.289 Y66.382
G1 X80.0773
G1 X79.7387 Y66.2973
G1 X79.3577 Y65.9587
G1 X78.4687
G1 X78.0877 Y66.2973
G1 X77.749 Y66.382
G1 X77.4527
G1 X77.1987 Y66.2973
G1 X76.6907 Y65.7893
G1 X76.606 Y65.4507
G1 Y65.239
G1 X76.6907 Y64.9003
G0 Z3.0
G0 X77.1987 Y66.9323
G0 Z1.2
G1 Z-0.2
G1 X77.5373 Y66.8477
G1 X77.749
G1 X78.0877 Y66.9323
G1 X78.4687 Y67.271
G1 X79.3577
G1 X79.7387 Y66.9323
G1 X80.0773 Y66.8477
G1 X80.289
G1 X80.6277 Y66.9323
G1 X81.1357 Y67.4403
G1 X81.2203 Y67.779
G1 Y67.9907
G1 X81.1357 Y68.3293
G1 X80.6277 Y68.8373
G1 X80.289 Y68.922
G1 X80.0773
G1 X79.7387 Y68.8373
G1 X79.3577 Y68.4987
G1 X78.4687
G1 X78.0877 Y68.8373
G1 X77.749 Y68.922
G1 X77.4527
G1 X77.1987 Y68.8373
G1 X76.6907 Y68.3293
G1 X76.606 Y67.9907
G1 Y67.779
G1 X76.6907 Y67.4403
G1 X77.1987 Y66.9323
G0 Z3.0
G0 X76.0557 Y67.4403
G0 Z1.2
G1 Z-0.2
G1 X76.1403 Y67.779
G1 Y67.9907
G1 X76.0557 Y68.3293
G1 X75.5477 Y68.8373
G1 X75.209 Y68.922
G1 X74.9127
G1 X74.6587 Y68.8373
G1 X74.1507 Y68.3293
G1 X74.066 Y67.9907
G1 Y67.779
G1 X74.1507 Y67.4403
G1 X74.6587 Y66.9323
G1 X74.9973 Y66.8477
G1 X75.209
G1 X75.5477 Y66.9323
G1 X76.0557 Y67.4403
G0 Z3.0
G0 X75.5477 Y69.4723
G0 Z1.2
G1 Z-0.2
G1 X76.0557 Y69.9803
G1 X76.1403 Y70.319
G1 Y70.5307
G1 X76.0557 Y70.8693
G1 X75.5477 Y71.3773
G1 X75.209 Y71.462
G1 X74.9973
G1 X74.6587 Y71.3773
G1 X74.2777 Y71.0387
G1 X67.6737
G1 X60.223 Y78.5317
G1 X59.969 Y78.6587
G1 X58.1487
G1 X57.7677 Y78.9973
G1 X57.429 Y79.082
G1 X57.1327
G1 X56.8787 Y78.9973
G1 X56.3707 Y78.4893
G1 X56.286 Y78.1507
G1 Y77.939
G1 X56.3707 Y77.6003
G1 X56.8787 Y77.0923
G1 X57.2173 Y77.0077
G1 X57.429
G1 X57.7677 Y77.0923
G1 X58.1487 Y77.431
G1 X59.6727
G1 X67.1233 Y69.938
G1 X67.3773 Y69.811
G1 X74.2777
G1 X74.6587 Y69.4723
G1 X74.9973 Y69.3877
G1 X75.209
G1 X75.5477 Y69.4723
G0 Z3.0
G0 X76.6907 Y69.9803
G0 Z1.2
G1 Z-0.2
G1 X77.1987 Y69.4723
G1 X77.5373 Y69.3877
G1 X77.749
G1 X78.0877 Y69.4723
G1 X78.4687 Y69.811
G1 X79.3577
G1 X79.7387 Y69.4723
G1 X80.0773 Y69.3877
G1 X80.289
G1 X80.6277 Y69.4723
G1 X81.1357 Y69.9803
G1 X81.2203 Y70.319
G1 Y70.5307
G1 X81.1357 Y70.8693
G1 X80.6277 Y71.3773
G1 X80.289 Y71.462
G1 X80.0773
G1 X79.7387 Y71.3773
G1 X79.3577 Y71.0387
G1 X78.4687
G1 X78.0877 Y71.3773
G1 X77.749 Y71.462
G1 X77.4527
G1 X77.1987 Y71.3773
G1 X76.6907 Y70.8693
G1 X76.606 Y70.5307
G1 Y70.319
G1 X76.6907 Y69.9803
G0 Z3.0
G0 X77.1987 Y72.0123
G0 Z1.2
G1 Z-0.2
G1 X77.5373 Y71.9277
G1 X77.749
G1 X78.0877 Y72.0123
G1 X78.4687 Y72.351
G1 X79.3577
G1 X79.7387 Y72.0123
G1 X80.0773 Y71.9277
G1 X80.289
G1 X80.6277 Y72.0123
G1 X81.1357 Y72.5203
G1 X81.2203 Y72.859
G1 Y73.0707
G1 X81.1357 Y73.4093
G1 X80.6277 Y73.9173
G1 X80.289 Y74.002
G1 X80.0773
G1 X79.7387 Y73.9173
G1 X79.3577 Y73.5787
G1 X78.4687
G1 X78.0877 Y73.9173
G1 X77.749 Y74.002
G1 X77.4527
G1 X77.1987 Y73.9173
G1 X76.6907 Y73.4093
G1 X76.606 Y73.0707
G1 Y72.859
G1 X76.6907 Y72.5203
G1 X77.1987 Y72.0123
G0 Z3.0
G0 X76.0557 Y72.5203
G0 Z1.2
G1 Z-0.2
G1 X76.1403 Y72.859
G1 Y73.0707
G1 X76.0557 Y73.4093
G1 X75.5477 Y73.9173
G1 X75.209 Y74.002
G1 X74.9127
G1 X74.6587 Y73.9173
G1 X74.1507 Y73.4093
G1 X74.066 Y73.0707
G1 Y72.859
G1 X74.1507 Y72.5203
G1 X74.6587 Y72.0123
G1 X74.9973 Y71.9277
G1 X75.209
G1 X75.5477 Y72.0123
G1 X76.0557 Y72.5203
G0 Z3.0
G0 X75.5477 Y74.5523
G0 Z1.2
G1 Z-0.2
G1 X76.0557 Y75.0603
G1 X76.1403 Y75.399
G1 Y75.6107
G1 X76.0557 Y75.9493
G1 X75.5477 Y76.4573
G1 X75.209 Y76.542
G1 X74.9973
G1 X74.6587 Y76.4573
G1 X74.2777 Y76.1187
G1 X65.1337
G1 X60.223 Y81.0717
G1 X59.969 Y81.1987
G1 X58.1487
G1 X57.7677 Y81.5373
G1 X57.429 Y81.622
G1 X57.1327
G1 X56.8787 Y81.5373
G1 X56.3707 Y81.0293
G1 X56.286 Y80.6907
G1 Y80.479
G1 X56.3707 Y80.1403
G1 X56.8787 Y79.6323
G1 X57.2173 Y79.5477
G1 X57.429
G1 X57.7677 Y79.6323
G1 X58.1487 Y79.971
G1 X59.6727
G1 X64.5833 Y75.018
G1 X64.8373 Y74.891
G1 X74.2777
G1 X74.6587 Y74.5523
G1 X74.9973 Y74.4677
G1 X75.209
G1 X75.5477 Y74.5523
G0 Z3.0
G0 X76.6907 Y75.0603
G0 Z1.2
G1 Z-0.2
G1 X77.1987 Y74.5523
G1 X77.5373 Y74.4677
G1 X77.749
G1 X78.0877 Y74.5523
G1 X78.4687 Y74.891
G1 X79.3577
G1 X79.7387 Y74.5523
G1 X80.0773 Y74.4677
G1 X80.289
G1 X80.6277 Y74.5523
G1 X81.1357 Y75.0603
G1 X81.2203 Y75.399
G1 Y75.6107
G1 X81.1357 Y75.9493
G1 X80.6277 Y76.4573
G1 X80.289 Y76.542
G1 X80.0773
G1 X79.7387 Y76.4573
G1 X79.3577 Y76.1187
G1 X78.4687
G1 X78.0877 Y76.4573
G1 X77.749 Y76.542
G1 X77.4527
G1 X77.1987 Y76.4573
G1 X76.6907 Y75.9493
G1 X76.606 Y75.6107
G1 Y75.399
G1 X76.6907 Y75.0603
G0 Z3.0
G0 Y76.9653
G0 Z1.2
G1 Z-0.2
G1 X78.7227
G1 Y77.431
G1 X79.3577
G1 X79.7387 Y77.0923
G1 X80.0773 Y77.0077
G1 X80.289
G1 X80.6277 Y77.0923
G1 X81.1357 Y77.6003
G1 X81.2203 Y77.939
G1 Y78.1507
G1 X81.1357 Y78.4893
G1 X80.6277 Y78.9973
G1 X80.289 Y79.082
G1 X80.0773
G1 X79.7387 Y78.9973
G1 X79.3577 Y78.6587
G1 X78.7227
G1 Y79.1243
G1 X76.5637
G1 Y76.9653
G1 X76.6907
G0 Z3.0
G0 X76.0557 Y77.6003
G0 Z1.2
G1 Z-0.2
G1 X76.1403 Y77.939
G1 Y78.1507
G1 X76.0557 Y78.4893
G1 X75.5477 Y78.9973
G1 X75.209 Y79.082
G1 X74.9127
G1 X74.6587 Y78.9973
G1 X74.1507 Y78.4893
G1 X74.066 Y78.1507
G1 Y77.939
G1 X74.1507 Y77.6003
G1 X74.6587 Y77.0923
G1 X74.9973 Y77.0077
G1 X75.209
G1 X75.5477 Y77.0923
G1 X76.0557 Y77.6003
G0 Z3.0
G0 X75.209 Y84.6277
G0 Z1.2
G1 Z-0.2
G1 X75.5477 Y84.7123
G1 X76.0557 Y85.2203
G1 X76.1403 Y85.559
G1 Y85.7707
G1 X76.0557 Y86.1093
G1 X75.5477 Y86.6173
G1 X75.209 Y86.702
G1 X74.9127
G1 X74.6587 Y86.6173
G1 X74.2777 Y86.2787
G1 X62.2973
G1 X62.0433 Y86.1517
G1 X59.6727 Y83.7387
G1 X58.1487
G1 X57.7677 Y84.0773
G1 X57.429 Y84.162
G1 X57.2173
G1 X56.8787 Y84.0773
G1 X56.3707 Y83.5693
G1 X56.286 Y83.2307
G1 Y83.019
G1 X56.3707 Y82.6803
G1 X56.8787 Y82.1723
G1 X57.2173 Y82.0877
G1 X57.429
G1 X57.7677 Y82.1723
G1 X58.1487 Y82.511
G1 X59.969
G1 X60.223 Y82.638
G1 X62.5937 Y85.051
G1 X74.2777
G1 X74.6587 Y84.7123
G1 X74.9973 Y84.6277
G1 X75.209
G0 Z3.0
G0 X76.6907 Y85.2203
G0 Z1.2
G1 Z-0.2
G1 X77.1987 Y84.7123
G1 X77.5373 Y84.6277
G1 X77.749
G1 X78.0877 Y84.7123
G1 X78.4687 Y85.051
G1 X79.9927
G1 X91.846 Y73.1553
G1 Y72.859
G1 X91.9307 Y72.5203
G1 X92.4387 Y72.0123
G1 X92.7773 Y71.9277
G1 X92.989
G1 X93.3277 Y72.0123
G1 X93.7087 Y72.351
G1 X94.5977
G1 X94.9787 Y72.0123
G1 X95.3173 Y71.9277
G1 X95.529
G1 X95.8677 Y72.0123
G1 X96.3757 Y72.5203
G1 X96.4603 Y72.859
G1 Y73.0707
G1 X96.3757 Y73.4093
G1 X95.8677 Y73.9173
G1 X95.529 Y74.002
G1 X95.3173
G1 X94.9787 Y73.9173
G1 X94.5977 Y73.5787
G1 X93.7087
G1 X93.3277 Y73.9173
G1 X92.989 Y74.002
G1 X92.6503
G1 X80.543 Y86.1517
G1 X80.289 Y86.2787
G1 X78.4687
G1 X78.0877 Y86.6173
G1 X77.749 Y86.702
G1 X77.4527
G1 X77.1987 Y86.6173
G1 X76.6907 Y86.1093
G1 X76.606 Y85.7707
G1 Y85.559
G1 X76.6907 Y85.2203
G0 Z3.0
G0 X77.1987 Y87.2523
G0 Z1.2
G1 Z-0.2
G1 X77.5373 Y87.1677
G1 X77.749
G1 X78.0877 Y87.2523
G1 X78.4687 Y87.591
G1 X79.9927
G1 X91.846 Y75.6953
G1 Y75.399
G1 X91.9307 Y75.0603
G1 X92.4387 Y74.5523
G1 X92.7773 Y74.4677
G1 X92.989
G1 X93.3277 Y74.5523
G1 X93.7087 Y74.891
G1 X94.5977
G1 X94.9787 Y74.5523
G1 X95.3173 Y74.4677
G1 X95.529
G1 X95.8677 Y74.5523
G1 X96.3757 Y75.0603
G1 X96.4603 Y75.399
G1 Y75.6107
G1 X96.3757 Y75.9493
G1 X95.8677 Y76.4573
G1 X95.529 Y76.542
G1 X95.3173
G1 X94.9787 Y76.4573
G1 X94.5977 Y76.1187
G1 X93.7087
G1 X93.3277 Y76.4573
G1 X92.989 Y76.542
G1 X92.6503
G1 X80.543 Y88.6917
G1 X80.289 Y88.8187
G1 X78.4687
G1 X78.0877 Y89.1573
G1 X77.749 Y89.242
G1 X77.4527
G1 X77.1987 Y89.1573
G1 X76.6907 Y88.6493
G1 X76.606 Y88.3107
G1 Y88.099
G1 X76.6907 Y87.7603
G1 X77.1987 Y87.2523
G0 Z3.0
G0 X76.0557 Y87.7603
G0 Z1.2
G1 Z-0.2
G1 X76.1403 Y88.099
G1 Y88.3107
G1 X76.0557 Y88.6493
G1 X75.5477 Y89.1573
G1 X75.209 Y89.242
G1 X74.9127
G1 X74.6587 Y89.1573
G1 X74.1507 Y88.6493
G1 X74.066 Y88.3107
G1 Y88.099
G1 X74.1507 Y87.7603
G1 X74.6587 Y87.2523
G1 X74.9973 Y87.1677
G1 X75.209
G1 X75.5477 Y87.2523
G1 X76.0557 Y87.7603
G0 Z3.0
G0 X75.5477 Y89.7923
G0 Z1.2
G1 Z-0.2
G1 X76.0557 Y90.3003
G1 X76.1403 Y90.639
G1 Y90.8507
G1 X76.0557 Y91.1893
G1 X75.5477 Y91.6973
G1 X75.209 Y91.782
G1 X74.9127
G1 X74.6587 Y91.6973
G1 X74.2777 Y91.3587
G1 X64.8373
G1 X64.5833 Y91.2317
G1 X59.6727 Y86.2787
G1 X58.1487
G1 X57.7677 Y86.6173
G1 X57.429 Y86.702
G1 X57.2173
G1 X56.8787 Y86.6173
G1 X56.3707 Y86.1093
G1 X56.286 Y85.7707
G1 Y85.559
G1 X56.3707 Y85.2203
G1 X56.8787 Y84.7123
G1 X57.2173 Y84.6277
G1 X57.429
G1 X57.7677 Y84.7123
G1 X58.1487 Y85.051
G1 X59.969
G1 X60.223 Y85.178
G1 X65.1337 Y90.131
G1 X74.2777
G1 X74.6587 Y89.7923
G1 X74.9973 Y89.7077
G1 X75.209
G1 X75.5477 Y89.7923
G0 Z3.0
G0 X76.6907 Y90.3003
G0 Z1.2
G1 Z-0.2
G1 X77.1987 Y89.7923
G1 X77.5373 Y89.7077
G1 X77.749
G1 X78.0877 Y89.7923
G1 X78.4687 Y90.131
G1 X79.9927
G1 X91.846 Y78.2353
G1 Y77.939
G1 X91.9307 Y77.6003
G1 X92.4387 Y77.0923
G1 X92.7773 Y77.0077
G1 X92.989
G1 X93.3277 Y77.0923
G1 X93.7087 Y77.431
G1 X94.5977
G1 X94.9787 Y77.0923
G1 X95.3173 Y77.0077
G1 X95.529
G1 X95.8677 Y77.0923
G1 X96.3757 Y77.6003
G1 X96.4603 Y77.939
G1 Y78.1507
G1 X96.3757 Y78.4893
G1 X95.8677 Y78.9973
G1 X95.529 Y79.082
G1 X95.3173
G1 X94.9787 Y78.9973
G1 X94.5977 Y78.6587
G1 X93.7087
G1 X93.3277 Y78.9973
G1 X92.989 Y79.082
G1 X92.6503
G1 X80.543 Y91.2317
G1 X80.289 Y91.3587
G1 X78.4687
G1 X78.0877 Y91.6973
G1 X77.749 Y91.782
G1 X77.4527
G1 X77.1987 Y91.6973
G1 X76.6907 Y91.1893
G1 X76.606 Y90.8507
G1 Y90.639
G1 X76.6907 Y90.3003
G0 Z3.0
G0 X77.1987 Y92.3323
G0 Z1.2
G1 Z-0.2
G1 X77.5373 Y92.2477
G1 X77.749
G1 X78.0877 Y92.3323
G1 X78.4687 Y92.671
G1 X79.9927
G1 X91.846 Y80.7753
G1 Y80.479
G1 X91.9307 Y80.1403
G1 X92.4387 Y79.6323
G1 X92.7773 Y79.5477
G1 X92.989
G1 X93.3277 Y79.6323
G1 X93.7087 Y79.971
G1 X94.5977
G1 X94.9787 Y79.6323
G1 X95.3173 Y79.5477
G1 X95.529
G1 X95.8677 Y79.6323
G1 X96.3757 Y80.1403
G1 X96.4603 Y80.479
G1 Y80.6907
G1 X96.3757 Y81.0293
G1 X95.8677 Y81.5373
G1 X95.529 Y81.622
G1 X95.3173
G1 X94.9787 Y81.5373
G1 X94.5977 Y81.1987
G1 X93.7087
G1 X93.3277 Y81.5373
G1 X92.989 Y81.622
G1 X92.6503
G1 X80.543 Y93.7717
G1 X80.289 Y93.8987
G1 X78.4687
G1 X78.0877 Y94.2373
G1 X77.749 Y94.322
G1 X77.4527
G1 X77.1987 Y94.2373
G1 X76.6907 Y93.7293
G1 X76.606 Y93.3907
G1 Y93.179
G1 X76.6907 Y92.8403
G1 X77.1987 Y92.3323
G0 Z3.0
G0 X76.0557 Y92.8403
G0 Z1.2
G1 Z-0.2
G1 X76.1403 Y93.179
G1 Y93.3907
G1 X76.0557 Y93.7293
G1 X75.5477 Y94.2373
G1 X75.209 Y94.322
G1 X74.9127
G1 X74.6587 Y94.2373
G1 X74.1507 Y93.7293
G1 X74.066 Y93.3907
G1 Y93.179
G1 X74.1507 Y92.8403
G1 X74.6587 Y92.3323
G1 X74.9973 Y92.2477
G1 X75.209
G1 X75.5477 Y92.3323
G1 X76.0557 Y92.8403
G0 Z3.0
G0 X75.5477 Y94.8723
G0 Z1.2
G1 Z-0.2
G1 X76.0557 Y95.3803
G1 X76.1403 Y95.719
G1 Y95.9307
G1 X76.0557 Y96.2693
G1 X75.5477 Y96.7773
G1 X75.209 Y96.862
G1 X74.9127
G1 X74.6587 Y96.7773
G1 X74.2777 Y96.4387
G1 X67.3773
G1 X67.1233 Y96.3117
G1 X59.6727 Y88.8187
G1 X58.1487
G1 X57.7677 Y89.1573
G1 X57.429 Y89.242
G1 X57.2173
G1 X56.8787 Y89.1573
G1 X56.3707 Y88.6493
G1 X56.286 Y88.3107
G1 Y88.099
G1 X56.3707 Y87.7603
G1 X56.8787 Y87.2523
G1 X57.2173 Y87.1677
G1 X57.429
G1 X57.7677 Y87.2523
G1 X58.1487 Y87.591
G1 X59.969
G1 X60.223 Y87.718
G1 X67.6737 Y95.211
G1 X74.2777
G1 X74.6587 Y94.8723
G1 X74.9973 Y94.7877
G1 X75.209
G1 X75.5477 Y94.8723
G0 Z3.0
G0 X76.6907 Y95.3803
G0 Z1.2
G1 Z-0.2
G1 X77.1987 Y94.8723
G1 X77.5373 Y94.7877
G1 X77.749
G1 X78.0877 Y94.8723
G1 X78.4687 Y95.211
G1 X79.9927
G1 X91.846 Y83.3153
G1 Y83.019
G1 X91.9307 Y82.6803
G1 X92.4387 Y82.1723
G1 X92.7773 Y82.0877
G1 X92.989
G1 X93.3277 Y82.1723
G1 X93.7087 Y82.511
G1 X94.5977
G1 X94.9787 Y82.1723
G1 X95.3173 Y82.0877
G1 X95.529
G1 X95.8677 Y82.1723
G1 X96.3757 Y82.6803
G1 X96.4603 Y83.019
G1 Y83.2307
G1 X96.3757 Y83.5693
G1 X95.8677 Y84.0773
G1 X95.529 Y84.162
G1 X95.3173
G1 X94.9787 Y84.0773
G1 X94.5977 Y83.7387
G1 X93.7087
G1 X93.3277 Y84.0773
G1 X92.989 Y84.162
G1 X92.6503
G1 X80.543 Y96.3117
G1 X80.289 Y96.4387
G1 X78.4687
G1 X78.0877 Y96.7773
G1 X77.749 Y96.862
G1 X77.4527
G1 X77.1987 Y96.7773
G1 X76.6907 Y96.2693
G1 X76.606 Y95.9307
G1 Y95.719
G1 X76.6907 Y95.3803
G0 Z3.0
G0 X77.1987 Y97.4123
G0 Z1.2
G1 Z-0.2
G1 X77.5373 Y97.3277
G1 X77.749
G1 X78.0877 Y97.4123
G1 X78.4687 Y97.751
G1 X79.9927
G1 X91.846 Y85.8553
G1 Y85.559
G1 X91.9307 Y85.2203
G1 X92.4387 Y84.7123
G1 X92.7773 Y84.6277
G1 X92.989
G1 X93.3277 Y84.7123
G1 X93.7087 Y85.051
G1 X94.5977
G1 X94.9787 Y84.7123
G1 X95.3173 Y84.6277
G1 X95.529
G1 X95.8677 Y84.7123
G1 X96.3757 Y85.2203
G1 X96.4603 Y85.559
G1 Y85.7707
G1 X96.3757 Y86.1093
G1 X95.8677 Y86.6173
G1 X95.529 Y86.702
G1 X95.3173
G1 X94.9787 Y86.6173
G1 X94.5977 Y86.2787
G1 X93.7087
G1 X93.3277 Y86.6173
G1 X92.989 Y86.702
G1 X92.6503
G1 X80.543 Y98.8517
G1 X80.289 Y98.9787
G1 X78.4687
G1 X78.0877 Y99.3173
G1 X77.749 Y99.402
G1 X77.4527
G1 X77.1987 Y99.3173
G1 X76.6907 Y98.8093
G1 X76.606 Y98.4707
G1 Y98.259
G1 X76.6907 Y97.9203
G1 X77.1987 Y97.4123
G0 Z3.0
G0 X76.0557 Y97.9203
G0 Z1.2
G1 Z-0.2
G1 X76.1403 Y98.259
G1 Y98.4707
G1 X76.0557 Y98.8093
G1 X75.5477 Y99.3173
G1 X75.209 Y99.402
G1 X74.9127
G1 X74.6587 Y99.3173
G1 X74.1507 Y98.8093
G1 X74.066 Y98.4707
G1 Y98.259
G1 X74.1507 Y97.9203
G1 X74.6587 Y97.4123
G1 X74.9973 Y97.3277
G1 X75.209
G1 X75.5477 Y97.4123
G1 X76.0557 Y97.9203
G0 Z3.0
G0 X75.5477 Y99.9523
G0 Z1.2
G1 Z-0.2
G1 X76.0557 Y100.4603
G1 X76.1403 Y100.799
G1 Y101.0107
G1 X76.0557 Y101.3493
G1 X75.5477 Y101.8573
G1 X75.209 Y101.942
G1 X74.9127
G1 X74.6587 Y101.8573
G1 X74.2777 Y101.5187
G1 X69.9173
G1 X69.6633 Y101.3917
G1 X59.6727 Y91.3587
G1 X58.4027
G1 Y91.8243
G1 X56.2437
G1 Y89.6653
G1 X58.4027
G1 Y90.131
G1 X59.969
G1 X60.223 Y90.258
G1 X70.2137 Y100.291
G1 X74.2777
G1 X74.6587 Y99.9523
G1 X74.9973 Y99.8677
G1 X75.209
G1 X75.5477 Y99.9523
G0 Z3.0
G0 X76.6907 Y100.4603
G0 Z1.2
G1 Z-0.2
G1 X77.1987 Y99.9523
G1 X77.5373 Y99.8677
G1 X77.749
G1 X78.0877 Y99.9523
G1 X78.4687 Y100.291
G1 X79.9927
G1 X91.846 Y88.3953
G1 Y88.099
G1 X91.9307 Y87.7603
G1 X92.4387 Y87.2523
G1 X92.7773 Y87.1677
G1 X92.989
G1 X93.3277 Y87.2523
G1 X93.7087 Y87.591
G1 X94.5977
G1 X94.9787 Y87.2523
G1 X95.3173 Y87.1677
G1 X95.529
G1 X95.8677 Y87.2523
G1 X96.3757 Y87.7603
G1 X96.4603 Y88.099
G1 Y88.3107
G1 X96.3757 Y88.6493
G1 X95.8677 Y89.1573
G1 X95.529 Y89.242
G1 X95.3173
G1 X94.9787 Y89.1573
G1 X94.5977 Y88.8187
G1 X93.7087
G1 X93.3277 Y89.1573
G1 X92.989 Y89.242
G1 X92.6503
G1 X80.543 Y101.3917
G1 X80.289 Y101.5187
G1 X78.4687
G1 X78.0877 Y101.8573
G1 X77.749 Y101.942
G1 X77.4527
G1 X77.1987 Y101.8573
G1 X76.6907 Y101.3493
G1 X76.606 Y101.0107
G1 Y100.799
G1 X76.6907 Y100.4603
G0 Z3.0
G0 Y102.3653
G0 Z1.2
G1 Z-0.2
G1 X78.7227
G1 Y102.831
G1 X79.9927
G1 X91.846 Y90.9353
G1 Y90.639
G1 X91.9307 Y90.3003
G1 X92.4387 Y89.7923
G1 X92.7773 Y89.7077
G1 X92.989
G1 X93.3277 Y89.7923
G1 X93.7087 Y90.131
G1 X94.3437
G1 Y89.6653
G1 X96.5027
G1 Y91.8243
G1 X94.3437
G1 Y91.3587
G1 X93.7087
G1 X93.3277 Y91.6973
G1 X92.989 Y91.782
G1 X92.6503
G1 X80.543 Y103.9317
G1 X80.289 Y104.0587
G1 X78.7227
G1 Y104.5243
G1 X76.5637
G1 Y102.3653
G1 X76.6907
G0 Z3.0
G0 X76.0557 Y103.0003
G0 Z1.2
G1 Z-0.2
G1 X76.1403 Y103.339
G1 Y103.5507
G1 X76.0557 Y103.8893
G1 X75.5477 Y104.3973
G1 X75.209 Y104.482
G1 X74.9127
G1 X74.6587 Y104.3973
G1 X74.1507 Y103.8893
G1 X74.066 Y103.5507
G1 Y103.339
G1 X74.1507 Y103.0003
G1 X74.6587 Y102.4923
G1 X74.9973 Y102.4077
G1 X75.209
G1 X75.5477 Y102.4923
G1 X76.0557 Y103.0003
G0 Z3.0
G0 X50.5027 Y91.8243
G0 Z1.2
G1 Z-0.2
G1 X48.3437
G1 Y91.3587
G1 X47.7087
G1 X47.3277 Y91.6973
G1 X46.989 Y91.782
G1 X46.6503
G1 X34.543 Y103.9317
G1 X34.289 Y104.0587
G1 X32.7227
G1 Y104.5243
G1 X30.5637
G1 Y102.3653
G1 X32.7227
G1 Y102.831
G1 X33.9927
G1 X45.846 Y90.9353
G1 Y90.639
G1 X45.9307 Y90.3003
G1 X46.4387 Y89.7923
G1 X46.7773 Y89.7077
G1 X46.989
G1 X47.3277 Y89.7923
G1 X47.7087 Y90.131
G1 X48.3437
G1 Y89.6653
G1 X50.5027
G1 Y91.8243
G0 Z3.0
G0 X49.8378 Y89.1648
G0 Z1.2
G1 Z-0.2
G1 X49.529 Y89.242
G1 X49.3173
G1 X48.9787 Y89.1573
G1 X48.5977 Y88.8187
G1 X47.7087
G1 X47.3277 Y89.1573
G1 X46.989 Y89.242
G1 X46.6503
G1 X34.543 Y101.3917
G1 X34.289 Y101.5187
G1 X32.4687
G1 X32.0877 Y101.8573
G1 X31.749 Y101.942
G1 X31.4527
G1 X31.1987 Y101.8573
G1 X30.6907 Y101.3493
G1 X30.606 Y101.0107
G1 Y100.799
G1 X30.6907 Y100.4603
G1 X31.1987 Y99.9523
G1 X31.5373 Y99.8677
G1 X31.749
G1 X32.0877 Y99.9523
G1 X32.4687 Y100.291
G1 X33.9927
G1 X45.846 Y88.3953
G1 Y88.099
G1 X45.9307 Y87.7603
G1 X46.4387 Y87.2523
G1 X46.7773 Y87.1677
G1 X46.989
G1 X47.3277 Y87.2523
G1 X47.7087 Y87.591
G1 X48.5977
G1 X48.9787 Y87.2523
G1 X49.3173 Y87.1677
G1 X49.529
G1 X49.8677 Y87.2523
G1 X50.3757 Y87.7603
G1 X50.4603 Y88.099
G1 Y88.3107
G1 X50.3757 Y88.6493
G1 X49.8677 Y89.1573
G1 X49.8378 Y89.1648
G0 Z3.0
G0 X49.529 Y86.702
G0 Z1.2
G1 Z-0.2
G1 X49.3173
G1 X48.9787 Y86.6173
G1 X48.5977 Y86.2787
G1 X47.7087
G1 X47.3277 Y86.6173
G1 X46.989 Y86.702
G1 X46.6503
G1 X34.543 Y98.8517
G1 X34.289 Y98.9787
G1 X32.4687
G1 X32.0877 Y99.3173
G1 X31.749 Y99.402
G1 X31.4527
G1 X31.1987 Y99.3173
G1 X30.6907 Y98.8093
G1 X30.606 Y98.4707
G1 Y98.259
G1 X30.6907 Y97.9203
G1 X31.1987 Y97.4123
G1 X31.5373 Y97.3277
G1 X31.749
G1 X32.0877 Y97.4123
G1 X32.4687 Y97.751
G1 X33.9927
G1 X45.846 Y85.8553
G1 Y85.559
G1 X45.9307 Y85.2203
G1 X46.4387 Y84.7123
G1 X46.7773 Y84.6277
G1 X46.989
G1 X47.3277 Y84.7123
G1 X47.7087 Y85.051
G1 X48.5977
G1 X48.9787 Y84.7123
G1 X49.3173 Y84.6277
G1 X49.529
G1 X49.8677 Y84.7123
G1 X50.3757 Y85.2203
G1 X50.4603 Y85.559
G1 Y85.7707
G1 X50.3757 Y86.1093
G1 X49.8677 Y86.6173
G1 X49.529 Y86.702
G0 Z3.0
G0 Y84.162
G0 Z1.2
G1 Z-0.2
G1 X49.3173
G1 X48.9787 Y84.0773
G1 X48.5977 Y83.7387
G1 X47.7087
G1 X47.3277 Y84.0773
G1 X46.989 Y84.162
G1 X46.6503
G1 X34.543 Y96.3117
G1 X34.289 Y96.4387
G1 X32.4687
G1 X32.0877 Y96.7773
G1 X31.749 Y96.862
G1 X31.4527
G1 X31.1987 Y96.7773
G1 X30.6907 Y96.2693
G1 X30.606 Y95.9307
G1 Y95.719
G1 X30.6907 Y95.3803
G1 X31.1987 Y94.8723
G1 X31.5373 Y94.7877
G1 X31.749
G1 X32.0877 Y94.8723
G1 X32.4687 Y95.211
G1 X33.9927
G1 X45.846 Y83.3153
G1 Y83.019
G1 X45.9307 Y82.6803
G1 X46.4387 Y82.1723
G1 X46.7773 Y82.0877
G1 X46.989
G1 X47.3277 Y82.1723
G1 X47.7087 Y82.511
G1 X48.5977
G1 X48.9787 Y82.1723
G1 X49.3173 Y82.0877
G1 X49.529
G1 X49.8677 Y82.1723
G1 X50.3757 Y82.6803
G1 X50.4603 Y83.019
G1 Y83.2307
G1 X50.3757 Y83.5693
G1 X49.8677 Y84.0773
G1 X49.529 Y84.162
G0 Z3.0
G0 Y81.622
G0 Z1.2
G1 Z-0.2
G1 X49.3173
G1 X48.9787 Y81.5373
G1 X48.5977 Y81.1987
G1 X47.7087
G1 X47.3277 Y81.5373
G1 X46.989 Y81.622
G1 X46.6503
G1 X34.543 Y93.7717
G1 X34.289 Y93.8987
G1 X32.4687
G1 X32.0877 Y94.2373
G1 X31.749 Y94.322
G1 X31.4527
G1 X31.1987 Y94.2373
G1 X30.6907 Y93.7293
G1 X30.606 Y93.3907
G1 Y93.179
G1 X30.6907 Y92.8403
G1 X31.1987 Y92.3323
G1 X31.5373 Y92.2477
G1 X31.749
G1 X32.0877 Y92.3323
G1 X32.4687 Y92.671
G1 X33.9927
G1 X45.846 Y80.7753
G1 Y80.479
G1 X45.9307 Y80.1403
G1 X46.4387 Y79.6323
G1 X46.7773 Y79.5477
G1 X46.989
G1 X47.3277 Y79.6323
G1 X47.7087 Y79.971
G1 X48.5977
G1 X48.9787 Y79.6323
G1 X49.3173 Y79.5477
G1 X49.529
G1 X49.8677 Y79.6323
G1 X50.3757 Y80.1403
G1 X50.4603 Y80.479
G1 Y80.6907
G1 X50.3757 Y81.0293
G1 X49.8677 Y81.5373
G1 X49.529 Y81.622
G0 Z3.0
G0 Y79.082
G0 Z1.2
G1 Z-0.2
G1 X49.3173
G1 X48.9787 Y78.9973
G1 X48.5977 Y78.6587
G1 X47.7087
G1 X47.3277 Y78.9973
G1 X46.989 Y79.082
G1 X46.6503
G1 X34.543 Y91.2317
G1 X34.289 Y91.3587
G1 X32.4687
G1 X32.0877 Y91.6973
G1 X31.749 Y91.782
G1 X31.4527
G1 X31.1987 Y91.6973
G1 X30.6907 Y91.1893
G1 X30.606 Y90.8507
G1 Y90.639
G1 X30.6907 Y90.3003
G1 X31.1987 Y89.7923
G1 X31.5373 Y89.7077
G1 X31.749
G1 X32.0877 Y89.7923
G1 X32.4687 Y90.131
G1 X33.9927
G1 X45.846 Y78.2353
G1 Y77.939
G1 X45.9307 Y77.6003
G1 X46.4387 Y77.0923
G1 X46.7773 Y77.0077
G1 X46.989
G1 X47.3277 Y77.0923
G1 X47.7087 Y77.431
G1 X48.5977
G1 X48.9787 Y77.0923
G1 X49.3173 Y77.0077
G1 X49.529
G1 X49.8677 Y77.0923
G1 X50.3757 Y77.6003
G1 X50.4603 Y77.939
G1 Y78.1507
G1 X50.3757 Y78.4893
G1 X49.8677 Y78.9973
G1 X49.529 Y79.082
G0 Z3.0
G0 Y76.542
G0 Z1.2
G1 Z-0.2
G1 X49.3173
G1 X48.9787 Y76.4573
G1 X48.5977 Y76.1187
G1 X47.7087
G1 X47.3277 Y76.4573
G1 X46.989 Y76.542
G1 X46.6503
G1 X34.543 Y88.6917
G1 X34.289 Y88.8187
G1 X32.4687
G1 X32.0877 Y89.1573
G1 X31.749 Y89.242
G1 X31.4527
G1 X31.1987 Y89.1573
G1 X30.6907 Y88.6493
G1 X30.606 Y88.3107
G1 Y88.099
G1 X30.6907 Y87.7603
G1 X31.1987 Y87.2523
G1 X31.5373 Y87.1677
G1 X31.749
G1 X32.0877 Y87.2523
G1 X32.4687 Y87.591
G1 X33.9927
G1 X45.846 Y75.6953
G1 Y75.399
G1 X45.9307 Y75.0603
G1 X46.4387 Y74.5523
G1 X46.7773 Y74.4677
G1 X46.989
G1 X47.3277 Y74.5523
G1 X47.7087 Y74.891
G1 X48.5977
G1 X48.9787 Y74.5523
G1 X49.3173 Y74.4677
G1 X49.529
G1 X49.8677 Y74.5523
G1 X50.3757 Y75.0603
G1 X50.4603 Y75.399
G1 Y75.6107
G1 X50.3757 Y75.9493
G1 X49.8677 Y76.4573
G1 X49.529 Y76.542
G0 Z3.0
G0 Y74.002
G0 Z1.2
G1 Z-0.2
G1 X49.3173
G1 X48.9787 Y73.9173
G1 X48.5977 Y73.5787
G1 X47.7087
G1 X47.3277 Y73.9173
G1 X46.989 Y74.002
G1 X46.6503
G1 X34.543 Y86.1517
G1 X34.289 Y86.2787
G1 X32.4687
G1 X32.0877 Y86.6173
G1 X31.749 Y86.702
G1 X31.4527
G1 X31.1987 Y86.6173
G1 X30.6907 Y86.1093
G1 X30.606 Y85.7707
G1 Y85.559
G1 X30.6907 Y85.2203
G1 X31.1987 Y84.7123
G1 X31.5373 Y84.6277
G1 X31.749
G1 X32.0877 Y84.7123
G1 X32.4687 Y85.051
G1 X33.9927
G1 X45.846 Y73.1553
G1 Y72.859
G1 X45.9307 Y72.5203
G1 X46.4387 Y72.0123
G1 X46.7773 Y71.9277
G1 X46.989
G1 X47.3277 Y72.0123
G1 X47.7087 Y72.351
G1 X48.5977
G1 X48.9787 Y72.0123
G1 X49.3173 Y71.9277
G1 X49.529
G1 X49.8677 Y72.0123
G1 X50.3757 Y72.5203
G1 X50.4603 Y72.859
G1 Y73.0707
G1 X50.3757 Y73.4093
G1 X49.8677 Y73.9173
G1 X49.529 Y74.002
G0 Z3.0
G0 X35.2203 Y73.0707
G0 Z1.2
G1 Z-0.2
G1 X35.1357 Y73.4093
G1 X34.6277 Y73.9173
G1 X34.289 Y74.002
G1 X34.0773
G1 X33.7387 Y73.9173
G1 X33.3577 Y73.5787
G1 X32.4687
G1 X32.0877 Y73.9173
G1 X31.749 Y74.002
G1 X31.4527
G1 X31.1987 Y73.9173
G1 X30.6907 Y73.4093
G1 X30.606 Y73.0707
G1 Y72.859
G1 X30.6907 Y72.5203
G1 X31.1987 Y72.0123
G1 X31.5373 Y71.9277
G1 X31.749
G1 X32.0877 Y72.0123
G1 X32.4687 Y72.351
G1 X33.3577
G1 X33.7387 Y72.0123
G1 X34.0773 Y71.9277
G1 X34.289
G1 X34.6277 Y72.0123
G1 X35.1357 Y72.5203
G1 X35.2203 Y72.859
G1 Y73.0707
G0 Z3.0
G0 X34.6277 Y74.5523
G0 Z1.2
G1 Z-0.2
G1 X35.1357 Y75.0603
G1 X35.2203 Y75.399
G1 Y75.6107
G1 X35.1357 Y75.9493
G1 X34.6277 Y76.4573
G1 X34.289 Y76.542
G1 X34.0773
G1 X33.7387 Y76.4573
G1 X33.3577 Y76.1187
G1 X32.4687
G1 X32.0877 Y76.4573
G1 X31.749 Y76.542
G1 X31.4527
G1 X31.1987 Y76.4573
G1 X30.6907 Y75.9493
G1 X30.606 Y75.6107
G1 Y75.399
G1 X30.6907 Y75.0603
G1 X31.1987 Y74.5523
G1 X31.5373 Y74.4677
G1 X31.749
G1 X32.0877 Y74.5523
G1 X32.4687 Y74.891
G1 X33.3577
G1 X33.7387 Y74.5523
G1 X34.0773 Y74.4677
G1 X34.289
G1 X34.6277 Y74.5523
G0 Z3.0
G0 X34.289 Y77.0077
G0 Z1.2
G1 Z-0.2
G1 X34.6277 Y77.0923
G1 X35.1357 Y77.6003
G1 X35.2203 Y77.939
G1 Y78.1507
G1 X35.1357 Y78.4893
G1 X34.6277 Y78.9973
G1 X34.289 Y79.082
G1 X34.0773
G1 X33.7387 Y78.9973
G1 X33.3577 Y78.6587
G1 X32.7227
G1 Y79.1243
G1 X30.5637
G1 Y76.9653
G1 X32.7227
G1 Y77.431
G1 X33.3577
G1 X33.7387 Y77.0923
G1 X34.0773 Y77.0077
G1 X34.289
G0 Z3.0
G0 X30.1403 Y77.939
G0 Z1.2
G1 Z-0.2
G1 Y78.1507
G1 X30.0557 Y78.4893
G1 X29.5477 Y78.9973
G1 X29.209 Y79.082
G1 X28.9127
G1 X28.6587 Y78.9973
G1 X28.1507 Y78.4893
G1 X28.066 Y78.1507
G1 Y77.939
G1 X28.1507 Y77.6003
G1 X28.6587 Y77.0923
G1 X28.9973 Y77.0077
G1 X29.209
G1 X29.5477 Y77.0923
G1 X30.0557 Y77.6003
G1 X30.1403 Y77.939
G0 Z3.0
G0 X29.5477 Y76.4573
G0 Z1.2
G1 Z-0.2
G1 X29.209 Y76.542
G1 X28.9973
G1 X28.6587 Y76.4573
G1 X28.2777 Y76.1187
G1 X19.1337
G1 X14.223 Y81.0717
G1 X13.969 Y81.1987
G1 X12.1487
G1 X11.7677 Y81.5373
G1 X11.429 Y81.622
G1 X11.1327
G1 X10.8787 Y81.5373
G1 X10.3707 Y81.0293
G1 X10.286 Y80.6907
G1 Y80.479
G1 X10.3707 Y80.1403
G1 X10.8787 Y79.6323
G1 X11.2173 Y79.5477
G1 X11.429
G1 X11.7677 Y79.6323
G1 X12.1487 Y79.971
G1 X13.6727
G1 X18.5833 Y75.018
G1 X18.8373 Y74.891
G1 X28.2777
G1 X28.6587 Y74.5523
G1 X28.9973 Y74.4677
G1 X29.209
G1 X29.5477 Y74.5523
G1 X30.0557 Y75.0603
G1 X30.1403 Y75.399
G1 Y75.6107
G1 X30.0557 Y75.9493
G1 X29.5477 Y76.4573
G0 Z3.0
G0 X29.209 Y74.002
G0 Z1.2
G1 Z-0.2
G1 X28.9127
G1 X28.6587 Y73.9173
G1 X28.1507 Y73.4093
G1 X28.066 Y73.0707
G1 Y72.859
G1 X28.1507 Y72.5203
G1 X28.6587 Y72.0123
G1 X28.9973 Y71.9277
G1 X29.209
G1 X29.5477 Y72.0123
G1 X30.0557 Y72.5203
G1 X30.1403 Y72.859
G1 Y73.0707
G1 X30.0557 Y73.4093
G1 X29.5477 Y73.9173
G1 X29.209 Y74.002
G0 Z3.0
G0 Y71.462
G0 Z1.2
G1 Z-0.2
G1 X28.9973
G1 X28.6587 Y71.3773
G1 X28.2777 Y71.0387
G1 X21.6737
G1 X14.223 Y78.5317
G1 X13.969 Y78.6587
G1 X12.1487
G1 X11.7677 Y78.9973
G1 X11.429 Y79.082
G1 X11.1327
G1 X10.8787 Y78.9973
G1 X10.3707 Y78.4893
G1 X10.286 Y78.1507
G1 Y77.939
G1 X10.3707 Y77.6003
G1 X10.8787 Y77.0923
G1 X11.2173 Y77.0077
G1 X11.429
G1 X11.7677 Y77.0923
G1 X12.1487 Y77.431
G1 X13.6727
G1 X21.1233 Y69.938
G1 X21.3773 Y69.811
G1 X28.2777
G1 X28.6587 Y69.4723
G1 X28.9973 Y69.3877
G1 X29.209
G1 X29.5477 Y69.4723
G1 X30.0557 Y69.9803
G1 X30.1403 Y70.319
G1 Y70.5307
G1 X30.0557 Y70.8693
G1 X29.5477 Y71.3773
G1 X29.209 Y71.462
G0 Z3.0
G0 X30.6907 Y70.8693
G0 Z1.2
G1 Z-0.2
G1 X30.606 Y70.5307
G1 Y70.319
G1 X30.6907 Y69.9803
G1 X31.1987 Y69.4723
G1 X31.5373 Y69.3877
G1 X31.749
G1 X32.0877 Y69.4723
G1 X32.4687 Y69.811
G1 X33.3577
G1 X33.7387 Y69.4723
G1 X34.0773 Y69.3877
G1 X34.289
G1 X34.6277 Y69.4723
G1 X35.1357 Y69.9803
G1 X35.2203 Y70.319
G1 Y70.5307
G1 X35.1357 Y70.8693
G1 X34.6277 Y71.3773
G1 X34.289 Y71.462
G1 X34.0773
G1 X33.7387 Y71.3773
G1 X33.3577 Y71.0387
G1 X32.4687
G1 X32.0877 Y71.3773
G1 X31.749 Y71.462
G1 X31.4527
G1 X31.1987 Y71.3773
G1 X30.6907 Y70.8693
G0 Z3.0
G0 X31.3511 Y68.8881
G0 Z1.2
G1 Z-0.2
G1 X31.1987 Y68.8373
G1 X30.6907 Y68.3293
G1 X30.606 Y67.9907
G1 Y67.779
G1 X30.6907 Y67.4403
G1 X31.1987 Y66.9323
G1 X31.5373 Y66.8477
G1 X31.749
G1 X32.0877 Y66.9323
G1 X32.4687 Y67.271
G1 X33.3577
G1 X33.7387 Y66.9323
G1 X34.0773 Y66.8477
G1 X34.289
G1 X34.6277 Y66.9323
G1 X35.1357 Y67.4403
G1 X35.2203 Y67.779
G1 Y67.9907
G1 X35.1357 Y68.3293
G1 X34.6277 Y68.8373
G1 X34.289 Y68.922
G1 X34.0773
G1 X33.7387 Y68.8373
G1 X33.3577 Y68.4987
G1 X32.4687
G1 X32.0877 Y68.8373
G1 X31.749 Y68.922
G1 X31.4527
G1 X31.3511 Y68.8881
G0 Z3.0
G0 X30.0557 Y68.3293
G0 Z1.2
G1 Z-0.2
G1 X29.5477 Y68.8373
G1 X29.209 Y68.922
G1 X28.9127
G1 X28.6587 Y68.8373
G1 X28.1507 Y68.3293
G1 X28.066 Y67.9907
G1 Y67.779
G1 X28.1507 Y67.4403
G1 X28.6587 Y66.9323
G1 X28.9973 Y66.8477
G1 X29.209
G1 X29.5477 Y66.9323
G1 X30.0557 Y67.4403
G1 X30.1403 Y67.779
G1 Y67.9907
G1 X30.0557 Y68.3293
G0 Z3.0
G0 X29.5477 Y66.2973
G0 Z1.2
G1 Z-0.2
G1 X29.209 Y66.382
G1 X28.9973
G1 X28.6587 Y66.2973
G1 X28.2777 Y65.9587
G1 X24.2137
G1 X14.223 Y75.9917
G1 X13.969 Y76.1187
G1 X12.1487
G1 X11.7677 Y76.4573
G1 X11.429 Y76.542
G1 X11.1327
G1 X10.8787 Y76.4573
G1 X10.3707 Y75.9493
G1 X10.286 Y75.6107
G1 Y75.399
G1 X10.3707 Y75.0603
G1 X10.8787 Y74.5523
G1 X11.2173 Y74.4677
G1 X11.429
G1 X11.7677 Y74.5523
G1 X12.1487 Y74.891
G1 X13.6727
G1 X23.6633 Y64.858
G1 X23.9173 Y64.731
G1 X28.2777
G1 X28.6587 Y64.3923
G1 X28.9973 Y64.3077
G1 X29.209
G1 X29.5477 Y64.3923
G1 X30.0557 Y64.9003
G1 X30.1403 Y65.239
G1 Y65.4507
G1 X30.0557 Y65.7893
G1 X29.5477 Y66.2973
G0 Z3.0
G0 X30.6907 Y65.7893
G0 Z1.2
G1 Z-0.2
G1 X30.606 Y65.4507
G1 Y65.239
G1 X30.6907 Y64.9003
G1 X31.1987 Y64.3923
G1 X31.5373 Y64.3077
G1 X31.749
G1 X32.0877 Y64.3923
G1 X32.4687 Y64.731
G1 X33.3577
G1 X33.7387 Y64.3923
G1 X34.0773 Y64.3077
G1 X34.289
G1 X34.6277 Y64.3923
G1 X35.1357 Y64.9003
G1 X35.2203 Y65.239
G1 Y65.4507
G1 X35.1357 Y65.7893
G1 X34.6277 Y66.2973
G1 X34.289 Y66.382
G1 X34.0773
G1 X33.7387 Y66.2973
G1 X33.3577 Y65.9587
G1 X32.4687
G1 X32.0877 Y66.2973
G1 X31.749 Y66.382
G1 X31.4527
G1 X31.1987 Y66.2973
G1 X30.6907 Y65.7893
G0 Z3.0
G0 X31.3511 Y63.8081
G0 Z1.2
G1 Z-0.2
G1 X31.1987 Y63.7573
G1 X30.6907 Y63.2493
G1 X30.606 Y62.9107
G1 Y62.699
G1 X30.6907 Y62.3603
G1 X31.1987 Y61.8523
G1 X31.5373 Y61.7677
G1 X31.749
G1 X32.0877 Y61.8523
G1 X32.4687 Y62.191
G1 X33.3577
G1 X33.7387 Y61.8523
G1 X34.0773 Y61.7677
G1 X34.289
G1 X34.6277 Y61.8523
G1 X35.1357 Y62.3603
G1 X35.2203 Y62.699
G1 Y62.9107
G1 X35.1357 Y63.2493
G1 X34.6277 Y63.7573
G1 X34.289 Y63.842
G1 X34.0773
G1 X33.7387 Y63.7573
G1 X33.3577 Y63.4187
G1 X32.4687
G1 X32.0877 Y63.7573
G1 X31.749 Y63.842
G1 X31.4527
G1 X31.3511 Y63.8081
G0 Z3.0
G0 X30.0557 Y63.2493
G0 Z1.2
G1 Z-0.2
G1 X29.5477 Y63.7573
G1 X29.209 Y63.842
G1 X28.9127
G1 X28.6587 Y63.7573
G1 X28.1507 Y63.2493
G1 X28.066 Y62.9107
G1 Y62.699
G1 X28.1507 Y62.3603
G1 X28.6587 Y61.8523
G1 X28.9973 Y61.7677
G1 X29.209
G1 X29.5477 Y61.8523
G1 X30.0557 Y62.3603
G1 X30.1403 Y62.699
G1 Y62.9107
G1 X30.0557 Y63.2493
G0 Z3.0
G0 X29.5477 Y61.2173
G0 Z1.2
G1 Z-0.2
G1 X29.209 Y61.302
G1 X28.9973
G1 X28.6587 Y61.2173
G1 X28.2777 Y60.8787
G1 X26.7537
G1 X14.223 Y73.4517
G1 X13.969 Y73.5787
G1 X12.1487
G1 X11.7677 Y73.9173
G1 X11.429 Y74.002
G1 X11.1327
G1 X10.8787 Y73.9173
G1 X10.3707 Y73.4093
G1 X10.286 Y73.0707
G1 Y72.859
G1 X10.3707 Y72.5203
G1 X10.8787 Y72.0123
G1 X11.2173 Y71.9277
G1 X11.429
G1 X11.7677 Y72.0123
G1 X12.1487 Y72.351
G1 X13.6727
G1 X26.2033 Y59.778
G1 X26.4573 Y59.651
G1 X28.2777
G1 X28.6587 Y59.3123
G1 X28.9973 Y59.2277
G1 X29.209
G1 X29.5477 Y59.3123
G1 X30.0557 Y59.8203
G1 X30.1403 Y60.159
G1 Y60.3707
G1 X30.0557 Y60.7093
G1 X29.5477 Y61.2173
G0 Z3.0
G0 X30.6907 Y60.7093
G0 Z1.2
G1 Z-0.2
G1 X30.606 Y60.3707
G1 Y60.159
G1 X30.6907 Y59.8203
G1 X31.1987 Y59.3123
G1 X31.5373 Y59.2277
G1 X31.749
G1 X32.0877 Y59.3123
G1 X32.4687 Y59.651
G1 X33.3577
G1 X33.7387 Y59.3123
G1 X34.0773 Y59.2277
G1 X34.289
G1 X34.6277 Y59.3123
G1 X35.1357 Y59.8203
G1 X35.2203 Y60.159
G1 Y60.3707
G1 X35.1357 Y60.7093
G1 X34.6277 Y61.2173
G1 X34.289 Y61.302
G1 X34.0773
G1 X33.7387 Y61.2173
G1 X33.3577 Y60.8787
G1 X32.4687
G1 X32.0877 Y61.2173
G1 X31.749 Y61.302
G1 X31.4527
G1 X31.1987 Y61.2173
G1 X30.6907 Y60.7093
G0 Z3.0
G0 X29.209 Y84.6277
G0 Z1.2
G1 Z-0.2
G1 X29.5477 Y84.7123
G1 X30.0557 Y85.2203
G1 X30.1403 Y85.559
G1 Y85.7707
G1 X30.0557 Y86.1093
G1 X29.5477 Y86.6173
G1 X29.209 Y86.702
G1 X28.9127
G1 X28.6587 Y86.6173
G1 X28.2777 Y86.2787
G1 X16.2973
G1 X16.0433 Y86.1517
G1 X13.6727 Y83.7387
G1 X12.1487
G1 X11.7677 Y84.0773
G1 X11.429 Y84.162
G1 X11.2173
G1 X10.8787 Y84.0773
G1 X10.3707 Y83.5693
G1 X10.286 Y83.2307
G1 Y83.019
G1 X10.3707 Y82.6803
G1 X10.8787 Y82.1723
G1 X11.2173 Y82.0877
G1 X11.429
G1 X11.7677 Y82.1723
G1 X12.1487 Y82.511
G1 X13.969
G1 X14.223 Y82.638
G1 X16.5937 Y85.051
G1 X28.2777
G1 X28.6587 Y84.7123
G1 X28.9973 Y84.6277
G1 X29.209
G0 Z3.0
G0 Y87.1677
G0 Z1.2
G1 Z-0.2
G1 X29.5477 Y87.2523
G1 X30.0557 Y87.7603
G1 X30.1403 Y88.099
G1 Y88.3107
G1 X30.0557 Y88.6493
G1 X29.5477 Y89.1573
G1 X29.209 Y89.242
G1 X28.9127
G1 X28.6587 Y89.1573
G1 X28.1507 Y88.6493
G1 X28.066 Y88.3107
G1 Y88.099
G1 X28.1507 Y87.7603
G1 X28.6587 Y87.2523
G1 X28.9973 Y87.1677
G1 X29.209
G0 Z3.0
G0 Y89.7077
G0 Z1.2
G1 Z-0.2
G1 X29.5477 Y89.7923
G1 X30.0557 Y90.3003
G1 X30.1403 Y90.639
G1 Y90.8507
G1 X30.0557 Y91.1893
G1 X29.5477 Y91.6973
G1 X29.209 Y91.782
G1 X28.9127
G1 X28.6587 Y91.6973
G1 X28.2777 Y91.3587
G1 X18.8373
G1 X18.5833 Y91.2317
G1 X13.6727 Y86.2787
G1 X12.1487
G1 X11.7677 Y86.6173
G1 X11.429 Y86.702
G1 X11.2173
G1 X10.8787 Y86.6173
G1 X10.3707 Y86.1093
G1 X10.286 Y85.7707
G1 Y85.559
G1 X10.3707 Y85.2203
G1 X10.8787 Y84.7123
G1 X11.2173 Y84.6277
G1 X11.429
G1 X11.7677 Y84.7123
G1 X12.1487 Y85.051
G1 X13.969
G1 X14.223 Y85.178
G1 X19.1337 Y90.131
G1 X28.2777
G1 X28.6587 Y89.7923
G1 X28.9973 Y89.7077
G1 X29.209
G0 Z3.0
G0 Y92.2477
G0 Z1.2
G1 Z-0.2
G1 X29.5477 Y92.3323
G1 X30.0557 Y92.8403
G1 X30.1403 Y93.179
G1 Y93.3907
G1 X30.0557 Y93.7293
G1 X29.5477 Y94.2373
G1 X29.209 Y94.322
G1 X28.9127
G1 X28.6587 Y94.2373
G1 X28.1507 Y93.7293
G1 X28.066 Y93.3907
G1 Y93.179
G1 X28.1507 Y92.8403
G1 X28.6587 Y92.3323
G1 X28.9973 Y92.2477
G1 X29.209
G0 Z3.0
G0 Y94.7877
G0 Z1.2
G1 Z-0.2
G1 X29.5477 Y94.8723
G1 X30.0557 Y95.3803
G1 X30.1403 Y95.719
G1 Y95.9307
G1 X30.0557 Y96.2693
G1 X29.5477 Y96.7773
G1 X29.209 Y96.862
G1 X28.9127
G1 X28.6587 Y96.7773
G1 X28.2777 Y96.4387
G1 X21.3773
G1 X21.1233 Y96.3117
G1 X13.6727 Y88.8187
G1 X12.1487
G1 X11.7677 Y89.1573
G1 X11.429 Y89.242
G1 X11.2173
G1 X10.8787 Y89.1573
G1 X10.3707 Y88.6493
G1 X10.286 Y88.3107
G1 Y88.099
G1 X10.3707 Y87.7603
G1 X10.8787 Y87.2523
G1 X11.2173 Y87.1677
G1 X11.429
G1 X11.7677 Y87.2523
G1 X12.1487 Y87.591
G1 X13.969
G1 X14.223 Y87.718
G1 X21.6737 Y95.211
G1 X28.2777
G1 X28.6587 Y94.8723
G1 X28.9973 Y94.7877
G1 X29.209
G0 Z3.0
G0 Y97.3277
G0 Z1.2
G1 Z-0.2
G1 X29.5477 Y97.4123
G1 X30.0557 Y97.9203
G1 X30.1403 Y98.259
G1 Y98.4707
G1 X30.0557 Y98.8093
G1 X29.5477 Y99.3173
G1 X29.209 Y99.402
G1 X28.9127
G1 X28.6587 Y99.3173
G1 X28.1507 Y98.8093
G1 X28.066 Y98.4707
G1 Y98.259
G1 X28.1507 Y97.9203
G1 X28.6587 Y97.4123
G1 X28.9973 Y97.3277
G1 X29.209
G0 Z3.0
G0 Y99.8677
G0 Z1.2
G1 Z-0.2
G1 X29.5477 Y99.9523
G1 X30.0557 Y100.4603
G1 X30.1403 Y100.799
G1 Y101.0107
G1 X30.0557 Y101.3493
G1 X29.5477 Y101.8573
G1 X29.209 Y101.942
G1 X28.9127
G1 X28.6587 Y101.8573
G1 X28.2777 Y101.5187
G1 X23.9173
G1 X23.6633 Y101.3917
G1 X13.6727 Y91.3587
G1 X12.4027
G1 Y91.8243
G1 X10.2437
G1 Y89.6653
G1 X12.4027
G1 Y90.131
G1 X13.969
G1 X14.223 Y90.258
G1 X24.2137 Y100.291
G1 X28.2777
G1 X28.6587 Y99.9523
G1 X28.9973 Y99.8677
G1 X29.209
G0 Z3.0
G0 Y102.4077
G0 Z1.2
G1 Z-0.2
G1 X29.5477 Y102.4923
G1 X30.0557 Y103.0003
G1 X30.1403 Y103.339
G1 Y103.5507
G1 X30.0557 Y103.8893
G1 X29.5477 Y104.3973
G1 X29.209 Y104.482
G1 X28.9127
G1 X28.6587 Y104.3973
G1 X28.1507 Y103.8893
G1 X28.066 Y103.5507
G1 Y103.339
G1 X28.1507 Y103.0003
G1 X28.6587 Y102.4923
G1 X28.9973 Y102.4077
G1 X29.209
G0 Z3.0
G0 X77.1987 Y36.6173
G0 Z1.2
G1 Z-0.2
G1 X76.6907 Y36.1093
G1 X76.606 Y35.7707
G1 Y35.559
G1 X76.6907 Y35.2203
G1 X77.1987 Y34.7123
G1 X77.5373 Y34.6277
G1 X77.749
G1 X78.0877 Y34.7123
G1 X78.4687 Y35.051
G1 X79.9927
G1 X91.846 Y23.1553
G1 Y22.859
G1 X91.9307 Y22.5203
G1 X92.4387 Y22.0123
G1 X92.7773 Y21.9277
G1 X92.989
G1 X93.3277 Y22.0123
G1 X93.7087 Y22.351
G1 X94.5977
G1 X94.9787 Y22.0123
G1 X95.3173 Y21.9277
G1 X95.529
G1 X95.8677 Y22.0123
G1 X96.3757 Y22.5203
G1 X96.4603 Y22.859
G1 Y23.0707
G1 X96.3757 Y23.4093
G1 X95.8677 Y23.9173
G1 X95.529 Y24.002
G1 X95.3173
G1 X94.9787 Y23.9173
G1 X94.5977 Y23.5787
G1 X93.7087
G1 X93.3277 Y23.9173
G1 X92.989 Y24.002
G1 X92.6503
G1 X80.543 Y36.1517
G1 X80.289 Y36.2787
G1 X78.4687
G1 X78.0877 Y36.6173
G1 X77.749 Y36.702
G1 X77.4527
G1 X77.1987 Y36.6173
G0 Z3.0
G0 Y29.1243
G0 Z1.2
G1 Z-0.2
G1 X76.5637
G1 Y26.9653
G1 X78.7227
G1 Y27.431
G1 X79.3577
G1 X79.7387 Y27.0923
G1 X80.0773 Y27.0077
G1 X80.289
G1 X80.6277 Y27.0923
G1 X81.1357 Y27.6003
G1 X81.2203 Y27.939
G1 Y28.1507
G1 X81.1357 Y28.4893
G1 X80.6277 Y28.9973
G1 X80.289 Y29.082
G1 X80.0773
G1 X79.7387 Y28.9973
G1 X79.3577 Y28.6587
G1 X78.7227
G1 Y29.1243
G1 X77.1987
G0 Z3.0
G0 X76.0557 Y28.4893
G0 Z1.2
G1 Z-0.2
G1 X75.5477 Y28.9973
G1 X75.209 Y29.082
G1 X74.9127
G1 X74.6587 Y28.9973
G1 X74.1507 Y28.4893
G1 X74.066 Y28.1507
G1 Y27.939
G1 X74.1507 Y27.6003
G1 X74.6587 Y27.0923
G1 X74.9973 Y27.0077
G1 X75.209
G1 X75.5477 Y27.0923
G1 X76.0557 Y27.6003
G1 X76.1403 Y27.939
G1 Y28.1507
G1 X76.0557 Y28.4893
G0 Z3.0
G0 X77.1987 Y26.4573
G0 Z1.2
G1 Z-0.2
G1 X76.6907 Y25.9493
G1 X76.606 Y25.6107
G1 Y25.399
G1 X76.6907 Y25.0603
G1 X77.1987 Y24.5523
G1 X77.5373 Y24.4677
G1 X77.749
G1 X78.0877 Y24.5523
G1 X78.4687 Y24.891
G1 X79.3577
G1 X79.7387 Y24.5523
G1 X80.0773 Y24.4677
G1 X80.289
G1 X80.6277 Y24.5523
G1 X81.1357 Y25.0603
G1 X81.2203 Y25.399
G1 Y25.6107
G1 X81.1357 Y25.9493
G1 X80.6277 Y26.4573
G1 X80.289 Y26.542
G1 X80.0773
G1 X79.7387 Y26.4573
G1 X79.3577 Y26.1187
G1 X78.4687
G1 X78.0877 Y26.4573
G1 X77.749 Y26.542
G1 X77.4527
G1 X77.1987 Y26.4573
G0 Z3.0
G0 X77.4527 Y24.002
G0 Z1.2
G1 Z-0.2
G1 X77.1987 Y23.9173
G1 X76.6907 Y23.4093
G1 X76.606 Y23.0707
G1 Y22.859
G1 X76.6907 Y22.5203
G1 X77.1987 Y22.0123
G1 X77.5373 Y21.9277
G1 X77.749
G1 X78.0877 Y22.0123
G1 X78.4687 Y22.351
G1 X79.3577
G1 X79.7387 Y22.0123
G1 X80.0773 Y21.9277
G1 X80.289
G1 X80.6277 Y22.0123
G1 X81.1357 Y22.5203
G1 X81.2203 Y22.859
G1 Y23.0707
G1 X81.1357 Y23.4093
G1 X80.6277 Y23.9173
G1 X80.289 Y24.002
G1 X80.0773
G1 X79.7387 Y23.9173
G1 X79.3577 Y23.5787
G1 X78.4687
G1 X78.0877 Y23.9173
G1 X77.749 Y24.002
G1 X77.4527
G0 Z3.0
G0 X76.0557 Y23.4093
G0 Z1.2
G1 Z-0.2
G1 X75.5477 Y23.9173
G1 X75.209 Y24.002
G1 X74.9127
G1 X74.6587 Y23.9173
G1 X74.1507 Y23.4093
G1 X74.066 Y23.0707
G1 Y22.859
G1 X74.1507 Y22.5203
G1 X74.6587 Y22.0123
G1 X74.9973 Y21.9277
G1 X75.209
G1 X75.5477 Y22.0123
G1 X76.0557 Y22.5203
G1 X76.1403 Y22.859
G1 Y23.0707
G1 X76.0557 Y23.4093
G0 Z3.0
G0 X77.1987 Y21.3773
G0 Z1.2
G1 Z-0.2
G1 X76.6907 Y20.8693
G1 X76.606 Y20.5307
G1 Y20.319
G1 X76.6907 Y19.9803
G1 X77.1987 Y19.4723
G1 X77.5373 Y19.3877
G1 X77.749
G1 X78.0877 Y19.4723
G1 X78.4687 Y19.811
G1 X79.3577
G1 X79.7387 Y19.4723
G1 X80.0773 Y19.3877
G1 X80.289
G1 X80.6277 Y19.4723
G1 X81.1357 Y19.9803
G1 X81.2203 Y20.319
G1 Y20.5307
G1 X81.1357 Y20.8693
G1 X80.6277 Y21.3773
G1 X80.289 Y21.462
G1 X80.0773
G1 X79.7387 Y21.3773
G1 X79.3577 Y21.0387
G1 X78.4687
G1 X78.0877 Y21.3773
G1 X77.749 Y21.462
G1 X77.4527
G1 X77.1987 Y21.3773
G0 Z3.0
G0 X77.4527 Y18.922
G0 Z1.2
G1 Z-0.2
G1 X77.1987 Y18.8373
G1 X76.6907 Y18.3293
G1 X76.606 Y17.9907
G1 Y17.779
G1 X76.6907 Y17.4403
G1 X77.1987 Y16.9323
G1 X77.5373 Y16.8477
G1 X77.749
G1 X78.0877 Y16.9323
G1 X78.4687 Y17.271
G1 X79.3577
G1 X79.7387 Y16.9323
G1 X80.0773 Y16.8477
G1 X80.289
G1 X80.6277 Y16.9323
G1 X81.1357 Y17.4403
G1 X81.2203 Y17.779
G1 Y17.9907
G1 X81.1357 Y18.3293
G1 X80.6277 Y18.8373
G1 X80.289 Y18.922
G1 X80.0773
G1 X79.7387 Y18.8373
G1 X79.3577 Y18.4987
G1 X78.4687
G1 X78.0877 Y18.8373
G1 X77.749 Y18.922
G1 X77.4527
G0 Z3.0
G0 X76.0557 Y18.3293
G0 Z1.2
G1 Z-0.2
G1 X75.5477 Y18.8373
G1 X75.209 Y18.922
G1 X74.9127
G1 X74.6587 Y18.8373
G1 X74.1507 Y18.3293
G1 X74.066 Y17.9907
G1 Y17.779
G1 X74.1507 Y17.4403
G1 X74.6587 Y16.9323
G1 X74.9973 Y16.8477
G1 X75.209
G1 X75.5477 Y16.9323
G1 X76.0557 Y17.4403
G1 X76.1403 Y17.779
G1 Y17.9907
G1 X76.0557 Y18.3293
G0 Z3.0
G0 X77.1987 Y16.2973
G0 Z1.2
G1 Z-0.2
G1 X76.6907 Y15.7893
G1 X76.606 Y15.4507
G1 Y15.239
G1 X76.6907 Y14.9003
G1 X77.1987 Y14.3923
G1 X77.5373 Y14.3077
G1 X77.749
G1 X78.0877 Y14.3923
G1 X78.4687 Y14.731
G1 X79.3577
G1 X79.7387 Y14.3923
G1 X80.0773 Y14.3077
G1 X80.289
G1 X80.6277 Y14.3923
G1 X81.1357 Y14.9003
G1 X81.2203 Y15.239
G1 Y15.4507
G1 X81.1357 Y15.7893
G1 X80.6277 Y16.2973
G1 X80.289 Y16.382
G1 X80.0773
G1 X79.7387 Y16.2973
G1 X79.3577 Y15.9587
G1 X78.4687
G1 X78.0877 Y16.2973
G1 X77.749 Y16.382
G1 X77.4527
G1 X77.1987 Y16.2973
G0 Z3.0
G0 X77.4527 Y13.842
G0 Z1.2
G1 Z-0.2
G1 X77.1987 Y13.7573
G1 X76.6907 Y13.2493
G1 X76.606 Y12.9107
G1 Y12.699
G1 X76.6907 Y12.3603
G1 X77.1987 Y11.8523
G1 X77.5373 Y11.7677
G1 X77.749
G1 X78.0877 Y11.8523
G1 X78.4687 Y12.191
G1 X79.3577
G1 X79.7387 Y11.8523
G1 X80.0773 Y11.7677
G1 X80.289
G1 X80.6277 Y11.8523
G1 X81.1357 Y12.3603
G1 X81.2203 Y12.699
G1 Y12.9107
G1 X81.1357 Y13.2493
G1 X80.6277 Y13.7573
G1 X80.289 Y13.842
G1 X80.0773
G1 X79.7387 Y13.7573
G1 X79.3577 Y13.4187
G1 X78.4687
G1 X78.0877 Y13.7573
G1 X77.749 Y13.842
G1 X77.4527
G0 Z3.0
G0 X76.0557 Y13.2493
G0 Z1.2
G1 Z-0.2
G1 X75.5477 Y13.7573
G1 X75.209 Y13.842
G1 X74.9127
G1 X74.6587 Y13.7573
G1 X74.1507 Y13.2493
G1 X74.066 Y12.9107
G1 Y12.699
G1 X74.1507 Y12.3603
G1 X74.6587 Y11.8523
G1 X74.9973 Y11.7677
G1 X75.209
G1 X75.5477 Y11.8523
G1 X76.0557 Y12.3603
G1 X76.1403 Y12.699
G1 Y12.9107
G1 X76.0557 Y13.2493
G0 Z3.0
G0 X77.1987 Y11.2173
G0 Z1.2
G1 Z-0.2
G1 X76.6907 Y10.7093
G1 X76.606 Y10.3707
G1 Y10.159
G1 X76.6907 Y9.8203
G1 X77.1987 Y9.3123
G1 X77.5373 Y9.2277
G1 X77.749
G1 X78.0877 Y9.3123
G1 X78.4687 Y9.651
G1 X79.3577
G1 X79.7387 Y9.3123
G1 X80.0773 Y9.2277
G1 X80.289
G1 X80.6277 Y9.3123
G1 X81.1357 Y9.8203
G1 X81.2203 Y10.159
G1 Y10.3707
G1 X81.1357 Y10.7093
G1 X80.6277 Y11.2173
G1 X80.289 Y11.302
G1 X80.0773
G1 X79.7387 Y11.2173
G1 X79.3577 Y10.8787
G1 X78.4687
G1 X78.0877 Y11.2173
G1 X77.749 Y11.302
G1 X77.4527
G1 X77.1987 Y11.2173
G0 Z3.0
M5
M30
