( Made using CamBam - http://www.cambam.co.uk )
( fatar_converter.gcode.bottom 8/22/2014 6:31:17 PM )
( T0 : 0.0 )
G21 G90 G64 G40
G0 Z3.0
( T0 : 0.0 )
T0 M6
( top )
G17
M3 S1000
G0 X48.7456 Y95.0
G0 Z1.2
G1 F400.0 Z-0.2
G1 Y95.3926
G2 X48.3739 Y95.0421 I-0.8344 J0.5125
G2 X47.8755 Y94.9297 I-0.4767 J0.9525
G2 X47.1899 Y95.1348 I-0.0064 J1.2271
G2 X46.7065 Y95.7061 I0.7607 J1.1338
G2 X46.5366 Y96.5527 I1.8408 J0.8098
G2 X46.6919 Y97.3965 I2.2059 J0.0302
G2 X46.8794 Y97.7243 I1.2626 J-0.5047
G2 X47.1577 Y97.9795 I0.9039 J-0.7063
G2 X47.8521 Y98.1816 I0.6803 J-1.0434
G2 X48.353 Y98.0615 I0.0181 J-1.029
G2 X48.7104 Y97.7539 I-0.4779 J-0.9167
G1 Y99.2949
G1 X49.2349
G1 Y95.0
G1 X48.7456
G0 Z3.0
G0 X48.3704 Y95.5085
G0 Z1.2
G1 Z-0.2
G3 X48.5112 Y95.6445 I-0.4417 J0.5982
G3 X48.7073 Y96.0557 I-0.7531 J0.6115
G3 X48.7544 Y96.5088 I-1.9337 J0.43
G3 X48.7083 Y96.9978 I-2.3426 J0.0258
G3 X48.5083 Y97.4463 I-1.0332 J-0.1919
G3 X48.2403 Y97.6671 I-0.6575 J-0.525
G3 X47.9019 Y97.7451 I-0.3307 J-0.6615
G3 X47.313 Y97.458 I-0.006 J-0.7351
G3 X47.192 Y97.2525 I0.6513 J-0.5218
G3 X47.1017 Y96.9081 I1.3075 J-0.5269
G3 X47.0786 Y96.5527 I2.5056 J-0.3413
G3 X47.1276 Y96.0843 I2.0358 J-0.0238
G3 X47.3306 Y95.6592 I0.9882 J0.2109
G3 X47.594 Y95.443 I0.6834 J0.564
G3 X47.9253 Y95.3633 I0.3264 J0.6285
G3 X48.3704 Y95.5085 I0.0036 J0.7436
G0 Z3.0
G0 Y91.8243
G0 Z1.2
G1 Z-0.2
G1 X47.5817
G1 Y89.6653
G1 X49.7407
G1 Y91.8243
G1 X48.3704
G0 Z3.0
G0 X48.4707 Y89.242
G0 Z1.2
G1 Z-0.2
G1 X48.2167 Y89.1573
G1 X47.7087 Y88.6493
G1 X47.624 Y88.3107
G1 Y88.099
G1 X47.7087 Y87.7603
G1 X48.2167 Y87.2523
G1 X48.5553 Y87.1677
G1 X48.767
G1 X49.1057 Y87.2523
G1 X49.6137 Y87.7603
G1 X49.6983 Y88.099
G1 Y88.3107
G1 X49.6137 Y88.6493
G1 X49.1057 Y89.1573
G1 X48.767 Y89.242
G1 X48.4707
G0 Z3.0
G0 Y86.702
G0 Z1.2
G1 Z-0.2
G1 X48.2167 Y86.6173
G1 X47.7087 Y86.1093
G1 X47.624 Y85.7707
G1 Y85.559
G1 X47.7087 Y85.2203
G1 X48.2167 Y84.7123
G1 X48.5553 Y84.6277
G1 X48.767
G1 X49.1057 Y84.7123
G1 X49.6137 Y85.2203
G1 X49.6983 Y85.559
G1 Y85.7707
G1 X49.6137 Y86.1093
G1 X49.1057 Y86.6173
G1 X48.767 Y86.702
G1 X48.4707
G0 Z3.0
G0 Y84.162
G0 Z1.2
G1 Z-0.2
G1 X48.2167 Y84.0773
G1 X47.7087 Y83.5693
G1 X47.624 Y83.2307
G1 Y83.019
G1 X47.7087 Y82.6803
G1 X48.2167 Y82.1723
G1 X48.5553 Y82.0877
G1 X48.767
G1 X49.1057 Y82.1723
G1 X49.6137 Y82.6803
G1 X49.6983 Y83.019
G1 Y83.2307
G1 X49.6137 Y83.5693
G1 X49.1057 Y84.0773
G1 X48.767 Y84.162
G1 X48.4707
G0 Z3.0
G0 Y81.622
G0 Z1.2
G1 Z-0.2
G1 X48.2167 Y81.5373
G1 X47.7087 Y81.0293
G1 X47.624 Y80.6907
G1 Y80.479
G1 X47.7087 Y80.1403
G1 X48.2167 Y79.6323
G1 X48.5553 Y79.5477
G1 X48.767
G1 X49.1057 Y79.6323
G1 X49.6137 Y80.1403
G1 X49.6983 Y80.479
G1 Y80.6907
G1 X49.6137 Y81.0293
G1 X49.1057 Y81.5373
G1 X48.767 Y81.622
G1 X48.4707
G0 Z3.0
G0 Y79.082
G0 Z1.2
G1 Z-0.2
G1 X48.2167 Y78.9973
G1 X47.7087 Y78.4893
G1 X47.624 Y78.1507
G1 Y77.939
G1 X47.7087 Y77.6003
G1 X48.2167 Y77.0923
G1 X48.5553 Y77.0077
G1 X48.767
G1 X49.1057 Y77.0923
G1 X49.6137 Y77.6003
G1 X49.6983 Y77.939
G1 Y78.1507
G1 X49.6137 Y78.4893
G1 X49.1057 Y78.9973
G1 X48.767 Y79.082
G1 X48.4707
G0 Z3.0
G0 Y76.542
G0 Z1.2
G1 Z-0.2
G1 X48.2167 Y76.4573
G1 X47.7087 Y75.9493
G1 X47.624 Y75.6107
G1 Y75.399
G1 X47.7087 Y75.0603
G1 X48.2167 Y74.5523
G1 X48.5553 Y74.4677
G1 X48.767
G1 X49.1057 Y74.5523
G1 X49.6137 Y75.0603
G1 X49.6983 Y75.399
G1 Y75.6107
G1 X49.6137 Y75.9493
G1 X49.1057 Y76.4573
G1 X48.767 Y76.542
G1 X48.4707
G0 Z3.0
G0 Y74.002
G0 Z1.2
G1 Z-0.2
G1 X48.2167 Y73.9173
G1 X47.7087 Y73.4093
G1 X47.624 Y73.0707
G1 Y72.859
G1 X47.7087 Y72.5203
G1 X48.2167 Y72.0123
G1 X48.5553 Y71.9277
G1 X48.767
G1 X49.1057 Y72.0123
G1 X49.6137 Y72.5203
G1 X49.6983 Y72.859
G1 Y73.0707
G1 X49.6137 Y73.4093
G1 X49.1057 Y73.9173
G1 X48.767 Y74.002
G1 X48.4707
G0 Z3.0
G0 X55.524 Y73.0707
G0 Z1.2
G1 Z-0.2
G1 Y72.859
G1 X55.6087 Y72.5203
G1 X56.1167 Y72.0123
G1 X56.4553 Y71.9277
G1 X56.667
G1 X57.0057 Y72.0123
G1 X57.5137 Y72.5203
G1 X57.5983 Y72.859
G1 Y73.0707
G1 X57.5137 Y73.4093
G1 X57.0057 Y73.9173
G1 X56.667 Y74.002
G1 X56.3707
G1 X56.1167 Y73.9173
G1 X55.6087 Y73.4093
G1 X55.524 Y73.0707
G0 Z3.0
G0 X56.1167 Y74.5523
G0 Z1.2
G1 Z-0.2
G1 X56.4553 Y74.4677
G1 X56.667
G1 X57.0057 Y74.5523
G1 X57.5137 Y75.0603
G1 X57.5983 Y75.399
G1 Y75.6107
G1 X57.5137 Y75.9493
G1 X57.0057 Y76.4573
G1 X56.667 Y76.542
G1 X56.3707
G1 X56.1167 Y76.4573
G1 X55.6087 Y75.9493
G1 X55.524 Y75.6107
G1 Y75.399
G1 X55.6087 Y75.0603
G1 X56.1167 Y74.5523
G0 Z3.0
G0 X58.1487 Y75.0603
G0 Z1.2
G1 Z-0.2
G1 X58.6567 Y74.5523
G1 X58.9953 Y74.4677
G1 X59.334
G1 X70.764 Y62.9953
G1 Y62.699
G1 X70.8487 Y62.3603
G1 X71.3567 Y61.8523
G1 X71.6953 Y61.7677
G1 X71.907
G1 X72.2457 Y61.8523
G1 X72.7537 Y62.3603
G1 X72.8383 Y62.699
G1 Y62.9107
G1 X72.7537 Y63.2493
G1 X72.2457 Y63.7573
G1 X71.907 Y63.842
G1 X71.5683
G1 X60.1383 Y75.3143
G1 Y75.6107
G1 X60.0537 Y75.9493
G1 X59.5457 Y76.4573
G1 X59.207 Y76.542
G1 X58.9107
G1 X58.6567 Y76.4573
G1 X58.1487 Y75.9493
G1 X58.064 Y75.6107
G1 Y75.399
G1 X58.1487 Y75.0603
G0 Z3.0
G0 X58.6567 Y73.9173
G0 Z1.2
G1 Z-0.2
G1 X58.1487 Y73.4093
G1 X58.064 Y73.0707
G1 Y72.859
G1 X58.1487 Y72.5203
G1 X58.6567 Y72.0123
G1 X58.9953 Y71.9277
G1 X59.334
G1 X70.764 Y60.4553
G1 Y60.159
G1 X70.8487 Y59.8203
G1 X71.3567 Y59.3123
G1 X71.6953 Y59.2277
G1 X71.907
G1 X72.2457 Y59.3123
G1 X72.7537 Y59.8203
G1 X72.8383 Y60.159
G1 Y60.3707
G1 X72.7537 Y60.7093
G1 X72.2457 Y61.2173
G1 X71.907 Y61.302
G1 X71.5683
G1 X60.1383 Y72.7743
G1 Y73.0707
G1 X60.0537 Y73.4093
G1 X59.5457 Y73.9173
G1 X59.207 Y74.002
G1 X58.9107
G1 X58.6567 Y73.9173
G0 Z3.0
G0 X60.5417 Y75.7955
G0 Z1.2
G1 Z-0.2
G1 X70.764 Y65.5353
G1 Y65.239
G1 X70.8487 Y64.9003
G1 X71.3567 Y64.3923
G1 X71.6953 Y64.3077
G1 X71.907
G1 X72.2457 Y64.3923
G1 X72.7537 Y64.9003
G1 X72.8383 Y65.239
G1 Y65.4507
G1 X72.7537 Y65.7893
G1 X72.2457 Y66.2973
G1 X71.907 Y66.382
G1 X71.5683
G1 X60.1383 Y77.8543
G1 Y78.1507
G1 X60.0537 Y78.4893
G1 X59.5457 Y78.9973
G1 X59.207 Y79.082
G1 X58.9107
G1 X58.6567 Y78.9973
G1 X58.1487 Y78.4893
G1 X58.064 Y78.1507
G1 Y77.939
G1 X58.1487 Y77.6003
G1 X58.6567 Y77.0923
G1 X58.9953 Y77.0077
G1 X59.334
G1 X60.5417 Y75.7955
G0 Z3.0
G0 X61.8117 Y77.0608
G0 Z1.2
G1 Z-0.2
G1 X70.764 Y68.0753
G1 Y67.779
G1 X70.8487 Y67.4403
G1 X71.3567 Y66.9323
G1 X71.6953 Y66.8477
G1 X71.907
G1 X72.2457 Y66.9323
G1 X72.7537 Y67.4403
G1 X72.8383 Y67.779
G1 Y67.9907
G1 X72.7537 Y68.3293
G1 X72.2457 Y68.8373
G1 X71.907 Y68.922
G1 X71.5683
G1 X60.1383 Y80.3943
G1 Y80.6907
G1 X60.0537 Y81.0293
G1 X59.5457 Y81.5373
G1 X59.207 Y81.622
G1 X58.9107
G1 X58.6567 Y81.5373
G1 X58.1487 Y81.0293
G1 X58.064 Y80.6907
G1 Y80.479
G1 X58.1487 Y80.1403
G1 X58.6567 Y79.6323
G1 X58.9953 Y79.5477
G1 X59.334
G1 X61.8117 Y77.0608
G0 Z3.0
G0 X63.0817 Y78.3261
G0 Z1.2
G1 Z-0.2
G1 X70.764 Y70.6153
G1 Y70.319
G1 X70.8487 Y69.9803
G1 X71.3567 Y69.4723
G1 X71.6953 Y69.3877
G1 X71.907
G1 X72.2457 Y69.4723
G1 X72.7537 Y69.9803
G1 X72.8383 Y70.319
G1 Y70.5307
G1 X72.7537 Y70.8693
G1 X72.2457 Y71.3773
G1 X71.907 Y71.462
G1 X71.5683
G1 X60.1383 Y82.9343
G1 Y83.2307
G1 X60.0537 Y83.5693
G1 X59.5457 Y84.0773
G1 X59.207 Y84.162
G1 X58.9107
G1 X58.6567 Y84.0773
G1 X58.1487 Y83.5693
G1 X58.064 Y83.2307
G1 Y83.019
G1 X58.1487 Y82.6803
G1 X58.6567 Y82.1723
G1 X58.9953 Y82.0877
G1 X59.334
G1 X63.0817 Y78.3261
G0 Z3.0
G0 X64.3517 Y79.5914
G0 Z1.2
G1 Z-0.2
G1 X70.764 Y73.1553
G1 Y72.859
G1 X70.8487 Y72.5203
G1 X71.3567 Y72.0123
G1 X71.6953 Y71.9277
G1 X71.907
G1 X72.2457 Y72.0123
G1 X72.7537 Y72.5203
G1 X72.8383 Y72.859
G1 Y73.0707
G1 X72.7537 Y73.4093
G1 X72.2457 Y73.9173
G1 X71.907 Y74.002
G1 X71.5683
G1 X60.1383 Y85.4743
G1 Y85.7707
G1 X60.0537 Y86.1093
G1 X59.5457 Y86.6173
G1 X59.207 Y86.702
G1 X58.9107
G1 X58.6567 Y86.6173
G1 X58.1487 Y86.1093
G1 X58.064 Y85.7707
G1 Y85.559
G1 X58.1487 Y85.2203
G1 X58.6567 Y84.7123
G1 X58.9953 Y84.6277
G1 X59.334
G1 X64.3517 Y79.5914
G0 Z3.0
G0 X65.6217 Y80.8567
G0 Z1.2
G1 Z-0.2
G1 X70.764 Y75.6953
G1 Y75.399
G1 X70.8487 Y75.0603
G1 X71.3567 Y74.5523
G1 X71.6953 Y74.4677
G1 X71.907
G1 X72.2457 Y74.5523
G1 X72.7537 Y75.0603
G1 X72.8383 Y75.399
G1 Y75.6107
G1 X72.7537 Y75.9493
G1 X72.2457 Y76.4573
G1 X71.907 Y76.542
G1 X71.5683
G1 X60.1383 Y88.0143
G1 Y88.3107
G1 X60.0537 Y88.6493
G1 X59.5457 Y89.1573
G1 X59.207 Y89.242
G1 X58.9107
G1 X58.6567 Y89.1573
G1 X58.1487 Y88.6493
G1 X58.064 Y88.3107
G1 Y88.099
G1 X58.1487 Y87.7603
G1 X58.6567 Y87.2523
G1 X58.9953 Y87.1677
G1 X59.334
G1 X65.6217 Y80.8567
G0 Z3.0
G0 X66.8917 Y82.122
G0 Z1.2
G1 Z-0.2
G1 X70.764 Y78.2353
G1 Y77.939
G1 X70.8487 Y77.6003
G1 X71.3567 Y77.0923
G1 X71.6953 Y77.0077
G1 X71.907
G1 X72.2457 Y77.0923
G1 X72.7537 Y77.6003
G1 X72.8383 Y77.939
G1 Y78.1507
G1 X72.7537 Y78.4893
G1 X72.2457 Y78.9973
G1 X71.907 Y79.082
G1 X71.5683
G1 X60.1383 Y90.5543
G1 Y90.8507
G1 X60.0537 Y91.1893
G1 X59.5457 Y91.6973
G1 X59.207 Y91.782
G1 X58.9107
G1 X58.6567 Y91.6973
G1 X58.1487 Y91.1893
G1 X58.064 Y90.8507
G1 Y90.639
G1 X58.1487 Y90.3003
G1 X58.6567 Y89.7923
G1 X58.9953 Y89.7077
G1 X59.334
G1 X66.8917 Y82.122
G0 Z3.0
G0 X73.2617 Y79.1243
G0 Z1.2
G1 Z-0.2
G1 Y76.9653
G1 X75.4207
G1 Y79.1243
G1 X73.2617
G0 Z3.0
G0 X74.1253 Y76.5335
G0 Z1.2
G1 Z-0.2
G1 X73.8967 Y76.4573
G1 X73.3887 Y75.9493
G1 X73.304 Y75.6107
G1 Y75.399
G1 X73.3887 Y75.0603
G1 X73.8967 Y74.5523
G1 X74.2353 Y74.4677
G1 X74.447
G1 X74.7857 Y74.5523
G1 X75.2937 Y75.0603
G1 X75.3783 Y75.399
G1 Y75.6107
G1 X75.2937 Y75.9493
G1 X74.7857 Y76.4573
G1 X74.447 Y76.542
G1 X74.1507
G1 X74.1253 Y76.5335
G0 Z3.0
G0 X75.9287 Y75.9493
G0 Z1.2
G1 Z-0.2
G1 X75.844 Y75.6107
G1 Y75.399
G1 X75.9287 Y75.0603
G1 X76.4367 Y74.5523
G1 X76.7753 Y74.4677
G1 X76.987
G1 X77.3257 Y74.5523
G1 X77.8337 Y75.0603
G1 X77.9183 Y75.399
G1 Y75.6107
G1 X77.8337 Y75.9493
G1 X77.3257 Y76.4573
G1 X76.987 Y76.542
G1 X76.6907
G1 X76.4367 Y76.4573
G1 X75.9287 Y75.9493
G0 Z3.0
G0 X76.4367 Y77.0923
G0 Z1.2
G1 Z-0.2
G1 X76.7753 Y77.0077
G1 X76.987
G1 X77.3257 Y77.0923
G1 X77.8337 Y77.6003
G1 X77.9183 Y77.939
G1 Y78.1507
G1 X77.8337 Y78.4893
G1 X77.3257 Y78.9973
G1 X76.987 Y79.082
G1 X76.6907
G1 X76.4367 Y78.9973
G1 X75.9287 Y78.4893
G1 X75.844 Y78.1507
G1 Y77.939
G1 X75.9287 Y77.6003
G1 X76.4367 Y77.0923
G0 Z3.0
G0 X76.6907 Y74.002
G0 Z1.2
G1 Z-0.2
G1 X76.4367 Y73.9173
G1 X75.9287 Y73.4093
G1 X75.844 Y73.0707
G1 Y72.859
G1 X75.9287 Y72.5203
G1 X76.4367 Y72.0123
G1 X76.7753 Y71.9277
G1 X76.987
G1 X77.3257 Y72.0123
G1 X77.8337 Y72.5203
G1 X77.9183 Y72.859
G1 Y73.0707
G1 X77.8337 Y73.4093
G1 X77.3257 Y73.9173
G1 X76.987 Y74.002
G1 X76.6907
G0 Z3.0
G0 X75.2937 Y73.4093
G0 Z1.2
G1 Z-0.2
G1 X74.7857 Y73.9173
G1 X74.447 Y74.002
G1 X74.1507
G1 X73.8967 Y73.9173
G1 X73.3887 Y73.4093
G1 X73.304 Y73.0707
G1 Y72.859
G1 X73.3887 Y72.5203
G1 X73.8967 Y72.0123
G1 X74.2353 Y71.9277
G1 X74.447
G1 X74.7857 Y72.0123
G1 X75.2937 Y72.5203
G1 X75.3783 Y72.859
G1 Y73.0707
G1 X75.2937 Y73.4093
G0 Z3.0
G0 X74.7857 Y71.3773
G0 Z1.2
G1 Z-0.2
G1 X74.447 Y71.462
G1 X74.1507
G1 X73.8967 Y71.3773
G1 X73.3887 Y70.8693
G1 X73.304 Y70.5307
G1 Y70.319
G1 X73.3887 Y69.9803
G1 X73.8967 Y69.4723
G1 X74.2353 Y69.3877
G1 X74.447
G1 X74.7857 Y69.4723
G1 X75.2937 Y69.9803
G1 X75.3783 Y70.319
G1 Y70.5307
G1 X75.2937 Y70.8693
G1 X74.7857 Y71.3773
G0 Z3.0
G0 X75.9287 Y70.8693
G0 Z1.2
G1 Z-0.2
G1 X75.844 Y70.5307
G1 Y70.319
G1 X75.9287 Y69.9803
G1 X76.4367 Y69.4723
G1 X76.7753 Y69.3877
G1 X76.987
G1 X77.3257 Y69.4723
G1 X77.8337 Y69.9803
G1 X77.9183 Y70.319
G1 Y70.5307
G1 X77.8337 Y70.8693
G1 X77.3257 Y71.3773
G1 X76.987 Y71.462
G1 X76.6907
G1 X76.4367 Y71.3773
G1 X75.9287 Y70.8693
G0 Z3.0
G0 X76.5891 Y68.8881
G0 Z1.2
G1 Z-0.2
G1 X76.4367 Y68.8373
G1 X75.9287 Y68.3293
G1 X75.844 Y67.9907
G1 Y67.779
G1 X75.9287 Y67.4403
G1 X76.4367 Y66.9323
G1 X76.7753 Y66.8477
G1 X76.987
G1 X77.3257 Y66.9323
G1 X77.8337 Y67.4403
G1 X77.9183 Y67.779
G1 Y67.9907
G1 X77.8337 Y68.3293
G1 X77.3257 Y68.8373
G1 X76.987 Y68.922
G1 X76.6907
G1 X76.5891 Y68.8881
G0 Z3.0
G0 X75.2937 Y68.3293
G0 Z1.2
G1 Z-0.2
G1 X74.7857 Y68.8373
G1 X74.447 Y68.922
G1 X74.1507
G1 X73.8967 Y68.8373
G1 X73.3887 Y68.3293
G1 X73.304 Y67.9907
G1 Y67.779
G1 X73.3887 Y67.4403
G1 X73.8967 Y66.9323
G1 X74.2353 Y66.8477
G1 X74.447
G1 X74.7857 Y66.9323
G1 X75.2937 Y67.4403
G1 X75.3783 Y67.779
G1 Y67.9907
G1 X75.2937 Y68.3293
G0 Z3.0
G0 X74.7857 Y66.2973
G0 Z1.2
G1 Z-0.2
G1 X74.447 Y66.382
G1 X74.1507
G1 X73.8967 Y66.2973
G1 X73.3887 Y65.7893
G1 X73.304 Y65.4507
G1 Y65.239
G1 X73.3887 Y64.9003
G1 X73.8967 Y64.3923
G1 X74.2353 Y64.3077
G1 X74.447
G1 X74.7857 Y64.3923
G1 X75.2937 Y64.9003
G1 X75.3783 Y65.239
G1 Y65.4507
G1 X75.2937 Y65.7893
G1 X74.7857 Y66.2973
G0 Z3.0
G0 X75.9287 Y65.7893
G0 Z1.2
G1 Z-0.2
G1 X75.844 Y65.4507
G1 Y65.239
G1 X75.9287 Y64.9003
G1 X76.4367 Y64.3923
G1 X76.7753 Y64.3077
G1 X76.987
G1 X77.3257 Y64.3923
G1 X77.8337 Y64.9003
G1 X77.9183 Y65.239
G1 Y65.4507
G1 X77.8337 Y65.7893
G1 X77.3257 Y66.2973
G1 X76.987 Y66.382
G1 X76.6907
G1 X76.4367 Y66.2973
G1 X75.9287 Y65.7893
G0 Z3.0
G0 X76.5891 Y63.8081
G0 Z1.2
G1 Z-0.2
G1 X76.4367 Y63.7573
G1 X75.9287 Y63.2493
G1 X75.844 Y62.9107
G1 Y62.699
G1 X75.9287 Y62.3603
G1 X76.4367 Y61.8523
G1 X76.7753 Y61.7677
G1 X76.987
G1 X77.3257 Y61.8523
G1 X77.8337 Y62.3603
G1 X77.9183 Y62.699
G1 Y62.9107
G1 X77.8337 Y63.2493
G1 X77.3257 Y63.7573
G1 X76.987 Y63.842
G1 X76.6907
G1 X76.5891 Y63.8081
G0 Z3.0
G0 X75.2937 Y63.2493
G0 Z1.2
G1 Z-0.2
G1 X74.7857 Y63.7573
G1 X74.447 Y63.842
G1 X74.1507
G1 X73.8967 Y63.7573
G1 X73.3887 Y63.2493
G1 X73.304 Y62.9107
G1 Y62.699
G1 X73.3887 Y62.3603
G1 X73.8967 Y61.8523
G1 X74.2353 Y61.7677
G1 X74.447
G1 X74.7857 Y61.8523
G1 X75.2937 Y62.3603
G1 X75.3783 Y62.699
G1 Y62.9107
G1 X75.2937 Y63.2493
G0 Z3.0
G0 X74.7857 Y61.2173
G0 Z1.2
G1 Z-0.2
G1 X74.447 Y61.302
G1 X74.1507
G1 X73.8967 Y61.2173
G1 X73.3887 Y60.7093
G1 X73.304 Y60.3707
G1 Y60.159
G1 X73.3887 Y59.8203
G1 X73.8967 Y59.3123
G1 X74.2353 Y59.2277
G1 X74.447
G1 X74.7857 Y59.3123
G1 X75.2937 Y59.8203
G1 X75.3783 Y60.159
G1 Y60.3707
G1 X75.2937 Y60.7093
G1 X74.7857 Y61.2173
G0 Z3.0
G0 X75.9287 Y60.7093
G0 Z1.2
G1 Z-0.2
G1 X75.844 Y60.3707
G1 Y60.159
G1 X75.9287 Y59.8203
G1 X76.4367 Y59.3123
G1 X76.7753 Y59.2277
G1 X76.987
G1 X77.3257 Y59.3123
G1 X77.8337 Y59.8203
G1 X77.9183 Y60.159
G1 Y60.3707
G1 X77.8337 Y60.7093
G1 X77.3257 Y61.2173
G1 X76.987 Y61.302
G1 X76.6907
G1 X76.4367 Y61.2173
G1 X75.9287 Y60.7093
G0 Z3.0
G0 X75.4207 Y54.5243
G0 Z1.2
G1 Z-0.2
G1 X73.2617
G1 Y52.3653
G1 X75.4207
G1 Y54.5243
G0 Z3.0
G0 X75.9922 Y53.9528
G0 Z1.2
G1 Z-0.2
G1 X75.9287 Y53.8893
G1 X75.844 Y53.5507
G1 Y53.339
G1 X75.9287 Y53.0003
G1 X76.4367 Y52.4923
G1 X76.7753 Y52.4077
G1 X76.987
G1 X77.3257 Y52.4923
G1 X77.8337 Y53.0003
G1 X77.9183 Y53.339
G1 Y53.5507
G1 X77.8337 Y53.8893
G1 X77.3257 Y54.3973
G1 X76.987 Y54.482
G1 X76.6907
G1 X76.4367 Y54.3973
G1 X75.9922 Y53.9528
G0 Z3.0
G0 X76.6653 Y51.9335
G0 Z1.2
G1 Z-0.2
G1 X76.4367 Y51.8573
G1 X75.9287 Y51.3493
G1 X75.844 Y51.0107
G1 Y50.799
G1 X75.9287 Y50.4603
G1 X76.4367 Y49.9523
G1 X76.7753 Y49.8677
G1 X76.987
G1 X77.3257 Y49.9523
G1 X77.8337 Y50.4603
G1 X77.9183 Y50.799
G1 Y51.0107
G1 X77.8337 Y51.3493
G1 X77.3257 Y51.8573
G1 X76.987 Y51.942
G1 X76.6907
G1 X76.6653 Y51.9335
G0 Z3.0
G0 X75.2937 Y51.3493
G0 Z1.2
G1 Z-0.2
G1 X74.7857 Y51.8573
G1 X74.447 Y51.942
G1 X74.1507
G1 X73.8967 Y51.8573
G1 X73.3887 Y51.3493
G1 X73.304 Y51.0107
G1 Y50.799
G1 X73.3887 Y50.4603
G1 X73.8967 Y49.9523
G1 X74.2353 Y49.8677
G1 X74.447
G1 X74.7857 Y49.9523
G1 X75.2937 Y50.4603
G1 X75.3783 Y50.799
G1 Y51.0107
G1 X75.2937 Y51.3493
G0 Z3.0
G0 X74.7857 Y49.3173
G0 Z1.2
G1 Z-0.2
G1 X74.447 Y49.402
G1 X74.1507
G1 X73.8967 Y49.3173
G1 X73.3887 Y48.8093
G1 X73.304 Y48.4707
G1 Y48.259
G1 X73.3887 Y47.9203
G1 X73.8967 Y47.4123
G1 X74.2353 Y47.3277
G1 X74.447
G1 X74.7857 Y47.4123
G1 X75.2937 Y47.9203
G1 X75.3783 Y48.259
G1 Y48.4707
G1 X75.2937 Y48.8093
G1 X74.7857 Y49.3173
G0 Z3.0
G0 X75.9287 Y48.8093
G0 Z1.2
G1 Z-0.2
G1 X75.844 Y48.4707
G1 Y48.259
G1 X75.9287 Y47.9203
G1 X76.4367 Y47.4123
G1 X76.7753 Y47.3277
G1 X76.987
G1 X77.3257 Y47.4123
G1 X77.8337 Y47.9203
G1 X77.9183 Y48.259
G1 Y48.4707
G1 X77.8337 Y48.8093
G1 X77.3257 Y49.3173
G1 X76.987 Y49.402
G1 X76.6907
G1 X76.4367 Y49.3173
G1 X75.9287 Y48.8093
G0 Z3.0
G0 X76.5891 Y46.8281
G0 Z1.2
G1 Z-0.2
G1 X76.4367 Y46.7773
G1 X75.9287 Y46.2693
G1 X75.844 Y45.9307
G1 Y45.719
G1 X75.9287 Y45.3803
G1 X76.4367 Y44.8723
G1 X76.7753 Y44.7877
G1 X76.987
G1 X77.3257 Y44.8723
G1 X77.8337 Y45.3803
G1 X77.9183 Y45.719
G1 Y45.9307
G1 X77.8337 Y46.2693
G1 X77.3257 Y46.7773
G1 X76.987 Y46.862
G1 X76.6907
G1 X76.5891 Y46.8281
G0 Z3.0
G0 X75.2937 Y46.2693
G0 Z1.2
G1 Z-0.2
G1 X74.7857 Y46.7773
G1 X74.447 Y46.862
G1 X74.1507
G1 X73.8967 Y46.7773
G1 X73.3887 Y46.2693
G1 X73.304 Y45.9307
G1 Y45.719
G1 X73.3887 Y45.3803
G1 X73.8967 Y44.8723
G1 X74.2353 Y44.7877
G1 X74.447
G1 X74.7857 Y44.8723
G1 X75.2937 Y45.3803
G1 X75.3783 Y45.719
G1 Y45.9307
G1 X75.2937 Y46.2693
G0 Z3.0
G0 X74.7857 Y44.2373
G0 Z1.2
G1 Z-0.2
G1 X74.447 Y44.322
G1 X74.1507
G1 X73.8967 Y44.2373
G1 X73.3887 Y43.7293
G1 X73.304 Y43.3907
G1 Y43.179
G1 X73.3887 Y42.8403
G1 X73.8967 Y42.3323
G1 X74.2353 Y42.2477
G1 X74.447
G1 X74.7857 Y42.3323
G1 X75.2937 Y42.8403
G1 X75.3783 Y43.179
G1 Y43.3907
G1 X75.2937 Y43.7293
G1 X74.7857 Y44.2373
G0 Z3.0
G0 X75.9287 Y43.7293
G0 Z1.2
G1 Z-0.2
G1 X75.844 Y43.3907
G1 Y43.179
G1 X75.9287 Y42.8403
G1 X76.4367 Y42.3323
G1 X76.7753 Y42.2477
G1 X76.987
G1 X77.3257 Y42.3323
G1 X77.8337 Y42.8403
G1 X77.9183 Y43.179
G1 Y43.3907
G1 X77.8337 Y43.7293
G1 X77.3257 Y44.2373
G1 X76.987 Y44.322
G1 X76.6907
G1 X76.4367 Y44.2373
G1 X75.9287 Y43.7293
G0 Z3.0
G0 X76.5891 Y41.7481
G0 Z1.2
G1 Z-0.2
G1 X76.4367 Y41.6973
G1 X75.9287 Y41.1893
G1 X75.844 Y40.8507
G1 Y40.639
G1 X75.9287 Y40.3003
G1 X76.4367 Y39.7923
G1 X76.7753 Y39.7077
G1 X76.987
G1 X77.3257 Y39.7923
G1 X77.8337 Y40.3003
G1 X77.9183 Y40.639
G1 Y40.8507
G1 X77.8337 Y41.1893
G1 X77.3257 Y41.6973
G1 X76.987 Y41.782
G1 X76.6907
G1 X76.5891 Y41.7481
G0 Z3.0
G0 X75.2937 Y41.1893
G0 Z1.2
G1 Z-0.2
G1 X74.7857 Y41.6973
G1 X74.447 Y41.782
G1 X74.1507
G1 X73.8967 Y41.6973
G1 X73.3887 Y41.1893
G1 X73.304 Y40.8507
G1 Y40.639
G1 X73.3887 Y40.3003
G1 X73.8967 Y39.7923
G1 X74.2353 Y39.7077
G1 X74.447
G1 X74.7857 Y39.7923
G1 X75.2937 Y40.3003
G1 X75.3783 Y40.639
G1 Y40.8507
G1 X75.2937 Y41.1893
G0 Z3.0
G0 X74.7857 Y39.1573
G0 Z1.2
G1 Z-0.2
G1 X74.447 Y39.242
G1 X74.1507
G1 X73.8967 Y39.1573
G1 X73.3887 Y38.6493
G1 X73.304 Y38.3107
G1 Y38.099
G1 X73.3887 Y37.7603
G1 X73.8967 Y37.2523
G1 X74.2353 Y37.1677
G1 X74.447
G1 X74.7857 Y37.2523
G1 X75.2937 Y37.7603
G1 X75.3783 Y38.099
G1 Y38.3107
G1 X75.2937 Y38.6493
G1 X74.7857 Y39.1573
G0 Z3.0
G0 X75.9287 Y38.6493
G0 Z1.2
G1 Z-0.2
G1 X75.844 Y38.3107
G1 Y38.099
G1 X75.9287 Y37.7603
G1 X76.4367 Y37.2523
G1 X76.7753 Y37.1677
G1 X76.987
G1 X77.3257 Y37.2523
G1 X77.8337 Y37.7603
G1 X77.9183 Y38.099
G1 Y38.3107
G1 X77.8337 Y38.6493
G1 X77.3257 Y39.1573
G1 X76.987 Y39.242
G1 X76.6907
G1 X76.4367 Y39.1573
G1 X75.9287 Y38.6493
G0 Z3.0
G0 X76.5891 Y36.6681
G0 Z1.2
G1 Z-0.2
G1 X76.4367 Y36.6173
G1 X75.9287 Y36.1093
G1 X75.844 Y35.7707
G1 Y35.559
G1 X75.9287 Y35.2203
G1 X76.4367 Y34.7123
G1 X76.7753 Y34.6277
G1 X76.987
G1 X77.3257 Y34.7123
G1 X77.8337 Y35.2203
G1 X77.9183 Y35.559
G1 Y35.7707
G1 X77.8337 Y36.1093
G1 X77.3257 Y36.6173
G1 X76.987 Y36.702
G1 X76.6907
G1 X76.5891 Y36.6681
G0 Z3.0
G0 X75.2937 Y36.1093
G0 Z1.2
G1 Z-0.2
G1 X74.7857 Y36.6173
G1 X74.447 Y36.702
G1 X74.1507
G1 X73.8967 Y36.6173
G1 X73.3887 Y36.1093
G1 X73.304 Y35.7707
G1 Y35.559
G1 X73.3887 Y35.2203
G1 X73.8967 Y34.7123
G1 X74.2353 Y34.6277
G1 X74.447
G1 X74.7857 Y34.7123
G1 X75.2937 Y35.2203
G1 X75.3783 Y35.559
G1 Y35.7707
G1 X75.2937 Y36.1093
G0 Z3.0
G0 Y29.1243
G0 Z1.2
G1 Z-0.2
G1 X73.2617
G1 Y26.9653
G1 X75.4207
G1 Y29.1243
G1 X75.2937
G0 Z3.0
G0 X75.9287 Y28.4893
G0 Z1.2
G1 Z-0.2
G1 X75.844 Y28.1507
G1 Y27.939
G1 X75.9287 Y27.6003
G1 X76.4367 Y27.0923
G1 X76.7753 Y27.0077
G1 X76.987
G1 X77.3257 Y27.0923
G1 X77.8337 Y27.6003
G1 X77.9183 Y27.939
G1 Y28.1507
G1 X77.8337 Y28.4893
G1 X77.3257 Y28.9973
G1 X76.987 Y29.082
G1 X76.6907
G1 X76.4367 Y28.9973
G1 X75.9287 Y28.4893
G0 Z3.0
G0 X76.5891 Y26.5081
G0 Z1.2
G1 Z-0.2
G1 X76.4367 Y26.4573
G1 X75.9287 Y25.9493
G1 X75.844 Y25.6107
G1 Y25.399
G1 X75.9287 Y25.0603
G1 X76.4367 Y24.5523
G1 X76.7753 Y24.4677
G1 X76.987
G1 X77.3257 Y24.5523
G1 X77.8337 Y25.0603
G1 X77.9183 Y25.399
G1 Y25.6107
G1 X77.8337 Y25.9493
G1 X77.3257 Y26.4573
G1 X76.987 Y26.542
G1 X76.6907
G1 X76.5891 Y26.5081
G0 Z3.0
G0 X75.2937 Y25.9493
G0 Z1.2
G1 Z-0.2
G1 X74.7857 Y26.4573
G1 X74.447 Y26.542
G1 X74.1507
G1 X73.8967 Y26.4573
G1 X73.3887 Y25.9493
G1 X73.304 Y25.6107
G1 Y25.399
G1 X73.3887 Y25.0603
G1 X73.8967 Y24.5523
G1 X74.2353 Y24.4677
G1 X74.447
G1 X74.7857 Y24.5523
G1 X75.2937 Y25.0603
G1 X75.3783 Y25.399
G1 Y25.6107
G1 X75.2937 Y25.9493
G0 Z3.0
G0 X74.7857 Y23.9173
G0 Z1.2
G1 Z-0.2
G1 X74.447 Y24.002
G1 X74.1507
G1 X73.8967 Y23.9173
G1 X73.3887 Y23.4093
G1 X73.304 Y23.0707
G1 Y22.859
G1 X73.3887 Y22.5203
G1 X73.8967 Y22.0123
G1 X74.2353 Y21.9277
G1 X74.447
G1 X74.7857 Y22.0123
G1 X75.2937 Y22.5203
G1 X75.3783 Y22.859
G1 Y23.0707
G1 X75.2937 Y23.4093
G1 X74.7857 Y23.9173
G0 Z3.0
G0 X75.9287 Y23.4093
G0 Z1.2
G1 Z-0.2
G1 X75.844 Y23.0707
G1 Y22.859
G1 X75.9287 Y22.5203
G1 X76.4367 Y22.0123
G1 X76.7753 Y21.9277
G1 X76.987
G1 X77.3257 Y22.0123
G1 X77.8337 Y22.5203
G1 X77.9183 Y22.859
G1 Y23.0707
G1 X77.8337 Y23.4093
G1 X77.3257 Y23.9173
G1 X76.987 Y24.002
G1 X76.6907
G1 X76.4367 Y23.9173
G1 X75.9287 Y23.4093
G0 Z3.0
G0 X76.5891 Y21.4281
G0 Z1.2
G1 Z-0.2
G1 X76.4367 Y21.3773
G1 X75.9287 Y20.8693
G1 X75.844 Y20.5307
G1 Y20.319
G1 X75.9287 Y19.9803
G1 X76.4367 Y19.4723
G1 X76.7753 Y19.3877
G1 X76.987
G1 X77.3257 Y19.4723
G1 X77.8337 Y19.9803
G1 X77.9183 Y20.319
G1 Y20.5307
G1 X77.8337 Y20.8693
G1 X77.3257 Y21.3773
G1 X76.987 Y21.462
G1 X76.6907
G1 X76.5891 Y21.4281
G0 Z3.0
G0 X75.2937 Y20.8693
G0 Z1.2
G1 Z-0.2
G1 X74.7857 Y21.3773
G1 X74.447 Y21.462
G1 X74.1507
G1 X73.8967 Y21.3773
G1 X73.3887 Y20.8693
G1 X73.304 Y20.5307
G1 Y20.319
G1 X73.3887 Y19.9803
G1 X73.8967 Y19.4723
G1 X74.2353 Y19.3877
G1 X74.447
G1 X74.7857 Y19.4723
G1 X75.2937 Y19.9803
G1 X75.3783 Y20.319
G1 Y20.5307
G1 X75.2937 Y20.8693
G0 Z3.0
G0 X74.7857 Y18.8373
G0 Z1.2
G1 Z-0.2
G1 X74.447 Y18.922
G1 X74.1507
G1 X73.8967 Y18.8373
G1 X73.3887 Y18.3293
G1 X73.304 Y17.9907
G1 Y17.779
G1 X73.3887 Y17.4403
G1 X73.8967 Y16.9323
G1 X74.2353 Y16.8477
G1 X74.447
G1 X74.7857 Y16.9323
G1 X75.2937 Y17.4403
G1 X75.3783 Y17.779
G1 Y17.9907
G1 X75.2937 Y18.3293
G1 X74.7857 Y18.8373
G0 Z3.0
G0 X75.9287 Y18.3293
G0 Z1.2
G1 Z-0.2
G1 X75.844 Y17.9907
G1 Y17.779
G1 X75.9287 Y17.4403
G1 X76.4367 Y16.9323
G1 X76.7753 Y16.8477
G1 X76.987
G1 X77.3257 Y16.9323
G1 X77.8337 Y17.4403
G1 X77.9183 Y17.779
G1 Y17.9907
G1 X77.8337 Y18.3293
G1 X77.3257 Y18.8373
G1 X76.987 Y18.922
G1 X76.6907
G1 X76.4367 Y18.8373
G1 X75.9287 Y18.3293
G0 Z3.0
G0 X76.5891 Y16.3481
G0 Z1.2
G1 Z-0.2
G1 X76.4367 Y16.2973
G1 X75.9287 Y15.7893
G1 X75.844 Y15.4507
G1 Y15.239
G1 X75.9287 Y14.9003
G1 X76.4367 Y14.3923
G1 X76.7753 Y14.3077
G1 X76.987
G1 X77.3257 Y14.3923
G1 X77.8337 Y14.9003
G1 X77.9183 Y15.239
G1 Y15.4507
G1 X77.8337 Y15.7893
G1 X77.3257 Y16.2973
G1 X76.987 Y16.382
G1 X76.6907
G1 X76.5891 Y16.3481
G0 Z3.0
G0 X75.2937 Y15.7893
G0 Z1.2
G1 Z-0.2
G1 X74.7857 Y16.2973
G1 X74.447 Y16.382
G1 X74.1507
G1 X73.8967 Y16.2973
G1 X73.3887 Y15.7893
G1 X73.304 Y15.4507
G1 Y15.239
G1 X73.3887 Y14.9003
G1 X73.8967 Y14.3923
G1 X74.2353 Y14.3077
G1 X74.447
G1 X74.7857 Y14.3923
G1 X75.2937 Y14.9003
G1 X75.3783 Y15.239
G1 Y15.4507
G1 X75.2937 Y15.7893
G0 Z3.0
G0 X74.7857 Y13.7573
G0 Z1.2
G1 Z-0.2
G1 X74.447 Y13.842
G1 X74.1507
G1 X73.8967 Y13.7573
G1 X73.3887 Y13.2493
G1 X73.304 Y12.9107
G1 Y12.699
G1 X73.3887 Y12.3603
G1 X73.8967 Y11.8523
G1 X74.2353 Y11.7677
G1 X74.447
G1 X74.7857 Y11.8523
G1 X75.2937 Y12.3603
G1 X75.3783 Y12.699
G1 Y12.9107
G1 X75.2937 Y13.2493
G1 X74.7857 Y13.7573
G0 Z3.0
G0 X75.9287 Y13.2493
G0 Z1.2
G1 Z-0.2
G1 X75.844 Y12.9107
G1 Y12.699
G1 X75.9287 Y12.3603
G1 X76.4367 Y11.8523
G1 X76.7753 Y11.7677
G1 X76.987
G1 X77.3257 Y11.8523
G1 X77.8337 Y12.3603
G1 X77.9183 Y12.699
G1 Y12.9107
G1 X77.8337 Y13.2493
G1 X77.3257 Y13.7573
G1 X76.987 Y13.842
G1 X76.6907
G1 X76.4367 Y13.7573
G1 X75.9287 Y13.2493
G0 Z3.0
G0 X76.5891 Y11.2681
G0 Z1.2
G1 Z-0.2
G1 X76.4367 Y11.2173
G1 X75.9287 Y10.7093
G1 X75.844 Y10.3707
G1 Y10.159
G1 X75.9287 Y9.8203
G1 X76.4367 Y9.3123
G1 X76.7753 Y9.2277
G1 X76.987
G1 X77.3257 Y9.3123
G1 X77.8337 Y9.8203
G1 X77.9183 Y10.159
G1 Y10.3707
G1 X77.8337 Y10.7093
G1 X77.3257 Y11.2173
G1 X76.987 Y11.302
G1 X76.6907
G1 X76.5891 Y11.2681
G0 Z3.0
G0 X75.2937 Y10.7093
G0 Z1.2
G1 Z-0.2
G1 X74.7857 Y11.2173
G1 X74.447 Y11.302
G1 X74.1507
G1 X73.8967 Y11.2173
G1 X73.3887 Y10.7093
G1 X73.304 Y10.3707
G1 Y10.159
G1 X73.3887 Y9.8203
G1 X73.8967 Y9.3123
G1 X74.2353 Y9.2277
G1 X74.447
G1 X74.7857 Y9.3123
G1 X75.2937 Y9.8203
G1 X75.3783 Y10.159
G1 Y10.3707
G1 X75.2937 Y10.7093
G0 Z3.0
G0 X72.8383 Y10.3707
G0 Z1.2
G1 Z-0.2
G1 X72.7537 Y10.7093
G1 X72.2457 Y11.2173
G1 X71.907 Y11.302
G1 X71.5683
G1 X60.1383 Y22.7743
G1 Y23.0707
G1 X60.0537 Y23.4093
G1 X59.5457 Y23.9173
G1 X59.207 Y24.002
G1 X58.9107
G1 X58.6567 Y23.9173
G1 X58.1487 Y23.4093
G1 X58.064 Y23.0707
G1 Y22.859
G1 X58.1487 Y22.5203
G1 X58.6567 Y22.0123
G1 X58.9953 Y21.9277
G1 X59.334
G1 X70.764 Y10.4553
G1 Y10.159
G1 X70.8487 Y9.8203
G1 X71.3567 Y9.3123
G1 X71.6953 Y9.2277
G1 X71.907
G1 X72.2457 Y9.3123
G1 X72.7537 Y9.8203
G1 X72.8383 Y10.159
G1 Y10.3707
G0 Z3.0
G0 X72.2457 Y11.8523
G0 Z1.2
G1 Z-0.2
G1 X72.7537 Y12.3603
G1 X72.8383 Y12.699
G1 Y12.9107
G1 X72.7537 Y13.2493
G1 X72.2457 Y13.7573
G1 X71.907 Y13.842
G1 X71.5683
G1 X60.1383 Y25.3143
G1 Y25.6107
G1 X60.0537 Y25.9493
G1 X59.5457 Y26.4573
G1 X59.207 Y26.542
G1 X58.9107
G1 X58.6567 Y26.4573
G1 X58.1487 Y25.9493
G1 X58.064 Y25.6107
G1 Y25.399
G1 X58.1487 Y25.0603
G1 X58.6567 Y24.5523
G1 X58.9953 Y24.4677
G1 X59.334
G1 X70.764 Y12.9953
G1 Y12.699
G1 X70.8487 Y12.3603
G1 X71.3567 Y11.8523
G1 X71.6953 Y11.7677
G1 X71.907
G1 X72.2457 Y11.8523
G0 Z3.0
G0 X71.907 Y14.3077
G0 Z1.2
G1 Z-0.2
G1 X72.2457 Y14.3923
G1 X72.7537 Y14.9003
G1 X72.8383 Y15.239
G1 Y15.4507
G1 X72.7537 Y15.7893
G1 X72.2457 Y16.2973
G1 X71.907 Y16.382
G1 X71.5683
G1 X60.1383 Y27.8543
G1 Y28.1507
G1 X60.0537 Y28.4893
G1 X59.5457 Y28.9973
G1 X59.207 Y29.082
G1 X58.9107
G1 X58.6567 Y28.9973
G1 X58.1487 Y28.4893
G1 X58.064 Y28.1507
G1 Y27.939
G1 X58.1487 Y27.6003
G1 X58.6567 Y27.0923
G1 X58.9953 Y27.0077
G1 X59.334
G1 X70.764 Y15.5353
G1 Y15.239
G1 X70.8487 Y14.9003
G1 X71.3567 Y14.3923
G1 X71.6953 Y14.3077
G1 X71.907
G0 Z3.0
G0 Y16.8477
G0 Z1.2
G1 Z-0.2
G1 X72.2457 Y16.9323
G1 X72.7537 Y17.4403
G1 X72.8383 Y17.779
G1 Y17.9907
G1 X72.7537 Y18.3293
G1 X72.2457 Y18.8373
G1 X71.907 Y18.922
G1 X71.5683
G1 X60.1383 Y30.3943
G1 Y30.6907
G1 X60.0537 Y31.0293
G1 X59.5457 Y31.5373
G1 X59.207 Y31.622
G1 X58.9107
G1 X58.6567 Y31.5373
G1 X58.1487 Y31.0293
G1 X58.064 Y30.6907
G1 Y30.479
G1 X58.1487 Y30.1403
G1 X58.6567 Y29.6323
G1 X58.9953 Y29.5477
G1 X59.334
G1 X70.764 Y18.0753
G1 Y17.779
G1 X70.8487 Y17.4403
G1 X71.3567 Y16.9323
G1 X71.6953 Y16.8477
G1 X71.907
G0 Z3.0
G0 Y19.3877
G0 Z1.2
G1 Z-0.2
G1 X72.2457 Y19.4723
G1 X72.7537 Y19.9803
G1 X72.8383 Y20.319
G1 Y20.5307
G1 X72.7537 Y20.8693
G1 X72.2457 Y21.3773
G1 X71.907 Y21.462
G1 X71.5683
G1 X60.1383 Y32.9343
G1 Y33.2307
G1 X60.0537 Y33.5693
G1 X59.5457 Y34.0773
G1 X59.207 Y34.162
G1 X58.9107
G1 X58.6567 Y34.0773
G1 X58.1487 Y33.5693
G1 X58.064 Y33.2307
G1 Y33.019
G1 X58.1487 Y32.6803
G1 X58.6567 Y32.1723
G1 X58.9953 Y32.0877
G1 X59.334
G1 X70.764 Y20.6153
G1 Y20.319
G1 X70.8487 Y19.9803
G1 X71.3567 Y19.4723
G1 X71.6953 Y19.3877
G1 X71.907
G0 Z3.0
G0 Y21.9277
G0 Z1.2
G1 Z-0.2
G1 X72.2457 Y22.0123
G1 X72.7537 Y22.5203
G1 X72.8383 Y22.859
G1 Y23.0707
G1 X72.7537 Y23.4093
G1 X72.2457 Y23.9173
G1 X71.907 Y24.002
G1 X71.5683
G1 X60.1383 Y35.4743
G1 Y35.7707
G1 X60.0537 Y36.1093
G1 X59.5457 Y36.6173
G1 X59.207 Y36.702
G1 X58.9107
G1 X58.6567 Y36.6173
G1 X58.1487 Y36.1093
G1 X58.064 Y35.7707
G1 Y35.559
G1 X58.1487 Y35.2203
G1 X58.6567 Y34.7123
G1 X58.9953 Y34.6277
G1 X59.334
G1 X70.764 Y23.1553
G1 Y22.859
G1 X70.8487 Y22.5203
G1 X71.3567 Y22.0123
G1 X71.6953 Y21.9277
G1 X71.907
G0 Z3.0
G0 Y24.4677
G0 Z1.2
G1 Z-0.2
G1 X72.2457 Y24.5523
G1 X72.7537 Y25.0603
G1 X72.8383 Y25.399
G1 Y25.6107
G1 X72.7537 Y25.9493
G1 X72.2457 Y26.4573
G1 X71.907 Y26.542
G1 X71.5683
G1 X60.1383 Y38.0143
G1 Y38.3107
G1 X60.0537 Y38.6493
G1 X59.5457 Y39.1573
G1 X59.207 Y39.242
G1 X58.9107
G1 X58.6567 Y39.1573
G1 X58.1487 Y38.6493
G1 X58.064 Y38.3107
G1 Y38.099
G1 X58.1487 Y37.7603
G1 X58.6567 Y37.2523
G1 X58.9953 Y37.1677
G1 X59.334
G1 X70.764 Y25.6953
G1 Y25.399
G1 X70.8487 Y25.0603
G1 X71.3567 Y24.5523
G1 X71.6953 Y24.4677
G1 X71.907
G0 Z3.0
G0 Y27.0077
G0 Z1.2
G1 Z-0.2
G1 X72.2457 Y27.0923
G1 X72.7537 Y27.6003
G1 X72.8383 Y27.939
G1 Y28.1507
G1 X72.7537 Y28.4893
G1 X72.2457 Y28.9973
G1 X71.907 Y29.082
G1 X71.5683
G1 X60.1383 Y40.5543
G1 Y40.8507
G1 X60.0537 Y41.1893
G1 X59.5457 Y41.6973
G1 X59.207 Y41.782
G1 X58.9107
G1 X58.6567 Y41.6973
G1 X58.1487 Y41.1893
G1 X58.064 Y40.8507
G1 Y40.639
G1 X58.1487 Y40.3003
G1 X58.6567 Y39.7923
G1 X58.9953 Y39.7077
G1 X59.334
G1 X70.764 Y28.2353
G1 Y27.939
G1 X70.8487 Y27.6003
G1 X71.3567 Y27.0923
G1 X71.6953 Y27.0077
G1 X71.907
G0 Z3.0
G0 X57.5983 Y27.939
G0 Z1.2
G1 Z-0.2
G1 Y28.1507
G1 X57.5137 Y28.4893
G1 X57.0057 Y28.9973
G1 X56.667 Y29.082
G1 X56.3707
G1 X56.1167 Y28.9973
G1 X55.6087 Y28.4893
G1 X55.524 Y28.1507
G1 Y27.939
G1 X55.6087 Y27.6003
G1 X56.1167 Y27.0923
G1 X56.4553 Y27.0077
G1 X56.667
G1 X57.0057 Y27.0923
G1 X57.5137 Y27.6003
G1 X57.5983 Y27.939
G0 Z3.0
G0 X57.0057 Y26.4573
G0 Z1.2
G1 Z-0.2
G1 X56.667 Y26.542
G1 X56.3707
G1 X56.1167 Y26.4573
G1 X55.6087 Y25.9493
G1 X55.524 Y25.6107
G1 Y25.399
G1 X55.6087 Y25.0603
G1 X56.1167 Y24.5523
G1 X56.4553 Y24.4677
G1 X56.667
G1 X57.0057 Y24.5523
G1 X57.5137 Y25.0603
G1 X57.5983 Y25.399
G1 Y25.6107
G1 X57.5137 Y25.9493
G1 X57.0057 Y26.4573
G0 Z3.0
G0 X56.667 Y24.002
G0 Z1.2
G1 Z-0.2
G1 X56.3707
G1 X56.1167 Y23.9173
G1 X55.6087 Y23.4093
G1 X55.524 Y23.0707
G1 Y22.859
G1 X55.6087 Y22.5203
G1 X56.1167 Y22.0123
G1 X56.4553 Y21.9277
G1 X56.667
G1 X57.0057 Y22.0123
G1 X57.5137 Y22.5203
G1 X57.5983 Y22.859
G1 Y23.0707
G1 X57.5137 Y23.4093
G1 X57.0057 Y23.9173
G1 X56.667 Y24.002
G0 Z3.0
G0 Y29.5477
G0 Z1.2
G1 Z-0.2
G1 X57.0057 Y29.6323
G1 X57.5137 Y30.1403
G1 X57.5983 Y30.479
G1 Y30.6907
G1 X57.5137 Y31.0293
G1 X57.0057 Y31.5373
G1 X56.667 Y31.622
G1 X56.3707
G1 X56.1167 Y31.5373
G1 X55.6087 Y31.0293
G1 X55.524 Y30.6907
G1 Y30.479
G1 X55.6087 Y30.1403
G1 X56.1167 Y29.6323
G1 X56.4553 Y29.5477
G1 X56.667
G0 Z3.0
G0 Y32.0877
G0 Z1.2
G1 Z-0.2
G1 X57.0057 Y32.1723
G1 X57.5137 Y32.6803
G1 X57.5983 Y33.019
G1 Y33.2307
G1 X57.5137 Y33.5693
G1 X57.0057 Y34.0773
G1 X56.667 Y34.162
G1 X56.3707
G1 X56.1167 Y34.0773
G1 X55.6087 Y33.5693
G1 X55.524 Y33.2307
G1 Y33.019
G1 X55.6087 Y32.6803
G1 X56.1167 Y32.1723
G1 X56.4553 Y32.0877
G1 X56.667
G0 Z3.0
G0 Y34.6277
G0 Z1.2
G1 Z-0.2
G1 X57.0057 Y34.7123
G1 X57.5137 Y35.2203
G1 X57.5983 Y35.559
G1 Y35.7707
G1 X57.5137 Y36.1093
G1 X57.0057 Y36.6173
G1 X56.667 Y36.702
G1 X56.3707
G1 X56.1167 Y36.6173
G1 X55.6087 Y36.1093
G1 X55.524 Y35.7707
G1 Y35.559
G1 X55.6087 Y35.2203
G1 X56.1167 Y34.7123
G1 X56.4553 Y34.6277
G1 X56.667
G0 Z3.0
G0 Y37.1677
G0 Z1.2
G1 Z-0.2
G1 X57.0057 Y37.2523
G1 X57.5137 Y37.7603
G1 X57.5983 Y38.099
G1 Y38.3107
G1 X57.5137 Y38.6493
G1 X57.0057 Y39.1573
G1 X56.667 Y39.242
G1 X56.3707
G1 X56.1167 Y39.1573
G1 X55.6087 Y38.6493
G1 X55.524 Y38.3107
G1 Y38.099
G1 X55.6087 Y37.7603
G1 X56.1167 Y37.2523
G1 X56.4553 Y37.1677
G1 X56.667
G0 Z3.0
G0 Y39.6653
G0 Z1.2
G1 Z-0.2
G1 X57.6407
G1 Y41.8243
G1 X55.4817
G1 Y39.6653
G1 X56.667
G0 Z3.0
G0 X56.8977 Y44.9316
G0 Z1.2
G1 Z-0.2
G2 X56.5311 Y44.9797 I0.0935 J2.1337
G2 X56.0889 Y45.1816 I0.2329 J1.0953
G2 X55.8173 Y45.5176 I0.6344 J0.7906
G2 X55.6846 Y45.9287 I1.3087 J0.6494
G1 X56.2061 Y46.0107
G3 X56.2821 Y45.7475 I0.8875 J0.1137
G3 X56.4492 Y45.5303 I0.5803 J0.2735
G3 X56.716 Y45.398 I0.4328 J0.5376
G3 X57.0117 Y45.3633 I0.2825 J1.1298
G3 X57.2935 Y45.3913 I0.0146 J1.285
G3 X57.5508 Y45.5098 I-0.1193 J0.5975
G3 X57.6786 Y45.6639 I-0.3378 J0.4102
G3 X57.7266 Y45.8584 I-0.3612 J0.1923
G3 X57.5713 Y46.1396 I-0.3203 J0.0066
G3 X57.4418 Y46.1988 I-0.363 J-0.6229
G3 X57.0322 Y46.3184 I-1.469 J-4.2696
G2 X56.6246 Y46.4291 I2.5359 J10.1431
G2 X56.2266 Y46.5703 I0.8603 J3.0566
G2 X55.8867 Y46.8662 I0.3371 J0.7303
G2 X55.7725 Y47.2852 I0.6848 J0.4117
G2 X55.8662 Y47.6689 I0.803 J0.0072
G2 X56.127 Y47.9648 I0.7614 J-0.4082
G2 X56.4609 Y48.1172 I0.6107 J-0.896
G2 X56.918 Y48.1816 I0.4463 J-1.5132
G2 X57.5596 Y48.0762 I0.0339 J-1.7992
G2 X57.7855 Y47.9624 I-0.3897 J-1.0547
G2 X57.9697 Y47.7891 I-0.3906 J-0.5998
G2 X58.0885 Y47.5594 I-0.7201 J-0.518
G2 X58.1514 Y47.3086 I-1.3779 J-0.4789
G1 X57.6357 Y47.2383
G3 X57.4307 Y47.6133 I-0.5592 J-0.0622
G3 X57.2047 Y47.7207 I-0.3549 J-0.4552
G3 X56.9561 Y47.748 I-0.2368 J-1.0109
G3 X56.6878 Y47.7269 I-0.0154 J-1.5207
G3 X56.4375 Y47.6279 I0.084 J-0.5782
G3 X56.3259 Y47.5061 I0.2631 J-0.3531
G3 X56.2822 Y47.3467 I0.2643 J-0.1581
G3 X56.3467 Y47.1621 I0.2911 J-0.0019
G3 X56.5488 Y47.0215 I0.3613 J0.3037
G3 X57.0146 Y46.8867 I3.1342 J9.9579
G2 X57.4081 Y46.7756 I-3.2479 J-12.2559
G2 X57.7939 Y46.6406 I-1.0627 J-3.6557
G2 X58.1426 Y46.3652 I-0.2905 J-0.7263
G2 X58.2686 Y45.9141 I-0.6506 J-0.4249
G2 X58.1133 Y45.416 I-0.8869 J0.0033
G2 X57.6709 Y45.0557 I-0.8264 J0.563
G2 X57.0146 Y44.9297 I-0.6302 J1.5104
G2 X56.8977 Y44.9316 I-0.0235 J2.1356
G0 Z3.0
G0 X49.2349 Y45.0
G0 Z1.2
G1 Z-0.2
G1 X48.7456
G1 Y45.3926
G2 X48.3739 Y45.0421 I-0.8344 J0.5125
G2 X47.8755 Y44.9297 I-0.4767 J0.9525
G2 X47.1899 Y45.1348 I-0.0064 J1.2271
G2 X46.7065 Y45.7061 I0.7607 J1.1338
G2 X46.5397 Y46.3993 I1.8408 J0.8096
G2 X46.5366 Y46.5527 I2.0077 J0.1173
G2 X46.6919 Y47.3965 I2.2059 J0.0302
G2 X46.8794 Y47.7243 I1.2626 J-0.5047
G2 X47.1577 Y47.9795 I0.9039 J-0.7063
G2 X47.8521 Y48.1816 I0.6803 J-1.0434
G2 X48.353 Y48.0615 I0.0181 J-1.029
G2 X48.7104 Y47.7539 I-0.4779 J-0.9167
G1 Y49.2949
G1 X49.2349
G1 Y45.0
G0 Z3.0
G0 X48.4961 Y45.6261
G0 Z1.2
G1 Z-0.2
G3 X48.5112 Y45.6445 I-0.5673 J0.4808
G3 X48.7073 Y46.0557 I-0.7531 J0.6115
G3 X48.7544 Y46.5088 I-1.9337 J0.43
G3 X48.7083 Y46.9978 I-2.3426 J0.0258
G3 X48.5083 Y47.4463 I-1.0332 J-0.1919
G3 X48.2403 Y47.6671 I-0.6575 J-0.525
G3 X47.9019 Y47.7451 I-0.3307 J-0.6615
G3 X47.313 Y47.458 I-0.006 J-0.7351
G3 X47.192 Y47.2525 I0.6513 J-0.5218
G3 X47.1017 Y46.9081 I1.3075 J-0.5269
G3 X47.0786 Y46.5527 I2.5056 J-0.3413
G3 X47.081 Y46.4266 I2.0358 J-0.0243
G3 X47.1276 Y46.0843 I2.0334 J0.1025
G3 X47.3306 Y45.6592 I0.9882 J0.2109
G3 X47.594 Y45.443 I0.6834 J0.564
G3 X47.9253 Y45.3633 I0.3264 J0.6285
G3 X48.4961 Y45.6261 I0.0035 J0.7436
G0 Z3.0
G0 Y41.8243
G0 Z1.2
G1 Z-0.2
G1 X47.5817
G1 Y39.6653
G1 X49.7407
G1 Y41.8243
G1 X48.4961
G0 Z3.0
G0 Y39.242
G0 Z1.2
G1 Z-0.2
G1 X48.4707
G1 X48.2167 Y39.1573
G1 X47.7087 Y38.6493
G1 X47.624 Y38.3107
G1 Y38.099
G1 X47.7087 Y37.7603
G1 X48.2167 Y37.2523
G1 X48.5553 Y37.1677
G1 X48.767
G1 X49.1057 Y37.2523
G1 X49.6137 Y37.7603
G1 X49.6983 Y38.099
G1 Y38.3107
G1 X49.6137 Y38.6493
G1 X49.1057 Y39.1573
G1 X48.767 Y39.242
G1 X48.4961
G0 Z3.0
G0 Y36.702
G0 Z1.2
G1 Z-0.2
G1 X48.4707
G1 X48.2167 Y36.6173
G1 X47.7087 Y36.1093
G1 X47.624 Y35.7707
G1 Y35.559
G1 X47.7087 Y35.2203
G1 X48.2167 Y34.7123
G1 X48.5553 Y34.6277
G1 X48.767
G1 X49.1057 Y34.7123
G1 X49.6137 Y35.2203
G1 X49.6983 Y35.559
G1 Y35.7707
G1 X49.6137 Y36.1093
G1 X49.1057 Y36.6173
G1 X48.767 Y36.702
G1 X48.4961
G0 Z3.0
G0 Y34.162
G0 Z1.2
G1 Z-0.2
G1 X48.4707
G1 X48.2167 Y34.0773
G1 X47.7087 Y33.5693
G1 X47.624 Y33.2307
G1 Y33.019
G1 X47.7087 Y32.6803
G1 X48.2167 Y32.1723
G1 X48.5553 Y32.0877
G1 X48.767
G1 X49.1057 Y32.1723
G1 X49.6137 Y32.6803
G1 X49.6983 Y33.019
G1 Y33.2307
G1 X49.6137 Y33.5693
G1 X49.1057 Y34.0773
G1 X48.767 Y34.162
G1 X48.4961
G0 Z3.0
G0 Y31.622
G0 Z1.2
G1 Z-0.2
G1 X48.4707
G1 X48.2167 Y31.5373
G1 X47.7087 Y31.0293
G1 X47.624 Y30.6907
G1 Y30.479
G1 X47.7087 Y30.1403
G1 X48.2167 Y29.6323
G1 X48.5553 Y29.5477
G1 X48.767
G1 X49.1057 Y29.6323
G1 X49.6137 Y30.1403
G1 X49.6983 Y30.479
G1 Y30.6907
G1 X49.6137 Y31.0293
G1 X49.1057 Y31.5373
G1 X48.767 Y31.622
G1 X48.4961
G0 Z3.0
G0 Y29.082
G0 Z1.2
G1 Z-0.2
G1 X48.4707
G1 X48.2167 Y28.9973
G1 X47.7087 Y28.4893
G1 X47.624 Y28.1507
G1 Y27.939
G1 X47.7087 Y27.6003
G1 X48.2167 Y27.0923
G1 X48.5553 Y27.0077
G1 X48.767
G1 X49.1057 Y27.0923
G1 X49.6137 Y27.6003
G1 X49.6983 Y27.939
G1 Y28.1507
G1 X49.6137 Y28.4893
G1 X49.1057 Y28.9973
G1 X48.767 Y29.082
G1 X48.4961
G0 Z3.0
G0 Y26.542
G0 Z1.2
G1 Z-0.2
G1 X48.4707
G1 X48.2167 Y26.4573
G1 X47.7087 Y25.9493
G1 X47.624 Y25.6107
G1 Y25.399
G1 X47.7087 Y25.0603
G1 X48.2167 Y24.5523
G1 X48.5553 Y24.4677
G1 X48.767
G1 X49.1057 Y24.5523
G1 X49.6137 Y25.0603
G1 X49.6983 Y25.399
G1 Y25.6107
G1 X49.6137 Y25.9493
G1 X49.1057 Y26.4573
G1 X48.767 Y26.542
G1 X48.4961
G0 Z3.0
G0 Y24.002
G0 Z1.2
G1 Z-0.2
G1 X48.4707
G1 X48.2167 Y23.9173
G1 X47.7087 Y23.4093
G1 X47.624 Y23.0707
G1 Y22.859
G1 X47.7087 Y22.5203
G1 X48.2167 Y22.0123
G1 X48.5553 Y21.9277
G1 X48.767
G1 X49.1057 Y22.0123
G1 X49.6137 Y22.5203
G1 X49.6983 Y22.859
G1 Y23.0707
G1 X49.6137 Y23.4093
G1 X49.1057 Y23.9173
G1 X48.767 Y24.002
G1 X48.4961
G0 Z3.0
G0 X40.0 Y18.2881
G0 Z1.2
G1 Z-0.2
G1 Y15.6045
G1 X35.7051
G1 Y16.1729
G1 X39.4932
G1 Y18.2881
G1 X40.0
G0 Z3.0
G0 Y14.5439
G0 Z1.2
G1 Z-0.2
G1 Y14.0195
G1 X37.2988
G1 Y13.5537
G1 X36.8887
G1 Y14.0195
G1 X36.5576
G2 X36.3226 Y14.0294 I-0.0113 J2.5261
G2 X36.0918 Y14.0752 I0.0724 J0.9693
G2 X35.7607 Y14.3418 I0.2324 J0.6276
G2 X35.6576 Y14.6021 I0.6218 J0.3969
G2 X35.6318 Y14.8809 I1.3572 J0.2662
G2 X35.6846 Y15.373 I2.5951 J-0.0296
G1 X36.1445 Y15.2939
G3 X36.1152 Y14.9834 I1.7439 J-0.3212
G3 X36.134 Y14.8037 I0.7719 J-0.0101
G3 X36.2178 Y14.6436 I0.3206 J0.0658
G3 X36.4011 Y14.5607 I0.2359 J0.2776
G3 X36.6016 Y14.5439 I0.1887 J1.0474
G1 X36.8887
G1 Y15.1504
G1 X37.2988
G1 Y14.5439
G1 X40.0
G0 Z3.0
G0 X31.9183 Y15.239
G0 Z1.2
G1 Z-0.2
G1 Y15.4507
G1 X31.8337 Y15.7893
G1 X31.3257 Y16.2973
G1 X30.987 Y16.382
G1 X30.6907
G1 X30.4367 Y16.2973
G1 X29.9287 Y15.7893
G1 X29.844 Y15.4507
G1 Y15.239
G1 X29.9287 Y14.9003
G1 X30.4367 Y14.3923
G1 X30.7753 Y14.3077
G1 X30.987
G1 X31.3257 Y14.3923
G1 X31.8337 Y14.9003
G1 X31.9183 Y15.239
G0 Z3.0
G0 X31.3257 Y13.7573
G0 Z1.2
G1 Z-0.2
G1 X30.987 Y13.842
G1 X30.6907
G1 X30.4367 Y13.7573
G1 X29.9287 Y13.2493
G1 X29.844 Y12.9107
G1 Y12.699
G1 X29.9287 Y12.3603
G1 X30.4367 Y11.8523
G1 X30.7753 Y11.7677
G1 X30.987
G1 X31.3257 Y11.8523
G1 X31.8337 Y12.3603
G1 X31.9183 Y12.699
G1 Y12.9107
G1 X31.8337 Y13.2493
G1 X31.3257 Y13.7573
G0 Z3.0
G0 X29.2937 Y13.2493
G0 Z1.2
G1 Z-0.2
G1 X28.7857 Y13.7573
G1 X28.447 Y13.842
G1 X28.1507
G1 X27.8967 Y13.7573
G1 X27.3887 Y13.2493
G1 X27.304 Y12.9107
G1 Y12.699
G1 X27.3887 Y12.3603
G1 X27.8967 Y11.8523
G1 X28.2353 Y11.7677
G1 X28.447
G1 X28.7857 Y11.8523
G1 X29.2937 Y12.3603
G1 X29.3783 Y12.699
G1 Y12.9107
G1 X29.2937 Y13.2493
G0 Z3.0
G0 X28.7857 Y14.3923
G0 Z1.2
G1 Z-0.2
G1 X29.2937 Y14.9003
G1 X29.3783 Y15.239
G1 Y15.4507
G1 X29.2937 Y15.7893
G1 X28.7857 Y16.2973
G1 X28.447 Y16.382
G1 X28.1507
G1 X27.8967 Y16.2973
G1 X27.3887 Y15.7893
G1 X27.304 Y15.4507
G1 Y15.239
G1 X27.3887 Y14.9003
G1 X27.8967 Y14.3923
G1 X28.2353 Y14.3077
G1 X28.447
G1 X28.7857 Y14.3923
G0 Z3.0
G0 X26.7537 Y14.9003
G0 Z1.2
G1 Z-0.2
G1 X26.8383 Y15.239
G1 Y15.4507
G1 X26.7537 Y15.7893
G1 X26.2457 Y16.2973
G1 X25.907 Y16.382
G1 X25.5683
G1 X14.1383 Y27.8543
G1 Y28.1507
G1 X14.0537 Y28.4893
G1 X13.5457 Y28.9973
G1 X13.207 Y29.082
G1 X12.9107
G1 X12.6567 Y28.9973
G1 X12.1487 Y28.4893
G1 X12.064 Y28.1507
G1 Y27.939
G1 X12.1487 Y27.6003
G1 X12.6567 Y27.0923
G1 X12.9953 Y27.0077
G1 X13.334
G1 X24.764 Y15.5353
G1 Y15.239
G1 X24.8487 Y14.9003
G1 X25.3567 Y14.3923
G1 X25.6953 Y14.3077
G1 X25.907
G1 X26.2457 Y14.3923
G1 X26.7537 Y14.9003
G0 Z3.0
G0 X26.2457 Y13.7573
G0 Z1.2
G1 Z-0.2
G1 X25.907 Y13.842
G1 X25.5683
G1 X14.1383 Y25.3143
G1 Y25.6107
G1 X14.0537 Y25.9493
G1 X13.5457 Y26.4573
G1 X13.207 Y26.542
G1 X12.9107
G1 X12.6567 Y26.4573
G1 X12.1487 Y25.9493
G1 X12.064 Y25.6107
G1 Y25.399
G1 X12.1487 Y25.0603
G1 X12.6567 Y24.5523
G1 X12.9953 Y24.4677
G1 X13.334
G1 X24.764 Y12.9953
G1 Y12.699
G1 X24.8487 Y12.3603
G1 X25.3567 Y11.8523
G1 X25.6953 Y11.7677
G1 X25.907
G1 X26.2457 Y11.8523
G1 X26.7537 Y12.3603
G1 X26.8383 Y12.699
G1 Y12.9107
G1 X26.7537 Y13.2493
G1 X26.2457 Y13.7573
G0 Z3.0
G0 X24.6781 Y12.1955
G0 Z1.2
G1 Z-0.2
G1 X14.1383 Y22.7743
G1 Y23.0707
G1 X14.0537 Y23.4093
G1 X13.5457 Y23.9173
G1 X13.207 Y24.002
G1 X12.9107
G1 X12.6567 Y23.9173
G1 X12.1487 Y23.4093
G1 X12.064 Y23.0707
G1 Y22.859
G1 X12.1487 Y22.5203
G1 X12.6567 Y22.0123
G1 X12.9953 Y21.9277
G1 X13.334
G1 X24.764 Y10.4553
G1 Y10.159
G1 X24.8487 Y9.8203
G1 X25.3567 Y9.3123
G1 X25.6953 Y9.2277
G1 X25.907
G1 X26.2457 Y9.3123
G1 X26.7537 Y9.8203
G1 X26.8383 Y10.159
G1 Y10.3707
G1 X26.7537 Y10.7093
G1 X26.2457 Y11.2173
G1 X25.907 Y11.302
G1 X25.5683
G1 X24.6781 Y12.1955
G0 Z3.0
G0 X27.3887 Y10.7093
G0 Z1.2
G1 Z-0.2
G1 X27.304 Y10.3707
G1 Y10.159
G1 X27.3887 Y9.8203
G1 X27.8967 Y9.3123
G1 X28.2353 Y9.2277
G1 X28.447
G1 X28.7857 Y9.3123
G1 X29.2937 Y9.8203
G1 X29.3783 Y10.159
G1 Y10.3707
G1 X29.2937 Y10.7093
G1 X28.7857 Y11.2173
G1 X28.447 Y11.302
G1 X28.1507
G1 X27.8967 Y11.2173
G1 X27.3887 Y10.7093
G0 Z3.0
G0 X29.844 Y10.3707
G0 Z1.2
G1 Z-0.2
G1 Y10.159
G1 X29.9287 Y9.8203
G1 X30.4367 Y9.3123
G1 X30.7753 Y9.2277
G1 X30.987
G1 X31.3257 Y9.3123
G1 X31.8337 Y9.8203
G1 X31.9183 Y10.159
G1 Y10.3707
G1 X31.8337 Y10.7093
G1 X31.3257 Y11.2173
G1 X30.987 Y11.302
G1 X30.6907
G1 X30.4367 Y11.2173
G1 X29.9287 Y10.7093
G1 X29.844 Y10.3707
G0 Z3.0
G0 X30.7753 Y16.8477
G0 Z1.2
G1 Z-0.2
G1 X30.987
G1 X31.3257 Y16.9323
G1 X31.8337 Y17.4403
G1 X31.9183 Y17.779
G1 Y17.9907
G1 X31.8337 Y18.3293
G1 X31.3257 Y18.8373
G1 X30.987 Y18.922
G1 X30.6907
G1 X30.4367 Y18.8373
G1 X29.9287 Y18.3293
G1 X29.844 Y17.9907
G1 Y17.779
G1 X29.9287 Y17.4403
G1 X30.4367 Y16.9323
G1 X30.7753 Y16.8477
G0 Z3.0
G0 X29.2937 Y17.4403
G0 Z1.2
G1 Z-0.2
G1 X29.3783 Y17.779
G1 Y17.9907
G1 X29.2937 Y18.3293
G1 X28.7857 Y18.8373
G1 X28.447 Y18.922
G1 X28.1507
G1 X27.8967 Y18.8373
G1 X27.3887 Y18.3293
G1 X27.304 Y17.9907
G1 Y17.779
G1 X27.3887 Y17.4403
G1 X27.8967 Y16.9323
G1 X28.2353 Y16.8477
G1 X28.447
G1 X28.7857 Y16.9323
G1 X29.2937 Y17.4403
G0 Z3.0
G0 X28.7857 Y19.4723
G0 Z1.2
G1 Z-0.2
G1 X29.2937 Y19.9803
G1 X29.3783 Y20.319
G1 Y20.5307
G1 X29.2937 Y20.8693
G1 X28.7857 Y21.3773
G1 X28.447 Y21.462
G1 X28.1507
G1 X27.8967 Y21.3773
G1 X27.3887 Y20.8693
G1 X27.304 Y20.5307
G1 Y20.319
G1 X27.3887 Y19.9803
G1 X27.8967 Y19.4723
G1 X28.2353 Y19.3877
G1 X28.447
G1 X28.7857 Y19.4723
G0 Z3.0
G0 X29.9287 Y19.9803
G0 Z1.2
G1 Z-0.2
G1 X30.4367 Y19.4723
G1 X30.7753 Y19.3877
G1 X30.987
G1 X31.3257 Y19.4723
G1 X31.8337 Y19.9803
G1 X31.9183 Y20.319
G1 Y20.5307
G1 X31.8337 Y20.8693
G1 X31.3257 Y21.3773
G1 X30.987 Y21.462
G1 X30.6907
G1 X30.4367 Y21.3773
G1 X29.9287 Y20.8693
G1 X29.844 Y20.5307
G1 Y20.319
G1 X29.9287 Y19.9803
G0 Z3.0
G0 X30.4367 Y22.0123
G0 Z1.2
G1 Z-0.2
G1 X30.7753 Y21.9277
G1 X30.987
G1 X31.3257 Y22.0123
G1 X31.8337 Y22.5203
G1 X31.9183 Y22.859
G1 Y23.0707
G1 X31.8337 Y23.4093
G1 X31.3257 Y23.9173
G1 X30.987 Y24.002
G1 X30.6907
G1 X30.4367 Y23.9173
G1 X29.9287 Y23.4093
G1 X29.844 Y23.0707
G1 Y22.859
G1 X29.9287 Y22.5203
G1 X30.4367 Y22.0123
G0 Z3.0
G0 X29.2937 Y22.5203
G0 Z1.2
G1 Z-0.2
G1 X29.3783 Y22.859
G1 Y23.0707
G1 X29.2937 Y23.4093
G1 X28.7857 Y23.9173
G1 X28.447 Y24.002
G1 X28.1507
G1 X27.8967 Y23.9173
G1 X27.3887 Y23.4093
G1 X27.304 Y23.0707
G1 Y22.859
G1 X27.3887 Y22.5203
G1 X27.8967 Y22.0123
G1 X28.2353 Y21.9277
G1 X28.447
G1 X28.7857 Y22.0123
G1 X29.2937 Y22.5203
G0 Z3.0
G0 X28.7857 Y24.5523
G0 Z1.2
G1 Z-0.2
G1 X29.2937 Y25.0603
G1 X29.3783 Y25.399
G1 Y25.6107
G1 X29.2937 Y25.9493
G1 X28.7857 Y26.4573
G1 X28.447 Y26.542
G1 X28.1507
G1 X27.8967 Y26.4573
G1 X27.3887 Y25.9493
G1 X27.304 Y25.6107
G1 Y25.399
G1 X27.3887 Y25.0603
G1 X27.8967 Y24.5523
G1 X28.2353 Y24.4677
G1 X28.447
G1 X28.7857 Y24.5523
G0 Z3.0
G0 X29.9287 Y25.0603
G0 Z1.2
G1 Z-0.2
G1 X30.4367 Y24.5523
G1 X30.7753 Y24.4677
G1 X30.987
G1 X31.3257 Y24.5523
G1 X31.8337 Y25.0603
G1 X31.9183 Y25.399
G1 Y25.6107
G1 X31.8337 Y25.9493
G1 X31.3257 Y26.4573
G1 X30.987 Y26.542
G1 X30.6907
G1 X30.4367 Y26.4573
G1 X29.9287 Y25.9493
G1 X29.844 Y25.6107
G1 Y25.399
G1 X29.9287 Y25.0603
G0 Z3.0
G0 X29.4207 Y26.9653
G0 Z1.2
G1 Z-0.2
G1 Y29.1243
G1 X27.2617
G1 Y26.9653
G1 X29.4207
G0 Z3.0
G0 X29.9922 Y27.5368
G0 Z1.2
G1 Z-0.2
G1 X30.4367 Y27.0923
G1 X30.7753 Y27.0077
G1 X30.987
G1 X31.3257 Y27.0923
G1 X31.8337 Y27.6003
G1 X31.9183 Y27.939
G1 Y28.1507
G1 X31.8337 Y28.4893
G1 X31.3257 Y28.9973
G1 X30.987 Y29.082
G1 X30.6907
G1 X30.4367 Y28.9973
G1 X29.9287 Y28.4893
G1 X29.844 Y28.1507
G1 Y27.939
G1 X29.9287 Y27.6003
G1 X29.9922 Y27.5368
G0 Z3.0
G0 X26.8383 Y27.939
G0 Z1.2
G1 Z-0.2
G1 Y28.1507
G1 X26.7537 Y28.4893
G1 X26.2457 Y28.9973
G1 X25.907 Y29.082
G1 X25.5683
G1 X14.1383 Y40.5543
G1 Y40.8507
G1 X14.0537 Y41.1893
G1 X13.5457 Y41.6973
G1 X13.207 Y41.782
G1 X12.9107
G1 X12.6567 Y41.6973
G1 X12.1487 Y41.1893
G1 X12.064 Y40.8507
G1 Y40.639
G1 X12.1487 Y40.3003
G1 X12.6567 Y39.7923
G1 X12.9953 Y39.7077
G1 X13.334
G1 X24.764 Y28.2353
G1 Y27.939
G1 X24.8487 Y27.6003
G1 X25.3567 Y27.0923
G1 X25.6953 Y27.0077
G1 X25.907
G1 X26.2457 Y27.0923
G1 X26.7537 Y27.6003
G1 X26.8383 Y27.939
G0 Z3.0
G0 X26.2457 Y26.4573
G0 Z1.2
G1 Z-0.2
G1 X25.907 Y26.542
G1 X25.5683
G1 X14.1383 Y38.0143
G1 Y38.3107
G1 X14.0537 Y38.6493
G1 X13.5457 Y39.1573
G1 X13.207 Y39.242
G1 X12.9107
G1 X12.6567 Y39.1573
G1 X12.1487 Y38.6493
G1 X12.064 Y38.3107
G1 Y38.099
G1 X12.1487 Y37.7603
G1 X12.6567 Y37.2523
G1 X12.9953 Y37.1677
G1 X13.334
G1 X24.764 Y25.6953
G1 Y25.399
G1 X24.8487 Y25.0603
G1 X25.3567 Y24.5523
G1 X25.6953 Y24.4677
G1 X25.907
G1 X26.2457 Y24.5523
G1 X26.7537 Y25.0603
G1 X26.8383 Y25.399
G1 Y25.6107
G1 X26.7537 Y25.9493
G1 X26.2457 Y26.4573
G0 Z3.0
G0 X24.6781 Y24.8955
G0 Z1.2
G1 Z-0.2
G1 X14.1383 Y35.4743
G1 Y35.7707
G1 X14.0537 Y36.1093
G1 X13.5457 Y36.6173
G1 X13.207 Y36.702
G1 X12.9107
G1 X12.6567 Y36.6173
G1 X12.1487 Y36.1093
G1 X12.064 Y35.7707
G1 Y35.559
G1 X12.1487 Y35.2203
G1 X12.6567 Y34.7123
G1 X12.9953 Y34.6277
G1 X13.334
G1 X24.764 Y23.1553
G1 Y22.859
G1 X24.8487 Y22.5203
G1 X25.3567 Y22.0123
G1 X25.6953 Y21.9277
G1 X25.907
G1 X26.2457 Y22.0123
G1 X26.7537 Y22.5203
G1 X26.8383 Y22.859
G1 Y23.0707
G1 X26.7537 Y23.4093
G1 X26.2457 Y23.9173
G1 X25.907 Y24.002
G1 X25.5683
G1 X24.6781 Y24.8955
G0 Z3.0
G0 X23.4081 Y23.6302
G0 Z1.2
G1 Z-0.2
G1 X14.1383 Y32.9343
G1 Y33.2307
G1 X14.0537 Y33.5693
G1 X13.5457 Y34.0773
G1 X13.207 Y34.162
G1 X12.9107
G1 X12.6567 Y34.0773
G1 X12.1487 Y33.5693
G1 X12.064 Y33.2307
G1 Y33.019
G1 X12.1487 Y32.6803
G1 X12.6567 Y32.1723
G1 X12.9953 Y32.0877
G1 X13.334
G1 X24.764 Y20.6153
G1 Y20.319
G1 X24.8487 Y19.9803
G1 X25.3567 Y19.4723
G1 X25.6953 Y19.3877
G1 X25.907
G1 X26.2457 Y19.4723
G1 X26.7537 Y19.9803
G1 X26.8383 Y20.319
G1 Y20.5307
G1 X26.7537 Y20.8693
G1 X26.2457 Y21.3773
G1 X25.907 Y21.462
G1 X25.5683
G1 X23.4081 Y23.6302
G0 Z3.0
G0 X22.1381 Y22.3649
G0 Z1.2
G1 Z-0.2
G1 X14.1383 Y30.3943
G1 Y30.6907
G1 X14.0537 Y31.0293
G1 X13.5457 Y31.5373
G1 X13.207 Y31.622
G1 X12.9107
G1 X12.6567 Y31.5373
G1 X12.1487 Y31.0293
G1 X12.064 Y30.6907
G1 Y30.479
G1 X12.1487 Y30.1403
G1 X12.6567 Y29.6323
G1 X12.9953 Y29.5477
G1 X13.334
G1 X24.764 Y18.0753
G1 Y17.779
G1 X24.8487 Y17.4403
G1 X25.3567 Y16.9323
G1 X25.6953 Y16.8477
G1 X25.907
G1 X26.2457 Y16.9323
G1 X26.7537 Y17.4403
G1 X26.8383 Y17.779
G1 Y17.9907
G1 X26.7537 Y18.3293
G1 X26.2457 Y18.8373
G1 X25.907 Y18.922
G1 X25.5683
G1 X22.1381 Y22.3649
G0 Z3.0
G0 X11.5983 Y22.859
G0 Z1.2
G1 Z-0.2
G1 Y23.0707
G1 X11.5137 Y23.4093
G1 X11.0057 Y23.9173
G1 X10.667 Y24.002
G1 X10.3707
G1 X10.1167 Y23.9173
G1 X9.6087 Y23.4093
G1 X9.524 Y23.0707
G1 Y22.859
G1 X9.6087 Y22.5203
G1 X10.1167 Y22.0123
G1 X10.4553 Y21.9277
G1 X10.667
G1 X11.0057 Y22.0123
G1 X11.5137 Y22.5203
G1 X11.5983 Y22.859
G0 Z3.0
G0 X11.0057 Y24.5523
G0 Z1.2
G1 Z-0.2
G1 X11.5137 Y25.0603
G1 X11.5983 Y25.399
G1 Y25.6107
G1 X11.5137 Y25.9493
G1 X11.0057 Y26.4573
G1 X10.667 Y26.542
G1 X10.3707
G1 X10.1167 Y26.4573
G1 X9.6087 Y25.9493
G1 X9.524 Y25.6107
G1 Y25.399
G1 X9.6087 Y25.0603
G1 X10.1167 Y24.5523
G1 X10.4553 Y24.4677
G1 X10.667
G1 X11.0057 Y24.5523
G0 Z3.0
G0 X10.667 Y27.0077
G0 Z1.2
G1 Z-0.2
G1 X11.0057 Y27.0923
G1 X11.5137 Y27.6003
G1 X11.5983 Y27.939
G1 Y28.1507
G1 X11.5137 Y28.4893
G1 X11.0057 Y28.9973
G1 X10.667 Y29.082
G1 X10.3707
G1 X10.1167 Y28.9973
G1 X9.6087 Y28.4893
G1 X9.524 Y28.1507
G1 Y27.939
G1 X9.6087 Y27.6003
G1 X10.1167 Y27.0923
G1 X10.4553 Y27.0077
G1 X10.667
G0 Z3.0
G0 Y29.5477
G0 Z1.2
G1 Z-0.2
G1 X11.0057 Y29.6323
G1 X11.5137 Y30.1403
G1 X11.5983 Y30.479
G1 Y30.6907
G1 X11.5137 Y31.0293
G1 X11.0057 Y31.5373
G1 X10.667 Y31.622
G1 X10.3707
G1 X10.1167 Y31.5373
G1 X9.6087 Y31.0293
G1 X9.524 Y30.6907
G1 Y30.479
G1 X9.6087 Y30.1403
G1 X10.1167 Y29.6323
G1 X10.4553 Y29.5477
G1 X10.667
G0 Z3.0
G0 Y32.0877
G0 Z1.2
G1 Z-0.2
G1 X11.0057 Y32.1723
G1 X11.5137 Y32.6803
G1 X11.5983 Y33.019
G1 Y33.2307
G1 X11.5137 Y33.5693
G1 X11.0057 Y34.0773
G1 X10.667 Y34.162
G1 X10.3707
G1 X10.1167 Y34.0773
G1 X9.6087 Y33.5693
G1 X9.524 Y33.2307
G1 Y33.019
G1 X9.6087 Y32.6803
G1 X10.1167 Y32.1723
G1 X10.4553 Y32.0877
G1 X10.667
G0 Z3.0
G0 Y34.6277
G0 Z1.2
G1 Z-0.2
G1 X11.0057 Y34.7123
G1 X11.5137 Y35.2203
G1 X11.5983 Y35.559
G1 Y35.7707
G1 X11.5137 Y36.1093
G1 X11.0057 Y36.6173
G1 X10.667 Y36.702
G1 X10.3707
G1 X10.1167 Y36.6173
G1 X9.6087 Y36.1093
G1 X9.524 Y35.7707
G1 Y35.559
G1 X9.6087 Y35.2203
G1 X10.1167 Y34.7123
G1 X10.4553 Y34.6277
G1 X10.667
G0 Z3.0
G0 Y37.1677
G0 Z1.2
G1 Z-0.2
G1 X11.0057 Y37.2523
G1 X11.5137 Y37.7603
G1 X11.5983 Y38.099
G1 Y38.3107
G1 X11.5137 Y38.6493
G1 X11.0057 Y39.1573
G1 X10.667 Y39.242
G1 X10.3707
G1 X10.1167 Y39.1573
G1 X9.6087 Y38.6493
G1 X9.524 Y38.3107
G1 Y38.099
G1 X9.6087 Y37.7603
G1 X10.1167 Y37.2523
G1 X10.4553 Y37.1677
G1 X10.667
G0 Z3.0
G0 Y39.6653
G0 Z1.2
G1 Z-0.2
G1 X11.6407
G1 Y41.8243
G1 X9.4817
G1 Y39.6653
G1 X10.667
G0 Z3.0
G0 X10.8977 Y44.9316
G0 Z1.2
G1 Z-0.2
G2 X10.5311 Y44.9797 I0.0935 J2.1337
G2 X10.0889 Y45.1816 I0.2329 J1.0953
G2 X9.8173 Y45.5176 I0.6344 J0.7906
G2 X9.6846 Y45.9287 I1.3087 J0.6494
G1 X10.2061 Y46.0107
G3 X10.2821 Y45.7475 I0.8875 J0.1137
G3 X10.4492 Y45.5303 I0.5803 J0.2735
G3 X10.716 Y45.398 I0.4328 J0.5376
G3 X11.0117 Y45.3633 I0.2825 J1.1298
G3 X11.2935 Y45.3913 I0.0146 J1.285
G3 X11.5508 Y45.5098 I-0.1193 J0.5975
G3 X11.6786 Y45.6639 I-0.3378 J0.4102
G3 X11.7266 Y45.8584 I-0.3612 J0.1923
G3 X11.5713 Y46.1396 I-0.3203 J0.0066
G3 X11.4418 Y46.1988 I-0.363 J-0.6229
G3 X11.0322 Y46.3184 I-1.469 J-4.2696
G2 X10.6246 Y46.4291 I2.5359 J10.1431
G2 X10.2266 Y46.5703 I0.8603 J3.0566
G2 X9.8867 Y46.8662 I0.3371 J0.7303
G2 X9.7725 Y47.2852 I0.6848 J0.4117
G2 X9.8662 Y47.6689 I0.803 J0.0072
G2 X10.127 Y47.9648 I0.7614 J-0.4082
G2 X10.4609 Y48.1172 I0.6107 J-0.896
G2 X10.918 Y48.1816 I0.4463 J-1.5132
G2 X11.5596 Y48.0762 I0.0339 J-1.7992
G2 X11.7855 Y47.9624 I-0.3897 J-1.0547
G2 X11.9697 Y47.7891 I-0.3906 J-0.5998
G2 X12.0885 Y47.5594 I-0.7201 J-0.518
G2 X12.1514 Y47.3086 I-1.3779 J-0.4789
G1 X11.6357 Y47.2383
G3 X11.4307 Y47.6133 I-0.5592 J-0.0622
G3 X11.2047 Y47.7207 I-0.3549 J-0.4552
G3 X10.9561 Y47.748 I-0.2368 J-1.0109
G3 X10.6878 Y47.7269 I-0.0154 J-1.5207
G3 X10.4375 Y47.6279 I0.084 J-0.5782
G3 X10.3259 Y47.5061 I0.2631 J-0.3531
G3 X10.2822 Y47.3467 I0.2643 J-0.1581
G3 X10.3467 Y47.1621 I0.2911 J-0.0019
G3 X10.5488 Y47.0215 I0.3613 J0.3037
G3 X11.0146 Y46.8867 I3.1342 J9.9579
G2 X11.4081 Y46.7756 I-3.2479 J-12.2559
G2 X11.7939 Y46.6406 I-1.0627 J-3.6557
G2 X12.1426 Y46.3652 I-0.2905 J-0.7263
G2 X12.2686 Y45.9141 I-0.6506 J-0.4249
G2 X12.1133 Y45.416 I-0.8869 J0.0033
G2 X11.9737 Y45.2522 I-0.8264 J0.563
G2 X11.6709 Y45.0557 I-0.6868 J0.7268
G2 X11.0146 Y44.9297 I-0.6302 J1.5104
G2 X10.8977 Y44.9316 I-0.0235 J2.1356
G0 Z3.0
G0 X27.304 Y45.719
G0 Z1.2
G1 Z-0.2
G1 X27.3887 Y45.3803
G1 X27.8967 Y44.8723
G1 X28.2353 Y44.7877
G1 X28.447
G1 X28.7857 Y44.8723
G1 X29.2937 Y45.3803
G1 X29.3783 Y45.719
G1 Y45.9307
G1 X29.2937 Y46.2693
G1 X28.7857 Y46.7773
G1 X28.447 Y46.862
G1 X28.1507
G1 X27.8967 Y46.7773
G1 X27.3887 Y46.2693
G1 X27.304 Y45.9307
G1 Y45.719
G0 Z3.0
G0 X27.8967 Y44.2373
G0 Z1.2
G1 Z-0.2
G1 X27.3887 Y43.7293
G1 X27.304 Y43.3907
G1 Y43.179
G1 X27.3887 Y42.8403
G1 X27.8967 Y42.3323
G1 X28.2353 Y42.2477
G1 X28.447
G1 X28.7857 Y42.3323
G1 X29.2937 Y42.8403
G1 X29.3783 Y43.179
G1 Y43.3907
G1 X29.2937 Y43.7293
G1 X28.7857 Y44.2373
G1 X28.447 Y44.322
G1 X28.1507
G1 X27.8967 Y44.2373
G0 Z3.0
G0 X29.9287 Y43.7293
G0 Z1.2
G1 Z-0.2
G1 X29.844 Y43.3907
G1 Y43.179
G1 X29.9287 Y42.8403
G1 X30.4367 Y42.3323
G1 X30.7753 Y42.2477
G1 X30.987
G1 X31.3257 Y42.3323
G1 X31.8337 Y42.8403
G1 X31.9183 Y43.179
G1 Y43.3907
G1 X31.8337 Y43.7293
G1 X31.3257 Y44.2373
G1 X30.987 Y44.322
G1 X30.6907
G1 X30.4367 Y44.2373
G1 X29.9287 Y43.7293
G0 Z3.0
G0 X30.4367 Y44.8723
G0 Z1.2
G1 Z-0.2
G1 X30.7753 Y44.7877
G1 X30.987
G1 X31.3257 Y44.8723
G1 X31.8337 Y45.3803
G1 X31.9183 Y45.719
G1 Y45.9307
G1 X31.8337 Y46.2693
G1 X31.3257 Y46.7773
G1 X30.987 Y46.862
G1 X30.6907
G1 X30.4367 Y46.7773
G1 X29.9287 Y46.2693
G1 X29.844 Y45.9307
G1 Y45.719
G1 X29.9287 Y45.3803
G1 X30.4367 Y44.8723
G0 Z3.0
G0 X30.7753 Y47.3277
G0 Z1.2
G1 Z-0.2
G1 X30.987
G1 X31.3257 Y47.4123
G1 X31.8337 Y47.9203
G1 X31.9183 Y48.259
G1 Y48.4707
G1 X31.8337 Y48.8093
G1 X31.3257 Y49.3173
G1 X30.987 Y49.402
G1 X30.6907
G1 X30.4367 Y49.3173
G1 X29.9287 Y48.8093
G1 X29.844 Y48.4707
G1 Y48.259
G1 X29.9287 Y47.9203
G1 X30.4367 Y47.4123
G1 X30.7753 Y47.3277
G0 Z3.0
G0 X29.2937 Y47.9203
G0 Z1.2
G1 Z-0.2
G1 X29.3783 Y48.259
G1 Y48.4707
G1 X29.2937 Y48.8093
G1 X28.7857 Y49.3173
G1 X28.447 Y49.402
G1 X28.1507
G1 X27.8967 Y49.3173
G1 X27.3887 Y48.8093
G1 X27.304 Y48.4707
G1 Y48.259
G1 X27.3887 Y47.9203
G1 X27.8967 Y47.4123
G1 X28.2353 Y47.3277
G1 X28.447
G1 X28.7857 Y47.4123
G1 X29.2937 Y47.9203
G0 Z3.0
G0 X28.7857 Y49.9523
G0 Z1.2
G1 Z-0.2
G1 X29.2937 Y50.4603
G1 X29.3783 Y50.799
G1 Y51.0107
G1 X29.2937 Y51.3493
G1 X28.7857 Y51.8573
G1 X28.447 Y51.942
G1 X28.1507
G1 X27.8967 Y51.8573
G1 X27.3887 Y51.3493
G1 X27.304 Y51.0107
G1 Y50.799
G1 X27.3887 Y50.4603
G1 X27.8967 Y49.9523
G1 X28.2353 Y49.8677
G1 X28.447
G1 X28.7857 Y49.9523
G0 Z3.0
G0 X29.9287 Y50.4603
G0 Z1.2
G1 Z-0.2
G1 X30.4367 Y49.9523
G1 X30.7753 Y49.8677
G1 X30.987
G1 X31.3257 Y49.9523
G1 X31.8337 Y50.4603
G1 X31.9183 Y50.799
G1 Y51.0107
G1 X31.8337 Y51.3493
G1 X31.3257 Y51.8573
G1 X30.987 Y51.942
G1 X30.6907
G1 X30.4367 Y51.8573
G1 X29.9287 Y51.3493
G1 X29.844 Y51.0107
G1 Y50.799
G1 X29.9287 Y50.4603
G0 Z3.0
G0 X29.4207 Y52.3653
G0 Z1.2
G1 Z-0.2
G1 Y54.5243
G1 X27.2617
G1 Y52.3653
G1 X29.4207
G0 Z3.0
G0 X29.9922 Y52.9368
G0 Z1.2
G1 Z-0.2
G1 X30.4367 Y52.4923
G1 X30.7753 Y52.4077
G1 X30.987
G1 X31.3257 Y52.4923
G1 X31.8337 Y53.0003
G1 X31.9183 Y53.339
G1 Y53.5507
G1 X31.8337 Y53.8893
G1 X31.3257 Y54.3973
G1 X30.987 Y54.482
G1 X30.6907
G1 X30.4367 Y54.3973
G1 X29.9287 Y53.8893
G1 X29.844 Y53.5507
G1 Y53.339
G1 X29.9287 Y53.0003
G1 X29.9922 Y52.9368
G0 Z3.0
G0 X30.7753 Y59.2277
G0 Z1.2
G1 Z-0.2
G1 X30.987
G1 X31.3257 Y59.3123
G1 X31.8337 Y59.8203
G1 X31.9183 Y60.159
G1 Y60.3707
G1 X31.8337 Y60.7093
G1 X31.3257 Y61.2173
G1 X30.987 Y61.302
G1 X30.6907
G1 X30.4367 Y61.2173
G1 X29.9287 Y60.7093
G1 X29.844 Y60.3707
G1 Y60.159
G1 X29.9287 Y59.8203
G1 X30.4367 Y59.3123
G1 X30.7753 Y59.2277
G0 Z3.0
G0 X29.2937 Y59.8203
G0 Z1.2
G1 Z-0.2
G1 X29.3783 Y60.159
G1 Y60.3707
G1 X29.2937 Y60.7093
G1 X28.7857 Y61.2173
G1 X28.447 Y61.302
G1 X28.1507
G1 X27.8967 Y61.2173
G1 X27.3887 Y60.7093
G1 X27.304 Y60.3707
G1 Y60.159
G1 X27.3887 Y59.8203
G1 X27.8967 Y59.3123
G1 X28.2353 Y59.2277
G1 X28.447
G1 X28.7857 Y59.3123
G1 X29.2937 Y59.8203
G0 Z3.0
G0 X28.7857 Y61.8523
G0 Z1.2
G1 Z-0.2
G1 X29.2937 Y62.3603
G1 X29.3783 Y62.699
G1 Y62.9107
G1 X29.2937 Y63.2493
G1 X28.7857 Y63.7573
G1 X28.447 Y63.842
G1 X28.1507
G1 X27.8967 Y63.7573
G1 X27.3887 Y63.2493
G1 X27.304 Y62.9107
G1 Y62.699
G1 X27.3887 Y62.3603
G1 X27.8967 Y61.8523
G1 X28.2353 Y61.7677
G1 X28.447
G1 X28.7857 Y61.8523
G0 Z3.0
G0 X29.9287 Y62.3603
G0 Z1.2
G1 Z-0.2
G1 X30.4367 Y61.8523
G1 X30.7753 Y61.7677
G1 X30.987
G1 X31.3257 Y61.8523
G1 X31.8337 Y62.3603
G1 X31.9183 Y62.699
G1 Y62.9107
G1 X31.8337 Y63.2493
G1 X31.3257 Y63.7573
G1 X30.987 Y63.842
G1 X30.6907
G1 X30.4367 Y63.7573
G1 X29.9287 Y63.2493
G1 X29.844 Y62.9107
G1 Y62.699
G1 X29.9287 Y62.3603
G0 Z3.0
G0 X30.4367 Y64.3923
G0 Z1.2
G1 Z-0.2
G1 X30.7753 Y64.3077
G1 X30.987
G1 X31.3257 Y64.3923
G1 X31.8337 Y64.9003
G1 X31.9183 Y65.239
G1 Y65.4507
G1 X31.8337 Y65.7893
G1 X31.3257 Y66.2973
G1 X30.987 Y66.382
G1 X30.6907
G1 X30.4367 Y66.2973
G1 X29.9287 Y65.7893
G1 X29.844 Y65.4507
G1 Y65.239
G1 X29.9287 Y64.9003
G1 X30.4367 Y64.3923
G0 Z3.0
G0 X29.2937 Y64.9003
G0 Z1.2
G1 Z-0.2
G1 X29.3783 Y65.239
G1 Y65.4507
G1 X29.2937 Y65.7893
G1 X28.7857 Y66.2973
G1 X28.447 Y66.382
G1 X28.1507
G1 X27.8967 Y66.2973
G1 X27.3887 Y65.7893
G1 X27.304 Y65.4507
G1 Y65.239
G1 X27.3887 Y64.9003
G1 X27.8967 Y64.3923
G1 X28.2353 Y64.3077
G1 X28.447
G1 X28.7857 Y64.3923
G1 X29.2937 Y64.9003
G0 Z3.0
G0 X28.7857 Y66.9323
G0 Z1.2
G1 Z-0.2
G1 X29.2937 Y67.4403
G1 X29.3783 Y67.779
G1 Y67.9907
G1 X29.2937 Y68.3293
G1 X28.7857 Y68.8373
G1 X28.447 Y68.922
G1 X28.1507
G1 X27.8967 Y68.8373
G1 X27.3887 Y68.3293
G1 X27.304 Y67.9907
G1 Y67.779
G1 X27.3887 Y67.4403
G1 X27.8967 Y66.9323
G1 X28.2353 Y66.8477
G1 X28.447
G1 X28.7857 Y66.9323
G0 Z3.0
G0 X29.9287 Y67.4403
G0 Z1.2
G1 Z-0.2
G1 X30.4367 Y66.9323
G1 X30.7753 Y66.8477
G1 X30.987
G1 X31.3257 Y66.9323
G1 X31.8337 Y67.4403
G1 X31.9183 Y67.779
G1 Y67.9907
G1 X31.8337 Y68.3293
G1 X31.3257 Y68.8373
G1 X30.987 Y68.922
G1 X30.6907
G1 X30.4367 Y68.8373
G1 X29.9287 Y68.3293
G1 X29.844 Y67.9907
G1 Y67.779
G1 X29.9287 Y67.4403
G0 Z3.0
G0 X30.4367 Y69.4723
G0 Z1.2
G1 Z-0.2
G1 X30.7753 Y69.3877
G1 X30.987
G1 X31.3257 Y69.4723
G1 X31.8337 Y69.9803
G1 X31.9183 Y70.319
G1 Y70.5307
G1 X31.8337 Y70.8693
G1 X31.3257 Y71.3773
G1 X30.987 Y71.462
G1 X30.6907
G1 X30.4367 Y71.3773
G1 X29.9287 Y70.8693
G1 X29.844 Y70.5307
G1 Y70.319
G1 X29.9287 Y69.9803
G1 X30.4367 Y69.4723
G0 Z3.0
G0 X29.2937 Y69.9803
G0 Z1.2
G1 Z-0.2
G1 X29.3783 Y70.319
G1 Y70.5307
G1 X29.2937 Y70.8693
G1 X28.7857 Y71.3773
G1 X28.447 Y71.462
G1 X28.1507
G1 X27.8967 Y71.3773
G1 X27.3887 Y70.8693
G1 X27.304 Y70.5307
G1 Y70.319
G1 X27.3887 Y69.9803
G1 X27.8967 Y69.4723
G1 X28.2353 Y69.3877
G1 X28.447
G1 X28.7857 Y69.4723
G1 X29.2937 Y69.9803
G0 Z3.0
G0 X28.7857 Y72.0123
G0 Z1.2
G1 Z-0.2
G1 X29.2937 Y72.5203
G1 X29.3783 Y72.859
G1 Y73.0707
G1 X29.2937 Y73.4093
G1 X28.7857 Y73.9173
G1 X28.447 Y74.002
G1 X28.1507
G1 X27.8967 Y73.9173
G1 X27.3887 Y73.4093
G1 X27.304 Y73.0707
G1 Y72.859
G1 X27.3887 Y72.5203
G1 X27.8967 Y72.0123
G1 X28.2353 Y71.9277
G1 X28.447
G1 X28.7857 Y72.0123
G0 Z3.0
G0 X29.9287 Y72.5203
G0 Z1.2
G1 Z-0.2
G1 X30.4367 Y72.0123
G1 X30.7753 Y71.9277
G1 X30.987
G1 X31.3257 Y72.0123
G1 X31.8337 Y72.5203
G1 X31.9183 Y72.859
G1 Y73.0707
G1 X31.8337 Y73.4093
G1 X31.3257 Y73.9173
G1 X30.987 Y74.002
G1 X30.6907
G1 X30.4367 Y73.9173
G1 X29.9287 Y73.4093
G1 X29.844 Y73.0707
G1 Y72.859
G1 X29.9287 Y72.5203
G0 Z3.0
G0 X30.4367 Y74.5523
G0 Z1.2
G1 Z-0.2
G1 X30.7753 Y74.4677
G1 X30.987
G1 X31.3257 Y74.5523
G1 X31.8337 Y75.0603
G1 X31.9183 Y75.399
G1 Y75.6107
G1 X31.8337 Y75.9493
G1 X31.3257 Y76.4573
G1 X30.987 Y76.542
G1 X30.6907
G1 X30.4367 Y76.4573
G1 X29.9287 Y75.9493
G1 X29.844 Y75.6107
G1 Y75.399
G1 X29.9287 Y75.0603
G1 X30.4367 Y74.5523
G0 Z3.0
G0 X29.2937 Y75.0603
G0 Z1.2
G1 Z-0.2
G1 X29.3783 Y75.399
G1 Y75.6107
G1 X29.2937 Y75.9493
G1 X28.7857 Y76.4573
G1 X28.447 Y76.542
G1 X28.1507
G1 X27.8967 Y76.4573
G1 X27.3887 Y75.9493
G1 X27.304 Y75.6107
G1 Y75.399
G1 X27.3887 Y75.0603
G1 X27.8967 Y74.5523
G1 X28.2353 Y74.4677
G1 X28.447
G1 X28.7857 Y74.5523
G1 X29.2937 Y75.0603
G0 Z3.0
G0 Y76.9653
G0 Z1.2
G1 Z-0.2
G1 X29.4207
G1 Y79.1243
G1 X27.2617
G1 Y76.9653
G1 X29.2937
G0 Z3.0
G0 X29.9287 Y77.6003
G0 Z1.2
G1 Z-0.2
G1 X30.4367 Y77.0923
G1 X30.7753 Y77.0077
G1 X30.987
G1 X31.3257 Y77.0923
G1 X31.8337 Y77.6003
G1 X31.9183 Y77.939
G1 Y78.1507
G1 X31.8337 Y78.4893
G1 X31.3257 Y78.9973
G1 X30.987 Y79.082
G1 X30.6907
G1 X30.4367 Y78.9973
G1 X29.9287 Y78.4893
G1 X29.844 Y78.1507
G1 Y77.939
G1 X29.9287 Y77.6003
G0 Z3.0
G0 X26.8383 Y77.939
G0 Z1.2
G1 Z-0.2
G1 Y78.1507
G1 X26.7537 Y78.4893
G1 X26.2457 Y78.9973
G1 X25.907 Y79.082
G1 X25.5683
G1 X14.1383 Y90.5543
G1 Y90.8507
G1 X14.0537 Y91.1893
G1 X13.5457 Y91.6973
G1 X13.207 Y91.782
G1 X12.9107
G1 X12.6567 Y91.6973
G1 X12.1487 Y91.1893
G1 X12.064 Y90.8507
G1 Y90.639
G1 X12.1487 Y90.3003
G1 X12.6567 Y89.7923
G1 X12.9953 Y89.7077
G1 X13.334
G1 X24.764 Y78.2353
G1 Y77.939
G1 X24.8487 Y77.6003
G1 X25.3567 Y77.0923
G1 X25.6953 Y77.0077
G1 X25.907
G1 X26.2457 Y77.0923
G1 X26.7537 Y77.6003
G1 X26.8383 Y77.939
G0 Z3.0
G0 X26.2457 Y76.4573
G0 Z1.2
G1 Z-0.2
G1 X25.907 Y76.542
G1 X25.5683
G1 X14.1383 Y88.0143
G1 Y88.3107
G1 X14.0537 Y88.6493
G1 X13.5457 Y89.1573
G1 X13.207 Y89.242
G1 X12.9107
G1 X12.6567 Y89.1573
G1 X12.1487 Y88.6493
G1 X12.064 Y88.3107
G1 Y88.099
G1 X12.1487 Y87.7603
G1 X12.6567 Y87.2523
G1 X12.9953 Y87.1677
G1 X13.334
G1 X24.764 Y75.6953
G1 Y75.399
G1 X24.8487 Y75.0603
G1 X25.3567 Y74.5523
G1 X25.6953 Y74.4677
G1 X25.907
G1 X26.2457 Y74.5523
G1 X26.7537 Y75.0603
G1 X26.8383 Y75.399
G1 Y75.6107
G1 X26.7537 Y75.9493
G1 X26.2457 Y76.4573
G0 Z3.0
G0 X24.6781 Y74.8955
G0 Z1.2
G1 Z-0.2
G1 X14.1383 Y85.4743
G1 Y85.7707
G1 X14.0537 Y86.1093
G1 X13.5457 Y86.6173
G1 X13.207 Y86.702
G1 X12.9107
G1 X12.6567 Y86.6173
G1 X12.1487 Y86.1093
G1 X12.064 Y85.7707
G1 Y85.559
G1 X12.1487 Y85.2203
G1 X12.6567 Y84.7123
G1 X12.9953 Y84.6277
G1 X13.334
G1 X24.764 Y73.1553
G1 Y72.859
G1 X24.8487 Y72.5203
G1 X25.3567 Y72.0123
G1 X25.6953 Y71.9277
G1 X25.907
G1 X26.2457 Y72.0123
G1 X26.7537 Y72.5203
G1 X26.8383 Y72.859
G1 Y73.0707
G1 X26.7537 Y73.4093
G1 X26.2457 Y73.9173
G1 X25.907 Y74.002
G1 X25.5683
G1 X24.6781 Y74.8955
G0 Z3.0
G0 X23.4081 Y73.6302
G0 Z1.2
G1 Z-0.2
G1 X14.1383 Y82.9343
G1 Y83.2307
G1 X14.0537 Y83.5693
G1 X13.5457 Y84.0773
G1 X13.207 Y84.162
G1 X12.9107
G1 X12.6567 Y84.0773
G1 X12.1487 Y83.5693
G1 X12.064 Y83.2307
G1 Y83.019
G1 X12.1487 Y82.6803
G1 X12.6567 Y82.1723
G1 X12.9953 Y82.0877
G1 X13.334
G1 X24.764 Y70.6153
G1 Y70.319
G1 X24.8487 Y69.9803
G1 X25.3567 Y69.4723
G1 X25.6953 Y69.3877
G1 X25.907
G1 X26.2457 Y69.4723
G1 X26.7537 Y69.9803
G1 X26.8383 Y70.319
G1 Y70.5307
G1 X26.7537 Y70.8693
G1 X26.2457 Y71.3773
G1 X25.907 Y71.462
G1 X25.5683
G1 X23.4081 Y73.6302
G0 Z3.0
G0 X22.1381 Y72.3649
G0 Z1.2
G1 Z-0.2
G1 X14.1383 Y80.3943
G1 Y80.6907
G1 X14.0537 Y81.0293
G1 X13.5457 Y81.5373
G1 X13.207 Y81.622
G1 X12.9107
G1 X12.6567 Y81.5373
G1 X12.1487 Y81.0293
G1 X12.064 Y80.6907
G1 Y80.479
G1 X12.1487 Y80.1403
G1 X12.6567 Y79.6323
G1 X12.9953 Y79.5477
G1 X13.334
G1 X24.764 Y68.0753
G1 Y67.779
G1 X24.8487 Y67.4403
G1 X25.3567 Y66.9323
G1 X25.6953 Y66.8477
G1 X25.907
G1 X26.2457 Y66.9323
G1 X26.7537 Y67.4403
G1 X26.8383 Y67.779
G1 Y67.9907
G1 X26.7537 Y68.3293
G1 X26.2457 Y68.8373
G1 X25.907 Y68.922
G1 X25.5683
G1 X22.1381 Y72.3649
G0 Z3.0
G0 X20.8681 Y71.0996
G0 Z1.2
G1 Z-0.2
G1 X14.1383 Y77.8543
G1 Y78.1507
G1 X14.0537 Y78.4893
G1 X13.5457 Y78.9973
G1 X13.207 Y79.082
G1 X12.9107
G1 X12.6567 Y78.9973
G1 X12.1487 Y78.4893
G1 X12.064 Y78.1507
G1 Y77.939
G1 X12.1487 Y77.6003
G1 X12.6567 Y77.0923
G1 X12.9953 Y77.0077
G1 X13.334
G1 X24.764 Y65.5353
G1 Y65.239
G1 X24.8487 Y64.9003
G1 X25.3567 Y64.3923
G1 X25.6953 Y64.3077
G1 X25.907
G1 X26.2457 Y64.3923
G1 X26.7537 Y64.9003
G1 X26.8383 Y65.239
G1 Y65.4507
G1 X26.7537 Y65.7893
G1 X26.2457 Y66.2973
G1 X25.907 Y66.382
G1 X25.5683
G1 X20.8681 Y71.0996
G0 Z3.0
G0 X19.5981 Y69.8343
G0 Z1.2
G1 Z-0.2
G1 X14.1383 Y75.3143
G1 Y75.6107
G1 X14.0537 Y75.9493
G1 X13.5457 Y76.4573
G1 X13.207 Y76.542
G1 X12.9107
G1 X12.6567 Y76.4573
G1 X12.1487 Y75.9493
G1 X12.064 Y75.6107
G1 Y75.399
G1 X12.1487 Y75.0603
G1 X12.6567 Y74.5523
G1 X12.9953 Y74.4677
G1 X13.334
G1 X24.764 Y62.9953
G1 Y62.699
G1 X24.8487 Y62.3603
G1 X25.3567 Y61.8523
G1 X25.6953 Y61.7677
G1 X25.907
G1 X26.2457 Y61.8523
G1 X26.7537 Y62.3603
G1 X26.8383 Y62.699
G1 Y62.9107
G1 X26.7537 Y63.2493
G1 X26.2457 Y63.7573
G1 X25.907 Y63.842
G1 X25.5683
G1 X19.5981 Y69.8343
G0 Z3.0
G0 X18.3281 Y68.569
G0 Z1.2
G1 Z-0.2
G1 X14.1383 Y72.7743
G1 Y73.0707
G1 X14.0537 Y73.4093
G1 X13.5457 Y73.9173
G1 X13.207 Y74.002
G1 X12.9107
G1 X12.6567 Y73.9173
G1 X12.1487 Y73.4093
G1 X12.064 Y73.0707
G1 Y72.859
G1 X12.1487 Y72.5203
G1 X12.6567 Y72.0123
G1 X12.9953 Y71.9277
G1 X13.334
G1 X24.764 Y60.4553
G1 Y60.159
G1 X24.8487 Y59.8203
G1 X25.3567 Y59.3123
G1 X25.6953 Y59.2277
G1 X25.907
G1 X26.2457 Y59.3123
G1 X26.7537 Y59.8203
G1 X26.8383 Y60.159
G1 Y60.3707
G1 X26.7537 Y60.7093
G1 X26.2457 Y61.2173
G1 X25.907 Y61.302
G1 X25.5683
G1 X18.3281 Y68.569
G0 Z3.0
G0 X11.5137 Y72.5203
G0 Z1.2
G1 Z-0.2
G1 X11.5983 Y72.859
G1 Y73.0707
G1 X11.5137 Y73.4093
G1 X11.0057 Y73.9173
G1 X10.667 Y74.002
G1 X10.3707
G1 X10.1167 Y73.9173
G1 X9.6087 Y73.4093
G1 X9.524 Y73.0707
G1 Y72.859
G1 X9.6087 Y72.5203
G1 X10.1167 Y72.0123
G1 X10.4553 Y71.9277
G1 X10.667
G1 X11.0057 Y72.0123
G1 X11.5137 Y72.5203
G0 Z3.0
G0 X11.0057 Y74.5523
G0 Z1.2
G1 Z-0.2
G1 X11.5137 Y75.0603
G1 X11.5983 Y75.399
G1 Y75.6107
G1 X11.5137 Y75.9493
G1 X11.0057 Y76.4573
G1 X10.667 Y76.542
G1 X10.3707
G1 X10.1167 Y76.4573
G1 X9.6087 Y75.9493
G1 X9.524 Y75.6107
G1 Y75.399
G1 X9.6087 Y75.0603
G1 X10.1167 Y74.5523
G1 X10.4553 Y74.4677
G1 X10.667
G1 X11.0057 Y74.5523
G0 Z3.0
G0 X10.667 Y77.0077
G0 Z1.2
G1 Z-0.2
G1 X11.0057 Y77.0923
G1 X11.5137 Y77.6003
G1 X11.5983 Y77.939
G1 Y78.1507
G1 X11.5137 Y78.4893
G1 X11.0057 Y78.9973
G1 X10.667 Y79.082
G1 X10.3707
G1 X10.1167 Y78.9973
G1 X9.6087 Y78.4893
G1 X9.524 Y78.1507
G1 Y77.939
G1 X9.6087 Y77.6003
G1 X10.1167 Y77.0923
G1 X10.4553 Y77.0077
G1 X10.667
G0 Z3.0
G0 Y79.5477
G0 Z1.2
G1 Z-0.2
G1 X11.0057 Y79.6323
G1 X11.5137 Y80.1403
G1 X11.5983 Y80.479
G1 Y80.6907
G1 X11.5137 Y81.0293
G1 X11.0057 Y81.5373
G1 X10.667 Y81.622
G1 X10.3707
G1 X10.1167 Y81.5373
G1 X9.6087 Y81.0293
G1 X9.524 Y80.6907
G1 Y80.479
G1 X9.6087 Y80.1403
G1 X10.1167 Y79.6323
G1 X10.4553 Y79.5477
G1 X10.667
G0 Z3.0
G0 Y82.0877
G0 Z1.2
G1 Z-0.2
G1 X11.0057 Y82.1723
G1 X11.5137 Y82.6803
G1 X11.5983 Y83.019
G1 Y83.2307
G1 X11.5137 Y83.5693
G1 X11.0057 Y84.0773
G1 X10.667 Y84.162
G1 X10.3707
G1 X10.1167 Y84.0773
G1 X9.6087 Y83.5693
G1 X9.524 Y83.2307
G1 Y83.019
G1 X9.6087 Y82.6803
G1 X10.1167 Y82.1723
G1 X10.4553 Y82.0877
G1 X10.667
G0 Z3.0
G0 Y84.6277
G0 Z1.2
G1 Z-0.2
G1 X11.0057 Y84.7123
G1 X11.5137 Y85.2203
G1 X11.5983 Y85.559
G1 Y85.7707
G1 X11.5137 Y86.1093
G1 X11.0057 Y86.6173
G1 X10.667 Y86.702
G1 X10.3707
G1 X10.1167 Y86.6173
G1 X9.6087 Y86.1093
G1 X9.524 Y85.7707
G1 Y85.559
G1 X9.6087 Y85.2203
G1 X10.1167 Y84.7123
G1 X10.4553 Y84.6277
G1 X10.667
G0 Z3.0
G0 Y87.1677
G0 Z1.2
G1 Z-0.2
G1 X11.0057 Y87.2523
G1 X11.5137 Y87.7603
G1 X11.5983 Y88.099
G1 Y88.3107
G1 X11.5137 Y88.6493
G1 X11.0057 Y89.1573
G1 X10.667 Y89.242
G1 X10.3707
G1 X10.1167 Y89.1573
G1 X9.6087 Y88.6493
G1 X9.524 Y88.3107
G1 Y88.099
G1 X9.6087 Y87.7603
G1 X10.1167 Y87.2523
G1 X10.4553 Y87.1677
G1 X10.667
G0 Z3.0
G0 Y89.6653
G0 Z1.2
G1 Z-0.2
G1 X11.6407
G1 Y91.8243
G1 X9.4817
G1 Y89.6653
G1 X10.667
G0 Z3.0
G0 X10.8977 Y94.9316
G0 Z1.2
G1 Z-0.2
G2 X10.5311 Y94.9797 I0.0935 J2.1337
G2 X10.0889 Y95.1816 I0.2329 J1.0953
G2 X9.8173 Y95.5176 I0.6344 J0.7906
G2 X9.6846 Y95.9287 I1.3087 J0.6494
G1 X10.2061 Y96.0107
G3 X10.2821 Y95.7475 I0.8875 J0.1137
G3 X10.4492 Y95.5303 I0.5803 J0.2735
G3 X10.716 Y95.398 I0.4328 J0.5376
G3 X11.0117 Y95.3633 I0.2825 J1.1298
G3 X11.2935 Y95.3913 I0.0146 J1.285
G3 X11.5508 Y95.5098 I-0.1193 J0.5975
G3 X11.6786 Y95.6639 I-0.3378 J0.4102
G3 X11.7266 Y95.8584 I-0.3612 J0.1923
G3 X11.5713 Y96.1396 I-0.3203 J0.0066
G3 X11.4418 Y96.1988 I-0.363 J-0.6229
G3 X11.0322 Y96.3184 I-1.469 J-4.2696
G2 X10.6246 Y96.4291 I2.5359 J10.1431
G2 X10.2266 Y96.5703 I0.8603 J3.0566
G2 X9.8867 Y96.8662 I0.3371 J0.7303
G2 X9.7725 Y97.2852 I0.6848 J0.4117
G2 X9.8662 Y97.6689 I0.803 J0.0072
G2 X10.127 Y97.9648 I0.7614 J-0.4082
G2 X10.4609 Y98.1172 I0.6107 J-0.896
G2 X10.918 Y98.1816 I0.4463 J-1.5132
G2 X11.5596 Y98.0762 I0.0339 J-1.7992
G2 X11.7855 Y97.9624 I-0.3897 J-1.0547
G2 X11.9697 Y97.7891 I-0.3906 J-0.5998
G2 X12.0885 Y97.5594 I-0.7201 J-0.518
G2 X12.1514 Y97.3086 I-1.3779 J-0.4789
G1 X11.6357 Y97.2383
G3 X11.4307 Y97.6133 I-0.5592 J-0.0622
G3 X11.2047 Y97.7207 I-0.3549 J-0.4552
G3 X10.9561 Y97.748 I-0.2368 J-1.0109
G3 X10.6878 Y97.7269 I-0.0154 J-1.5207
G3 X10.4375 Y97.6279 I0.084 J-0.5782
G3 X10.3259 Y97.5061 I0.2631 J-0.3531
G3 X10.2822 Y97.3467 I0.2643 J-0.1581
G3 X10.3467 Y97.1621 I0.2911 J-0.0019
G3 X10.5488 Y97.0215 I0.3613 J0.3037
G3 X11.0146 Y96.8867 I3.1342 J9.9579
G2 X11.4081 Y96.7756 I-3.2479 J-12.2559
G2 X11.7939 Y96.6406 I-1.0627 J-3.6557
G2 X12.1426 Y96.3652 I-0.2905 J-0.7263
G2 X12.2687 Y95.9632 I-0.6506 J-0.4249
G2 X12.2686 Y95.9141 I-0.7767 J-0.023
G2 X12.1133 Y95.416 I-0.8869 J0.0033
G2 X11.6709 Y95.0557 I-0.8264 J0.563
G2 X11.0146 Y94.9297 I-0.6302 J1.5104
G2 X10.8977 Y94.9316 I-0.0235 J2.1356
G0 Z3.0
G0 X27.304 Y95.719
G0 Z1.2
G1 Z-0.2
G1 X27.3887 Y95.3803
G1 X27.8967 Y94.8723
G1 X28.2353 Y94.7877
G1 X28.447
G1 X28.7857 Y94.8723
G1 X29.2937 Y95.3803
G1 X29.3783 Y95.719
G1 Y95.9307
G1 X29.2937 Y96.2693
G1 X28.7857 Y96.7773
G1 X28.447 Y96.862
G1 X28.1507
G1 X27.8967 Y96.7773
G1 X27.3887 Y96.2693
G1 X27.304 Y95.9307
G1 Y95.719
G0 Z3.0
G0 X27.8967 Y94.2373
G0 Z1.2
G1 Z-0.2
G1 X27.3887 Y93.7293
G1 X27.304 Y93.3907
G1 Y93.179
G1 X27.3887 Y92.8403
G1 X27.8967 Y92.3323
G1 X28.2353 Y92.2477
G1 X28.447
G1 X28.7857 Y92.3323
G1 X29.2937 Y92.8403
G1 X29.3783 Y93.179
G1 Y93.3907
G1 X29.2937 Y93.7293
G1 X28.7857 Y94.2373
G1 X28.447 Y94.322
G1 X28.1507
G1 X27.8967 Y94.2373
G0 Z3.0
G0 X29.9287 Y93.7293
G0 Z1.2
G1 Z-0.2
G1 X29.844 Y93.3907
G1 Y93.179
G1 X29.9287 Y92.8403
G1 X30.4367 Y92.3323
G1 X30.7753 Y92.2477
G1 X30.987
G1 X31.3257 Y92.3323
G1 X31.8337 Y92.8403
G1 X31.9183 Y93.179
G1 Y93.3907
G1 X31.8337 Y93.7293
G1 X31.3257 Y94.2373
G1 X30.987 Y94.322
G1 X30.6907
G1 X30.4367 Y94.2373
G1 X29.9287 Y93.7293
G0 Z3.0
G0 X30.4367 Y94.8723
G0 Z1.2
G1 Z-0.2
G1 X30.7753 Y94.7877
G1 X30.987
G1 X31.3257 Y94.8723
G1 X31.8337 Y95.3803
G1 X31.9183 Y95.719
G1 Y95.9307
G1 X31.8337 Y96.2693
G1 X31.3257 Y96.7773
G1 X30.987 Y96.862
G1 X30.6907
G1 X30.4367 Y96.7773
G1 X29.9287 Y96.2693
G1 X29.844 Y95.9307
G1 Y95.719
G1 X29.9287 Y95.3803
G1 X30.4367 Y94.8723
G0 Z3.0
G0 X30.7753 Y97.3277
G0 Z1.2
G1 Z-0.2
G1 X30.987
G1 X31.3257 Y97.4123
G1 X31.8337 Y97.9203
G1 X31.9183 Y98.259
G1 Y98.4707
G1 X31.8337 Y98.8093
G1 X31.3257 Y99.3173
G1 X30.987 Y99.402
G1 X30.6907
G1 X30.4367 Y99.3173
G1 X29.9287 Y98.8093
G1 X29.844 Y98.4707
G1 Y98.259
G1 X29.9287 Y97.9203
G1 X30.4367 Y97.4123
G1 X30.7753 Y97.3277
G0 Z3.0
G0 X29.2937 Y97.9203
G0 Z1.2
G1 Z-0.2
G1 X29.3783 Y98.259
G1 Y98.4707
G1 X29.2937 Y98.8093
G1 X28.7857 Y99.3173
G1 X28.447 Y99.402
G1 X28.1507
G1 X27.8967 Y99.3173
G1 X27.3887 Y98.8093
G1 X27.304 Y98.4707
G1 Y98.259
G1 X27.3887 Y97.9203
G1 X27.8967 Y97.4123
G1 X28.2353 Y97.3277
G1 X28.447
G1 X28.7857 Y97.4123
G1 X29.2937 Y97.9203
G0 Z3.0
G0 X28.7857 Y99.9523
G0 Z1.2
G1 Z-0.2
G1 X29.2937 Y100.4603
G1 X29.3783 Y100.799
G1 Y101.0107
G1 X29.2937 Y101.3493
G1 X28.7857 Y101.8573
G1 X28.447 Y101.942
G1 X28.1507
G1 X27.8967 Y101.8573
G1 X27.3887 Y101.3493
G1 X27.304 Y101.0107
G1 Y100.799
G1 X27.3887 Y100.4603
G1 X27.8967 Y99.9523
G1 X28.2353 Y99.8677
G1 X28.447
G1 X28.7857 Y99.9523
G0 Z3.0
G0 X29.9287 Y100.4603
G0 Z1.2
G1 Z-0.2
G1 X30.4367 Y99.9523
G1 X30.7753 Y99.8677
G1 X30.987
G1 X31.3257 Y99.9523
G1 X31.8337 Y100.4603
G1 X31.9183 Y100.799
G1 Y101.0107
G1 X31.8337 Y101.3493
G1 X31.3257 Y101.8573
G1 X30.987 Y101.942
G1 X30.6907
G1 X30.4367 Y101.8573
G1 X29.9287 Y101.3493
G1 X29.844 Y101.0107
G1 Y100.799
G1 X29.9287 Y100.4603
G0 Z3.0
G0 X29.4207 Y102.3653
G0 Z1.2
G1 Z-0.2
G1 Y104.5243
G1 X27.2617
G1 Y102.3653
G1 X29.4207
G0 Z3.0
G0 X29.9922 Y102.9368
G0 Z1.2
G1 Z-0.2
G1 X30.4367 Y102.4923
G1 X30.7753 Y102.4077
G1 X30.987
G1 X31.3257 Y102.4923
G1 X31.8337 Y103.0003
G1 X31.9183 Y103.339
G1 Y103.5507
G1 X31.8337 Y103.8893
G1 X31.3257 Y104.3973
G1 X30.987 Y104.482
G1 X30.6907
G1 X30.4367 Y104.3973
G1 X29.9287 Y103.8893
G1 X29.844 Y103.5507
G1 Y103.339
G1 X29.9287 Y103.0003
G1 X29.9922 Y102.9368
G0 Z3.0
G0 X35.9117 Y99.0909
G0 Z1.2
G1 Z-0.2
G2 X36.2295 Y99.3936 I0.7947 J-0.5163
G2 X36.877 Y99.5723 I0.6356 J-1.0407
G2 X37.2916 Y99.5008 I0.0118 J-1.1696
G2 X37.6475 Y99.2764 I-0.3752 J-0.9894
G2 X37.9234 Y98.8528 I-0.8134 J-0.8315
G2 X38.0459 Y98.3623 I-1.9852 J-0.7563
G2 X38.2598 Y98.7051 I1.3793 J-0.6225
G2 X38.8311 Y99.1768 I2.1598 J-2.0341
G1 X40.0 Y99.9238
G1 Y99.209
G1 X39.1064 Y98.6406
G3 X38.5146 Y98.2305 I4.5178 J-7.1515
G3 X38.3598 Y98.0966 I1.2216 J-1.5688
G3 X38.2275 Y97.9404 I0.6193 J-0.6587
G3 X38.1133 Y97.6826 I0.6969 J-0.4629
G3 X38.0928 Y97.3662 I1.8144 J-0.2764
G1 Y96.707
G1 X40.0
G1 Y96.1387
G1 X35.7051
G1 Y98.043
G2 X35.7266 Y98.4845 I4.0943 J0.0219
G2 X35.8223 Y98.916 I1.7323 J-0.1578
G2 X35.9117 Y99.0909 I0.8841 J-0.3414
G0 Z3.0
G0 X36.3591 Y98.7427
G0 Z1.2
G1 Z-0.2
G3 X36.2166 Y98.4323 I0.5883 J-0.4579
G3 X36.1797 Y98.0664 I1.5972 J-0.3459
G1 Y96.707
G1 X37.6006
G1 Y97.9287
G3 X37.5855 Y98.2366 I-2.8626 J0.0139
G3 X37.5215 Y98.5381 I-1.3347 J-0.1258
G3 X37.2637 Y98.8721 I-0.6238 J-0.215
G3 X36.877 Y98.9863 I-0.3845 J-0.5902
G3 X36.376 Y98.7637 I-0.0165 J-0.638
G3 X36.3591 Y98.7427 I0.5713 J-0.4788
G0 Z3.0
G0 X35.8606 Y95.8447
G0 Z1.2
G1 Z-0.2
G1 X36.1445 Y95.7959
G3 X36.1152 Y95.4854 I1.7439 J-0.3212
G3 X36.134 Y95.3056 I0.7719 J-0.0102
G3 X36.2178 Y95.1455 I0.3206 J0.0658
G3 X36.4011 Y95.0626 I0.2359 J0.2776
G3 X36.6016 Y95.0459 I0.1882 J1.0474
G1 X36.8887
G1 Y95.6523
G1 X37.2988
G1 Y95.0459
G1 X40.0
G1 Y94.5215
G1 X37.2988
G1 Y94.0557
G1 X36.8887
G1 Y94.5215
G1 X36.5576
G2 X36.3226 Y94.5313 I-0.0124 J2.5261
G2 X36.0918 Y94.5771 I0.0724 J0.9693
G2 X35.7607 Y94.8438 I0.2325 J0.6275
G2 X35.6576 Y95.104 I0.6218 J0.3969
G2 X35.6318 Y95.3828 I1.3572 J0.2662
G2 X35.6846 Y95.875 I2.5951 J-0.0294
G1 X35.8606 Y95.8447
G0 Z3.0
G0 X31.5194 Y91.5036
G0 Z1.2
G1 Z-0.2
G1 X31.3257 Y91.6973
G1 X30.987 Y91.782
G1 X30.6907
G1 X30.4367 Y91.6973
G1 X29.9287 Y91.1893
G1 X29.844 Y90.8507
G1 Y90.639
G1 X29.9287 Y90.3003
G1 X30.4367 Y89.7923
G1 X30.7753 Y89.7077
G1 X30.987
G1 X31.3257 Y89.7923
G1 X31.8337 Y90.3003
G1 X31.9183 Y90.639
G1 Y90.8507
G1 X31.8337 Y91.1893
G1 X31.5194 Y91.5036
G0 Z3.0
G0 X29.3507 Y90.9614
G0 Z1.2
G1 Z-0.2
G1 X29.2937 Y91.1893
G1 X28.7857 Y91.6973
G1 X28.447 Y91.782
G1 X28.1507
G1 X27.8967 Y91.6973
G1 X27.3887 Y91.1893
G1 X27.304 Y90.8507
G1 Y90.639
G1 X27.3887 Y90.3003
G1 X27.8967 Y89.7923
G1 X28.2353 Y89.7077
G1 X28.447
G1 X28.7857 Y89.7923
G1 X29.2937 Y90.3003
G1 X29.3783 Y90.639
G1 Y90.8507
G1 X29.3507 Y90.9614
G0 Z3.0
G0 X28.7857 Y89.1573
G0 Z1.2
G1 Z-0.2
G1 X28.447 Y89.242
G1 X28.1507
G1 X27.8967 Y89.1573
G1 X27.3887 Y88.6493
G1 X27.304 Y88.3107
G1 Y88.099
G1 X27.3887 Y87.7603
G1 X27.8967 Y87.2523
G1 X28.2353 Y87.1677
G1 X28.447
G1 X28.7857 Y87.2523
G1 X29.2937 Y87.7603
G1 X29.3783 Y88.099
G1 Y88.3107
G1 X29.2937 Y88.6493
G1 X28.7857 Y89.1573
G0 Z3.0
G0 X29.9287 Y88.6493
G0 Z1.2
G1 Z-0.2
G1 X29.844 Y88.3107
G1 Y88.099
G1 X29.9287 Y87.7603
G1 X30.4367 Y87.2523
G1 X30.7753 Y87.1677
G1 X30.987
G1 X31.3257 Y87.2523
G1 X31.8337 Y87.7603
G1 X31.9183 Y88.099
G1 Y88.3107
G1 X31.8337 Y88.6493
G1 X31.3257 Y89.1573
G1 X30.987 Y89.242
G1 X30.6907
G1 X30.4367 Y89.1573
G1 X29.9287 Y88.6493
G0 Z3.0
G0 X30.5891 Y86.6681
G0 Z1.2
G1 Z-0.2
G1 X30.4367 Y86.6173
G1 X29.9287 Y86.1093
G1 X29.844 Y85.7707
G1 Y85.559
G1 X29.9287 Y85.2203
G1 X30.4367 Y84.7123
G1 X30.7753 Y84.6277
G1 X30.987
G1 X31.3257 Y84.7123
G1 X31.8337 Y85.2203
G1 X31.9183 Y85.559
G1 Y85.7707
G1 X31.8337 Y86.1093
G1 X31.3257 Y86.6173
G1 X30.987 Y86.702
G1 X30.6907
G1 X30.5891 Y86.6681
G0 Z3.0
G0 X29.2937 Y86.1093
G0 Z1.2
G1 Z-0.2
G1 X28.7857 Y86.6173
G1 X28.447 Y86.702
G1 X28.1507
G1 X27.8967 Y86.6173
G1 X27.3887 Y86.1093
G1 X27.304 Y85.7707
G1 Y85.559
G1 X27.3887 Y85.2203
G1 X27.8967 Y84.7123
G1 X28.2353 Y84.6277
G1 X28.447
G1 X28.7857 Y84.7123
G1 X29.2937 Y85.2203
G1 X29.3783 Y85.559
G1 Y85.7707
G1 X29.2937 Y86.1093
G0 Z3.0
G0 X39.4932 Y68.2881
G0 Z1.2
G1 Z-0.2
G1 X40.0
G1 Y65.6045
G1 X35.7051
G1 Y66.1729
G1 X39.4932
G1 Y68.2881
G0 Z3.0
G0 Y64.5439
G0 Z1.2
G1 Z-0.2
G1 X40.0
G1 Y64.0195
G1 X37.2988
G1 Y63.5537
G1 X36.8887
G1 Y64.0195
G1 X36.5576
G2 X36.3226 Y64.0294 I-0.0113 J2.5261
G2 X36.0918 Y64.0752 I0.0724 J0.9693
G2 X35.7607 Y64.3418 I0.2324 J0.6276
G2 X35.6576 Y64.6021 I0.6218 J0.3969
G2 X35.6318 Y64.8809 I1.3572 J0.2662
G2 X35.6846 Y65.373 I2.5951 J-0.0296
G1 X36.1445 Y65.2939
G3 X36.1152 Y64.9834 I1.7439 J-0.3212
G3 X36.134 Y64.8037 I0.7719 J-0.0101
G3 X36.2178 Y64.6436 I0.3206 J0.0658
G3 X36.4011 Y64.5607 I0.2359 J0.2776
G3 X36.6016 Y64.5439 I0.1887 J1.0474
G1 X36.8887
G1 Y65.1504
G1 X37.2988
G1 Y64.5439
G1 X39.4932
G0 Z3.0
G0 X40.0 Y49.9238
G0 Z1.2
G1 Z-0.2
G1 Y49.209
G1 X39.1064 Y48.6406
G3 X38.5146 Y48.2305 I4.5178 J-7.1515
G3 X38.3598 Y48.0966 I1.2216 J-1.5688
G3 X38.2275 Y47.9404 I0.6193 J-0.6587
G3 X38.1133 Y47.6826 I0.6969 J-0.4629
G3 X38.0928 Y47.3662 I1.8144 J-0.2764
G1 Y46.707
G1 X40.0
G1 Y46.1387
G1 X35.7051
G1 Y48.043
G2 X35.7266 Y48.4845 I4.0943 J0.0219
G2 X35.8223 Y48.916 I1.7323 J-0.1578
G2 X36.2295 Y49.3936 I0.8841 J-0.3414
G2 X36.7808 Y49.5694 I0.6355 J-1.0407
G2 X36.877 Y49.5723 I0.0848 J-1.2165
G2 X37.2916 Y49.5008 I0.0118 J-1.1696
G2 X37.6475 Y49.2764 I-0.3752 J-0.9894
G2 X37.9234 Y48.8528 I-0.8134 J-0.8315
G2 X38.0459 Y48.3623 I-1.9852 J-0.7563
G2 X38.2598 Y48.7051 I1.3793 J-0.6225
G2 X38.8311 Y49.1768 I2.1598 J-2.0341
G1 X40.0 Y49.9238
G0 Z3.0
G0 X37.4841 Y48.6257
G0 Z1.2
G1 Z-0.2
G3 X37.2637 Y48.8721 I-0.5864 J-0.3025
G3 X36.877 Y48.9863 I-0.3845 J-0.5902
G3 X36.8189 Y48.9852 I-0.017 J-0.638
G3 X36.376 Y48.7637 I0.0416 J-0.6368
G3 X36.2166 Y48.4323 I0.5713 J-0.4788
G3 X36.1797 Y48.0664 I1.5972 J-0.3459
G1 Y46.707
G1 X37.6006
G1 Y47.9287
G3 X37.5855 Y48.2366 I-2.8626 J0.0139
G3 X37.5215 Y48.5381 I-1.3347 J-0.1258
G3 X37.4841 Y48.6257 I-0.6238 J-0.215
G0 Z3.0
G0 X37.2988 Y45.6523
G0 Z1.2
G1 Z-0.2
G1 Y45.0459
G1 X40.0
G1 Y44.5215
G1 X37.2988
G1 Y44.0557
G1 X36.8887
G1 Y44.5215
G1 X36.5576
G2 X36.3226 Y44.5313 I-0.0124 J2.5261
G2 X36.0918 Y44.5771 I0.0724 J0.9693
G2 X35.7607 Y44.8438 I0.2325 J0.6275
G2 X35.6576 Y45.104 I0.6218 J0.3969
G2 X35.6318 Y45.3828 I1.3572 J0.2662
G2 X35.6846 Y45.875 I2.5951 J-0.0294
G1 X36.1445 Y45.7959
G3 X36.1152 Y45.4854 I1.7439 J-0.3212
G3 X36.134 Y45.3056 I0.7719 J-0.0102
G3 X36.2178 Y45.1455 I0.3206 J0.0658
G3 X36.4011 Y45.0626 I0.2359 J0.2776
G3 X36.6016 Y45.0459 I0.1882 J1.0474
G1 X36.8887
G1 Y45.6523
G1 X37.2988
G0 Z3.0
G0 X31.8337 Y41.1893
G0 Z1.2
G1 Z-0.2
G1 X31.3257 Y41.6973
G1 X30.987 Y41.782
G1 X30.6907
G1 X30.4367 Y41.6973
G1 X29.9287 Y41.1893
G1 X29.844 Y40.8507
G1 Y40.639
G1 X29.9287 Y40.3003
G1 X30.4367 Y39.7923
G1 X30.7753 Y39.7077
G1 X30.987
G1 X31.3257 Y39.7923
G1 X31.8337 Y40.3003
G1 X31.9183 Y40.639
G1 Y40.8507
G1 X31.8337 Y41.1893
G0 Z3.0
G0 X31.3257 Y39.1573
G0 Z1.2
G1 Z-0.2
G1 X30.987 Y39.242
G1 X30.6907
G1 X30.4367 Y39.1573
G1 X29.9287 Y38.6493
G1 X29.844 Y38.3107
G1 Y38.099
G1 X29.9287 Y37.7603
G1 X30.4367 Y37.2523
G1 X30.7753 Y37.1677
G1 X30.987
G1 X31.3257 Y37.2523
G1 X31.8337 Y37.7603
G1 X31.9183 Y38.099
G1 Y38.3107
G1 X31.8337 Y38.6493
G1 X31.3257 Y39.1573
G0 Z3.0
G0 X29.2937 Y38.6493
G0 Z1.2
G1 Z-0.2
G1 X28.7857 Y39.1573
G1 X28.447 Y39.242
G1 X28.1507
G1 X27.8967 Y39.1573
G1 X27.3887 Y38.6493
G1 X27.304 Y38.3107
G1 Y38.099
G1 X27.3887 Y37.7603
G1 X27.8967 Y37.2523
G1 X28.2353 Y37.1677
G1 X28.447
G1 X28.7857 Y37.2523
G1 X29.2937 Y37.7603
G1 X29.3783 Y38.099
G1 Y38.3107
G1 X29.2937 Y38.6493
G0 Z3.0
G0 X28.7857 Y39.7923
G0 Z1.2
G1 Z-0.2
G1 X29.2937 Y40.3003
G1 X29.3783 Y40.639
G1 Y40.8507
G1 X29.2937 Y41.1893
G1 X28.7857 Y41.6973
G1 X28.447 Y41.782
G1 X28.1507
G1 X27.8967 Y41.6973
G1 X27.3887 Y41.1893
G1 X27.304 Y40.8507
G1 Y40.639
G1 X27.3887 Y40.3003
G1 X27.8967 Y39.7923
G1 X28.2353 Y39.7077
G1 X28.447
G1 X28.7857 Y39.7923
G0 Z3.0
G0 X28.447 Y36.702
G0 Z1.2
G1 Z-0.2
G1 X28.1507
G1 X27.8967 Y36.6173
G1 X27.3887 Y36.1093
G1 X27.304 Y35.7707
G1 Y35.559
G1 X27.3887 Y35.2203
G1 X27.8967 Y34.7123
G1 X28.2353 Y34.6277
G1 X28.447
G1 X28.7857 Y34.7123
G1 X29.2937 Y35.2203
G1 X29.3783 Y35.559
G1 Y35.7707
G1 X29.2937 Y36.1093
G1 X28.7857 Y36.6173
G1 X28.447 Y36.702
G0 Z3.0
G0 X29.9287 Y36.1093
G0 Z1.2
G1 Z-0.2
G1 X29.844 Y35.7707
G1 Y35.559
G1 X29.9287 Y35.2203
G1 X30.4367 Y34.7123
G1 X30.7753 Y34.6277
G1 X30.987
G1 X31.3257 Y34.7123
G1 X31.8337 Y35.2203
G1 X31.9183 Y35.559
G1 Y35.7707
G1 X31.8337 Y36.1093
G1 X31.3257 Y36.6173
G1 X30.987 Y36.702
G1 X30.6907
G1 X30.4367 Y36.6173
G1 X29.9287 Y36.1093
G0 Z3.0
G0 X56.1167 Y77.0923
G0 Z1.2
G1 Z-0.2
G1 X56.4553 Y77.0077
G1 X56.667
G1 X57.0057 Y77.0923
G1 X57.5137 Y77.6003
G1 X57.5983 Y77.939
G1 Y78.1507
G1 X57.5137 Y78.4893
G1 X57.0057 Y78.9973
G1 X56.667 Y79.082
G1 X56.3707
G1 X56.1167 Y78.9973
G1 X55.6087 Y78.4893
G1 X55.524 Y78.1507
G1 Y77.939
G1 X55.6087 Y77.6003
G1 X56.1167 Y77.0923
G0 Z3.0
G0 X56.4553 Y79.5477
G0 Z1.2
G1 Z-0.2
G1 X56.667
G1 X57.0057 Y79.6323
G1 X57.5137 Y80.1403
G1 X57.5983 Y80.479
G1 Y80.6907
G1 X57.5137 Y81.0293
G1 X57.0057 Y81.5373
G1 X56.667 Y81.622
G1 X56.3707
G1 X56.1167 Y81.5373
G1 X55.6087 Y81.0293
G1 X55.524 Y80.6907
G1 Y80.479
G1 X55.6087 Y80.1403
G1 X56.1167 Y79.6323
G1 X56.4553 Y79.5477
G0 Z3.0
G0 Y82.0877
G0 Z1.2
G1 Z-0.2
G1 X56.667
G1 X57.0057 Y82.1723
G1 X57.5137 Y82.6803
G1 X57.5983 Y83.019
G1 Y83.2307
G1 X57.5137 Y83.5693
G1 X57.0057 Y84.0773
G1 X56.667 Y84.162
G1 X56.3707
G1 X56.1167 Y84.0773
G1 X55.6087 Y83.5693
G1 X55.524 Y83.2307
G1 Y83.019
G1 X55.6087 Y82.6803
G1 X56.1167 Y82.1723
G1 X56.4553 Y82.0877
G0 Z3.0
G0 Y84.6277
G0 Z1.2
G1 Z-0.2
G1 X56.667
G1 X57.0057 Y84.7123
G1 X57.5137 Y85.2203
G1 X57.5983 Y85.559
G1 Y85.7707
G1 X57.5137 Y86.1093
G1 X57.0057 Y86.6173
G1 X56.667 Y86.702
G1 X56.3707
G1 X56.1167 Y86.6173
G1 X55.6087 Y86.1093
G1 X55.524 Y85.7707
G1 Y85.559
G1 X55.6087 Y85.2203
G1 X56.1167 Y84.7123
G1 X56.4553 Y84.6277
G0 Z3.0
G0 Y87.1677
G0 Z1.2
G1 Z-0.2
G1 X56.667
G1 X57.0057 Y87.2523
G1 X57.5137 Y87.7603
G1 X57.5983 Y88.099
G1 Y88.3107
G1 X57.5137 Y88.6493
G1 X57.0057 Y89.1573
G1 X56.667 Y89.242
G1 X56.3707
G1 X56.1167 Y89.1573
G1 X55.6087 Y88.6493
G1 X55.524 Y88.3107
G1 Y88.099
G1 X55.6087 Y87.7603
G1 X56.1167 Y87.2523
G1 X56.4553 Y87.1677
G0 Z3.0
G0 Y89.6653
G0 Z1.2
G1 Z-0.2
G1 X57.6407
G1 Y91.8243
G1 X55.4817
G1 Y89.6653
G1 X56.4553
G0 Z3.0
G0 X56.8369 Y94.9351
G0 Z1.2
G1 Z-0.2
G2 X56.5311 Y94.9797 I0.1542 J2.1302
G2 X56.0889 Y95.1816 I0.2329 J1.0953
G2 X55.8173 Y95.5176 I0.6344 J0.7906
G2 X55.6846 Y95.9287 I1.3087 J0.6494
G1 X56.2061 Y96.0107
G3 X56.2821 Y95.7475 I0.8875 J0.1137
G3 X56.4492 Y95.5303 I0.5803 J0.2735
G3 X56.716 Y95.398 I0.4328 J0.5376
G3 X57.0117 Y95.3633 I0.2825 J1.1298
G3 X57.2935 Y95.3913 I0.0146 J1.285
G3 X57.5508 Y95.5098 I-0.1193 J0.5975
G3 X57.6786 Y95.6639 I-0.3378 J0.4102
G3 X57.7266 Y95.8584 I-0.3612 J0.1923
G3 X57.5713 Y96.1396 I-0.3203 J0.0066
G3 X57.4418 Y96.1988 I-0.363 J-0.6229
G3 X57.0322 Y96.3184 I-1.469 J-4.2696
G2 X56.6246 Y96.4291 I2.5359 J10.1431
G2 X56.2266 Y96.5703 I0.8603 J3.0566
G2 X55.8867 Y96.8662 I0.3371 J0.7303
G2 X55.7725 Y97.2852 I0.6848 J0.4117
G2 X55.8662 Y97.6689 I0.803 J0.0072
G2 X56.127 Y97.9648 I0.7614 J-0.4082
G2 X56.4609 Y98.1172 I0.6107 J-0.896
G2 X56.918 Y98.1816 I0.4463 J-1.5132
G2 X57.5596 Y98.0762 I0.0339 J-1.7992
G2 X57.7855 Y97.9624 I-0.3897 J-1.0547
G2 X57.9697 Y97.7891 I-0.3906 J-0.5998
G2 X58.0885 Y97.5594 I-0.7201 J-0.518
G2 X58.1514 Y97.3086 I-1.3779 J-0.4789
G1 X57.6357 Y97.2383
G3 X57.4307 Y97.6133 I-0.5592 J-0.0622
G3 X57.2047 Y97.7207 I-0.3549 J-0.4552
G3 X56.9561 Y97.748 I-0.2368 J-1.0109
G3 X56.6878 Y97.7269 I-0.0154 J-1.5207
G3 X56.4375 Y97.6279 I0.084 J-0.5782
G3 X56.3259 Y97.5061 I0.2631 J-0.3531
G3 X56.2822 Y97.3467 I0.2643 J-0.1581
G3 X56.3467 Y97.1621 I0.2911 J-0.0019
G3 X56.5488 Y97.0215 I0.3613 J0.3037
G3 X57.0146 Y96.8867 I3.1342 J9.9579
G2 X57.4081 Y96.7756 I-3.2479 J-12.2559
G2 X57.7939 Y96.6406 I-1.0627 J-3.6557
G2 X58.1426 Y96.3652 I-0.2905 J-0.7263
G2 X58.2686 Y95.9141 I-0.6506 J-0.4249
G2 X58.1133 Y95.416 I-0.8869 J0.0033
G2 X57.6709 Y95.0557 I-0.8264 J0.563
G2 X57.0146 Y94.9297 I-0.6302 J1.5104
G2 X56.8369 Y94.9351 I-0.0235 J2.1356
G0 Z3.0
G0 X73.304 Y95.719
G0 Z1.2
G1 Z-0.2
G1 X73.3887 Y95.3803
G1 X73.8967 Y94.8723
G1 X74.2353 Y94.7877
G1 X74.447
G1 X74.7857 Y94.8723
G1 X75.2937 Y95.3803
G1 X75.3783 Y95.719
G1 Y95.9307
G1 X75.2937 Y96.2693
G1 X74.7857 Y96.7773
G1 X74.447 Y96.862
G1 X74.1507
G1 X73.8967 Y96.7773
G1 X73.3887 Y96.2693
G1 X73.304 Y95.9307
G1 Y95.719
G0 Z3.0
G0 X73.8967 Y94.2373
G0 Z1.2
G1 Z-0.2
G1 X73.3887 Y93.7293
G1 X73.304 Y93.3907
G1 Y93.179
G1 X73.3887 Y92.8403
G1 X73.8967 Y92.3323
G1 X74.2353 Y92.2477
G1 X74.447
G1 X74.7857 Y92.3323
G1 X75.2937 Y92.8403
G1 X75.3783 Y93.179
G1 Y93.3907
G1 X75.2937 Y93.7293
G1 X74.7857 Y94.2373
G1 X74.447 Y94.322
G1 X74.1507
G1 X73.8967 Y94.2373
G0 Z3.0
G0 X75.9287 Y93.7293
G0 Z1.2
G1 Z-0.2
G1 X75.844 Y93.3907
G1 Y93.179
G1 X75.9287 Y92.8403
G1 X76.4367 Y92.3323
G1 X76.7753 Y92.2477
G1 X76.987
G1 X77.3257 Y92.3323
G1 X77.8337 Y92.8403
G1 X77.9183 Y93.179
G1 Y93.3907
G1 X77.8337 Y93.7293
G1 X77.3257 Y94.2373
G1 X76.987 Y94.322
G1 X76.6907
G1 X76.4367 Y94.2373
G1 X75.9287 Y93.7293
G0 Z3.0
G0 X76.4367 Y94.8723
G0 Z1.2
G1 Z-0.2
G1 X76.7753 Y94.7877
G1 X76.987
G1 X77.3257 Y94.8723
G1 X77.8337 Y95.3803
G1 X77.9183 Y95.719
G1 Y95.9307
G1 X77.8337 Y96.2693
G1 X77.3257 Y96.7773
G1 X76.987 Y96.862
G1 X76.6907
G1 X76.4367 Y96.7773
G1 X75.9287 Y96.2693
G1 X75.844 Y95.9307
G1 Y95.719
G1 X75.9287 Y95.3803
G1 X76.4367 Y94.8723
G0 Z3.0
G0 X76.7753 Y97.3277
G0 Z1.2
G1 Z-0.2
G1 X76.987
G1 X77.3257 Y97.4123
G1 X77.8337 Y97.9203
G1 X77.9183 Y98.259
G1 Y98.4707
G1 X77.8337 Y98.8093
G1 X77.3257 Y99.3173
G1 X76.987 Y99.402
G1 X76.6907
G1 X76.4367 Y99.3173
G1 X75.9287 Y98.8093
G1 X75.844 Y98.4707
G1 Y98.259
G1 X75.9287 Y97.9203
G1 X76.4367 Y97.4123
G1 X76.7753 Y97.3277
G0 Z3.0
G0 X75.2937 Y97.9203
G0 Z1.2
G1 Z-0.2
G1 X75.3783 Y98.259
G1 Y98.4707
G1 X75.2937 Y98.8093
G1 X74.7857 Y99.3173
G1 X74.447 Y99.402
G1 X74.1507
G1 X73.8967 Y99.3173
G1 X73.3887 Y98.8093
G1 X73.304 Y98.4707
G1 Y98.259
G1 X73.3887 Y97.9203
G1 X73.8967 Y97.4123
G1 X74.2353 Y97.3277
G1 X74.447
G1 X74.7857 Y97.4123
G1 X75.2937 Y97.9203
G0 Z3.0
G0 X74.7857 Y99.9523
G0 Z1.2
G1 Z-0.2
G1 X75.2937 Y100.4603
G1 X75.3783 Y100.799
G1 Y101.0107
G1 X75.2937 Y101.3493
G1 X74.7857 Y101.8573
G1 X74.447 Y101.942
G1 X74.1507
G1 X73.8967 Y101.8573
G1 X73.3887 Y101.3493
G1 X73.304 Y101.0107
G1 Y100.799
G1 X73.3887 Y100.4603
G1 X73.8967 Y99.9523
G1 X74.2353 Y99.8677
G1 X74.447
G1 X74.7857 Y99.9523
G0 Z3.0
G0 X75.9287 Y100.4603
G0 Z1.2
G1 Z-0.2
G1 X76.4367 Y99.9523
G1 X76.7753 Y99.8677
G1 X76.987
G1 X77.3257 Y99.9523
G1 X77.8337 Y100.4603
G1 X77.9183 Y100.799
G1 Y101.0107
G1 X77.8337 Y101.3493
G1 X77.3257 Y101.8573
G1 X76.987 Y101.942
G1 X76.6907
G1 X76.4367 Y101.8573
G1 X75.9287 Y101.3493
G1 X75.844 Y101.0107
G1 Y100.799
G1 X75.9287 Y100.4603
G0 Z3.0
G0 X75.4207 Y102.3653
G0 Z1.2
G1 Z-0.2
G1 Y104.5243
G1 X73.2617
G1 Y102.3653
G1 X75.4207
G0 Z3.0
G0 X75.9922 Y102.9368
G0 Z1.2
G1 Z-0.2
G1 X76.4367 Y102.4923
G1 X76.7753 Y102.4077
G1 X76.987
G1 X77.3257 Y102.4923
G1 X77.8337 Y103.0003
G1 X77.9183 Y103.339
G1 Y103.5507
G1 X77.8337 Y103.8893
G1 X77.3257 Y104.3973
G1 X76.987 Y104.482
G1 X76.6907
G1 X76.4367 Y104.3973
G1 X75.9287 Y103.8893
G1 X75.844 Y103.5507
G1 Y103.339
G1 X75.9287 Y103.0003
G1 X75.9922 Y102.9368
G0 Z3.0
G0 X81.9117 Y99.0909
G0 Z1.2
G1 Z-0.2
G2 X82.2295 Y99.3936 I0.7947 J-0.5163
G2 X82.877 Y99.5723 I0.6356 J-1.0407
G2 X83.2916 Y99.5008 I0.0118 J-1.1696
G2 X83.6475 Y99.2764 I-0.3752 J-0.9894
G2 X83.9234 Y98.8528 I-0.8134 J-0.8315
G2 X84.0459 Y98.3623 I-1.9852 J-0.7563
G2 X84.2598 Y98.7051 I1.3793 J-0.6225
G2 X84.8311 Y99.1768 I2.1598 J-2.0341
G1 X86.0 Y99.9238
G1 Y99.209
G1 X85.1064 Y98.6406
G3 X84.5146 Y98.2305 I4.5178 J-7.1515
G3 X84.3598 Y98.0966 I1.2216 J-1.5688
G3 X84.2275 Y97.9404 I0.6193 J-0.6587
G3 X84.1133 Y97.6826 I0.6969 J-0.4629
G3 X84.0928 Y97.3662 I1.8144 J-0.2764
G1 Y96.707
G1 X86.0
G1 Y96.1387
G1 X83.2988
G1 X81.7051
G1 Y98.043
G2 X81.7266 Y98.4845 I4.0943 J0.0219
G2 X81.8223 Y98.916 I1.7323 J-0.1578
G2 X81.9117 Y99.0909 I0.8841 J-0.3414
G0 Z3.0
G0 X82.3591 Y98.7427
G0 Z1.2
G1 Z-0.2
G3 X82.2166 Y98.4323 I0.5883 J-0.4579
G3 X82.1797 Y98.0664 I1.5972 J-0.3459
G1 Y96.707
G1 X83.2988
G1 X83.6006
G1 Y97.9287
G3 X83.5855 Y98.2366 I-2.8626 J0.0139
G3 X83.5215 Y98.5381 I-1.3347 J-0.1258
G3 X83.2637 Y98.8721 I-0.6238 J-0.215
G3 X82.877 Y98.9863 I-0.3845 J-0.5902
G3 X82.376 Y98.7637 I-0.0165 J-0.638
G3 X82.3591 Y98.7427 I0.5713 J-0.4788
G0 Z3.0
G0 X81.8606 Y95.8447
G0 Z1.2
G1 Z-0.2
G1 X82.1445 Y95.7959
G3 X82.1152 Y95.4854 I1.7439 J-0.3212
G3 X82.134 Y95.3056 I0.7719 J-0.0102
G3 X82.2178 Y95.1455 I0.3206 J0.0658
G3 X82.4011 Y95.0626 I0.2359 J0.2776
G3 X82.6016 Y95.0459 I0.1882 J1.0474
G1 X82.8887
G1 Y95.6523
G1 X83.2988
G1 Y95.0459
G1 X86.0
G1 Y94.5215
G1 X83.2988
G1 Y94.0557
G1 X82.8887
G1 Y94.5215
G1 X82.5576
G2 X82.3226 Y94.5313 I-0.0124 J2.5261
G2 X82.0918 Y94.5771 I0.0724 J0.9693
G2 X81.7607 Y94.8438 I0.2325 J0.6275
G2 X81.6576 Y95.104 I0.6218 J0.3969
G2 X81.6318 Y95.3828 I1.3572 J0.2662
G2 X81.6846 Y95.875 I2.5951 J-0.0294
G1 X81.8606 Y95.8447
G0 Z3.0
G0 X77.5194 Y91.5036
G0 Z1.2
G1 Z-0.2
G1 X77.3257 Y91.6973
G1 X76.987 Y91.782
G1 X76.6907
G1 X76.4367 Y91.6973
G1 X75.9287 Y91.1893
G1 X75.844 Y90.8507
G1 Y90.639
G1 X75.9287 Y90.3003
G1 X76.4367 Y89.7923
G1 X76.7753 Y89.7077
G1 X76.987
G1 X77.3257 Y89.7923
G1 X77.8337 Y90.3003
G1 X77.9183 Y90.639
G1 Y90.8507
G1 X77.8337 Y91.1893
G1 X77.5194 Y91.5036
G0 Z3.0
G0 X75.3507 Y90.9614
G0 Z1.2
G1 Z-0.2
G1 X75.2937 Y91.1893
G1 X74.7857 Y91.6973
G1 X74.447 Y91.782
G1 X74.1507
G1 X73.8967 Y91.6973
G1 X73.3887 Y91.1893
G1 X73.304 Y90.8507
G1 Y90.639
G1 X73.3887 Y90.3003
G1 X73.8967 Y89.7923
G1 X74.2353 Y89.7077
G1 X74.447
G1 X74.7857 Y89.7923
G1 X75.2937 Y90.3003
G1 X75.3783 Y90.639
G1 Y90.8507
G1 X75.3507 Y90.9614
G0 Z3.0
G0 X74.7857 Y89.1573
G0 Z1.2
G1 Z-0.2
G1 X74.447 Y89.242
G1 X74.1507
G1 X73.8967 Y89.1573
G1 X73.3887 Y88.6493
G1 X73.304 Y88.3107
G1 Y88.099
G1 X73.3887 Y87.7603
G1 X73.8967 Y87.2523
G1 X74.2353 Y87.1677
G1 X74.447
G1 X74.7857 Y87.2523
G1 X75.2937 Y87.7603
G1 X75.3783 Y88.099
G1 Y88.3107
G1 X75.2937 Y88.6493
G1 X74.7857 Y89.1573
G0 Z3.0
G0 X75.9287 Y88.6493
G0 Z1.2
G1 Z-0.2
G1 X75.844 Y88.3107
G1 Y88.099
G1 X75.9287 Y87.7603
G1 X76.4367 Y87.2523
G1 X76.7753 Y87.1677
G1 X76.987
G1 X77.3257 Y87.2523
G1 X77.8337 Y87.7603
G1 X77.9183 Y88.099
G1 Y88.3107
G1 X77.8337 Y88.6493
G1 X77.3257 Y89.1573
G1 X76.987 Y89.242
G1 X76.6907
G1 X76.4367 Y89.1573
G1 X75.9287 Y88.6493
G0 Z3.0
G0 X76.5891 Y86.6681
G0 Z1.2
G1 Z-0.2
G1 X76.4367 Y86.6173
G1 X75.9287 Y86.1093
G1 X75.844 Y85.7707
G1 Y85.559
G1 X75.9287 Y85.2203
G1 X76.4367 Y84.7123
G1 X76.7753 Y84.6277
G1 X76.987
G1 X77.3257 Y84.7123
G1 X77.8337 Y85.2203
G1 X77.9183 Y85.559
G1 Y85.7707
G1 X77.8337 Y86.1093
G1 X77.3257 Y86.6173
G1 X76.987 Y86.702
G1 X76.6907
G1 X76.5891 Y86.6681
G0 Z3.0
G0 X75.2937 Y86.1093
G0 Z1.2
G1 Z-0.2
G1 X74.7857 Y86.6173
G1 X74.447 Y86.702
G1 X74.1507
G1 X73.8967 Y86.6173
G1 X73.3887 Y86.1093
G1 X73.304 Y85.7707
G1 Y85.559
G1 X73.3887 Y85.2203
G1 X73.8967 Y84.7123
G1 X74.2353 Y84.6277
G1 X74.447
G1 X74.7857 Y84.7123
G1 X75.2937 Y85.2203
G1 X75.3783 Y85.559
G1 Y85.7707
G1 X75.2937 Y86.1093
G0 Z3.0
G0 X93.624 Y85.7707
G0 Z1.2
G1 Z-0.2
G1 Y85.559
G1 X93.7087 Y85.2203
G1 X94.2167 Y84.7123
G1 X94.5553 Y84.6277
G1 X94.767
G1 X95.1057 Y84.7123
G1 X95.6137 Y85.2203
G1 X95.6983 Y85.559
G1 Y85.7707
G1 X95.6137 Y86.1093
G1 X95.1057 Y86.6173
G1 X94.767 Y86.702
G1 X94.4707
G1 X94.2167 Y86.6173
G1 X93.7087 Y86.1093
G1 X93.624 Y85.7707
G0 Z3.0
G0 X94.2167 Y87.2523
G0 Z1.2
G1 Z-0.2
G1 X94.5553 Y87.1677
G1 X94.767
G1 X95.1057 Y87.2523
G1 X95.6137 Y87.7603
G1 X95.6983 Y88.099
G1 Y88.3107
G1 X95.6137 Y88.6493
G1 X95.1057 Y89.1573
G1 X94.767 Y89.242
G1 X94.4707
G1 X94.2167 Y89.1573
G1 X93.7087 Y88.6493
G1 X93.624 Y88.3107
G1 Y88.099
G1 X93.7087 Y87.7603
G1 X94.2167 Y87.2523
G0 Z3.0
G0 Y89.6653
G0 Z1.2
G1 Z-0.2
G1 X95.7407
G1 Y91.8243
G1 X93.5817
G1 Y89.6653
G1 X94.2167
G0 Z3.0
G0 X93.9509 Y94.9308
G0 Z1.2
G1 Z-0.2
G2 X93.8755 Y94.9297 I-0.0537 J1.0638
G2 X93.1899 Y95.1348 I-0.0064 J1.2271
G2 X92.7065 Y95.7061 I0.7607 J1.1338
G2 X92.5366 Y96.5527 I1.8408 J0.8098
G2 X92.5365 Y96.6069 I2.2059 J0.0312
G2 X92.6919 Y97.3965 I2.2059 J-0.024
G2 X92.8794 Y97.7243 I1.2626 J-0.5047
G2 X93.1577 Y97.9795 I0.9039 J-0.7063
G2 X93.8521 Y98.1816 I0.6803 J-1.0434
G2 X94.353 Y98.0615 I0.0181 J-1.029
G2 X94.7104 Y97.7539 I-0.4779 J-0.9167
G1 Y99.2949
G1 X95.2349
G1 Y95.0
G1 X94.7456
G1 Y95.3926
G2 X94.3739 Y95.0421 I-0.8344 J0.5125
G2 X93.9509 Y94.9308 I-0.4767 J0.9525
G0 Z3.0
G0 X93.9428 Y95.3634
G0 Z1.2
G1 Z-0.2
G3 X94.5112 Y95.6445 I-0.014 J0.7435
G3 X94.7073 Y96.0557 I-0.7531 J0.6115
G3 X94.7544 Y96.5088 I-1.9337 J0.43
G3 X94.7083 Y96.9978 I-2.3426 J0.0258
G3 X94.5083 Y97.4463 I-1.0332 J-0.1919
G3 X94.2403 Y97.6671 I-0.6575 J-0.525
G3 X93.9019 Y97.7451 I-0.3307 J-0.6615
G3 X93.313 Y97.458 I-0.006 J-0.7351
G3 X93.192 Y97.2525 I0.6513 J-0.5218
G3 X93.1017 Y96.9081 I1.3075 J-0.5269
G3 X93.0788 Y96.5998 I2.5056 J-0.3411
G3 X93.0786 Y96.5527 I2.5285 J-0.0343
G3 X93.1276 Y96.0843 I2.0358 J-0.0238
G3 X93.3306 Y95.6592 I0.9882 J0.2109
G3 X93.594 Y95.443 I0.6834 J0.564
G3 X93.9253 Y95.3633 I0.3264 J0.6285
G3 X93.9428 Y95.3634 I0.0035 J0.7436
G0 Z3.0
G0 X94.4707 Y84.162
G0 Z1.2
G1 Z-0.2
G1 X94.2167 Y84.0773
G1 X93.7087 Y83.5693
G1 X93.624 Y83.2307
G1 Y83.019
G1 X93.7087 Y82.6803
G1 X94.2167 Y82.1723
G1 X94.5553 Y82.0877
G1 X94.767
G1 X95.1057 Y82.1723
G1 X95.6137 Y82.6803
G1 X95.6983 Y83.019
G1 Y83.2307
G1 X95.6137 Y83.5693
G1 X95.1057 Y84.0773
G1 X94.767 Y84.162
G1 X94.4707
G0 Z3.0
G0 Y81.622
G0 Z1.2
G1 Z-0.2
G1 X94.2167 Y81.5373
G1 X93.7087 Y81.0293
G1 X93.624 Y80.6907
G1 Y80.479
G1 X93.7087 Y80.1403
G1 X94.2167 Y79.6323
G1 X94.5553 Y79.5477
G1 X94.767
G1 X95.1057 Y79.6323
G1 X95.6137 Y80.1403
G1 X95.6983 Y80.479
G1 Y80.6907
G1 X95.6137 Y81.0293
G1 X95.1057 Y81.5373
G1 X94.767 Y81.622
G1 X94.4707
G0 Z3.0
G0 Y79.082
G0 Z1.2
G1 Z-0.2
G1 X94.2167 Y78.9973
G1 X93.7087 Y78.4893
G1 X93.624 Y78.1507
G1 Y77.939
G1 X93.7087 Y77.6003
G1 X94.2167 Y77.0923
G1 X94.5553 Y77.0077
G1 X94.767
G1 X95.1057 Y77.0923
G1 X95.6137 Y77.6003
G1 X95.6983 Y77.939
G1 Y78.1507
G1 X95.6137 Y78.4893
G1 X95.1057 Y78.9973
G1 X94.767 Y79.082
G1 X94.4707
G0 Z3.0
G0 Y76.542
G0 Z1.2
G1 Z-0.2
G1 X94.2167 Y76.4573
G1 X93.7087 Y75.9493
G1 X93.624 Y75.6107
G1 Y75.399
G1 X93.7087 Y75.0603
G1 X94.2167 Y74.5523
G1 X94.5553 Y74.4677
G1 X94.767
G1 X95.1057 Y74.5523
G1 X95.6137 Y75.0603
G1 X95.6983 Y75.399
G1 Y75.6107
G1 X95.6137 Y75.9493
G1 X95.1057 Y76.4573
G1 X94.767 Y76.542
G1 X94.4707
G0 Z3.0
G0 Y74.002
G0 Z1.2
G1 Z-0.2
G1 X94.2167 Y73.9173
G1 X93.7087 Y73.4093
G1 X93.624 Y73.0707
G1 Y72.859
