( Made using CamBam - http://www.cambam.co.uk )
( fatar_converter.gcode.bottom 8/22/2014 6:29:44 PM )
( T0 : 0.0 )
G21 G90 G64 G40
G0 Z3.0
( T0 : 0.0 )
T0 M6
( rotacija )
G17
M3 S1000
G0 X1.0 Y3.0
G0 Z1.0
G1 F300.0 Z-0.6
G1 F1000.0 Y40.0
G1 X3.0
G1 Y69.0
G1 X1.0
G1 Y85.0
G0 Z3.0
G0 Y87.2
G0 Z1.0
G1 F300.0 Z-0.6
G1 F1000.0 Y97.0
G1 X3.0
G1 Y113.0
G1 X31.0
G1 Y111.0
G1 X57.0
G1 Y113.0
G1 X91.0
G1 Y111.0
G1 X105.0
G1 Y93.0
G1 X103.0
G1 Y73.0
G1 X105.0
G1 Y65.0
G0 Z3.0
G0 Y62.8
G0 Z1.0
G1 F300.0 Z-0.6
G1 F1000.0 Y36.0
G1 X103.0
G1 Y1.0
G1 X87.0
G1 Y3.0
G1 X61.0
G1 Y1.0
G1 X27.0
G1 Y3.0
G1 X1.0
G1 F300.0 Z-1.2
G1 F1000.0 Y40.0
G1 X3.0
G1 Y69.0
G1 X1.0
G1 Y85.0
G0 Z3.0
G0 Y87.2
G0 Z0.4
G1 F300.0 Z-1.2
G1 F1000.0 Y97.0
G1 X3.0
G1 Y113.0
G1 X31.0
G1 Y111.0
G1 X57.0
G1 Y113.0
G1 X91.0
G1 Y111.0
G1 X105.0
G1 Y93.0
G1 X103.0
G1 Y73.0
G1 X105.0
G1 Y65.0
G0 Z3.0
G0 Y62.8
G0 Z0.4
G1 F300.0 Z-1.2
G1 F1000.0 Y36.0
G1 X103.0
G1 Y1.0
G1 X87.0
G1 Y3.0
G1 X61.0
G1 Y1.0
G1 X27.0
G1 Y3.0
G1 X1.0
G1 F300.0 Z-1.8
G1 F1000.0 Y40.0
G1 X3.0
G1 Y69.0
G1 X1.0
G1 Y85.0
G0 Z3.0
G0 Y87.2
G0 Z-0.2
G1 F300.0 Z-1.8
G1 F1000.0 Y97.0
G1 X3.0
G1 Y113.0
G1 X31.0
G1 Y111.0
G1 X57.0
G1 Y113.0
G1 X91.0
G1 Y111.0
G1 X105.0
G1 Y93.0
G1 X103.0
G1 Y73.0
G1 X105.0
G1 Y65.0
G0 Z3.0
G0 Y62.8
G0 Z-0.2
G1 F300.0 Z-1.8
G1 F1000.0 Y36.0
G1 X103.0
G1 Y1.0
G1 X87.0
G1 Y3.0
G1 X61.0
G1 Y1.0
G1 X27.0
G1 Y3.0
G1 X1.0
G1 F300.0 Z-2.4
G1 F1000.0 Y40.0
G1 X3.0
G1 Y69.0
G1 X1.0
G1 Y85.0
G0 Z3.0
G0 Y87.2
G0 Z-0.8
G1 F300.0 Z-2.4
G1 F1000.0 Y97.0
G1 X3.0
G1 Y113.0
G1 X31.0
G1 Y111.0
G1 X57.0
G1 Y113.0
G1 X91.0
G1 Y111.0
G1 X105.0
G1 Y93.0
G1 X103.0
G1 Y73.0
G1 X105.0
G1 Y65.0
G0 Z3.0
G0 Y62.8
G0 Z-0.8
G1 F300.0 Z-2.4
G1 F1000.0 Y36.0
G1 X103.0
G1 Y1.0
G1 X87.0
G1 Y3.0
G1 X61.0
G1 Y1.0
G1 X27.0
G1 Y3.0
G1 X1.0
G0 Z3.0
M5
M30
