( Made using CamBam - http://www.cambam.co.uk )
( fatar_converter.gcode.bottom 8/22/2014 6:33:04 PM )
( T0 : 0.0 )
G21 G90 G64 G40
G0 Z3.0
( T0 : 0.0 )
T0 M6
( finalecut_one )
G17
M3 S1000
G0 X7.0 Y57.0
G0 Z1.0
G1 F300.0 Z-0.6
G1 F1000.0 X53.0
G1 X99.0
G0 Z3.0
G0 X53.0
G0 Z0.4
G1 F300.0 Z-1.2
G1 F1000.0 X99.0
G0 Z3.0
G0 X7.0
G0 Z0.4
G1 F300.0 Z-1.2
G1 F1000.0 X53.0
G1 F300.0 Z-1.8
G1 F1000.0 X99.0
G0 Z3.0
G0 X7.0
G0 Z-0.2
G1 F300.0 Z-1.8
G1 F1000.0 X53.0
G1 F300.0 Z-2.4
G1 F1000.0 X99.0
G0 Z3.0
G0 X7.0
G0 Z-0.8
G1 F300.0 Z-2.4
G1 F1000.0 X53.0
G0 Z3.0
G0 Y7.0
G0 Z1.0
G1 F300.0 Z-0.6
G1 F1000.0 X7.0
G0 Z3.0
G0 X99.0
G0 Z1.0
G1 F300.0 Z-0.6
G1 F1000.0 X53.0
G1 F300.0 Z-1.2
G1 F1000.0 X7.0
G0 Z3.0
G0 X99.0
G0 Z0.4
G1 F300.0 Z-1.2
G1 F1000.0 X53.0
G1 F300.0 Z-1.8
G1 F1000.0 X7.0
G0 Z3.0
G0 X99.0
G0 Z-0.2
G1 F300.0 Z-1.8
G1 F1000.0 X53.0
G1 F300.0 Z-2.4
G1 F1000.0 X7.0
G0 Z3.0
G0 X99.0
G0 Z-0.8
G1 F300.0 Z-2.4
G1 F1000.0 X53.0
G0 Z3.0
G0 Y107.0
G0 Z1.0
G1 F300.0 Z-0.6
G1 F1000.0 X99.0
G0 Z3.0
G0 X7.0
G0 Z1.0
G1 F300.0 Z-0.6
G1 F1000.0 X53.0
G1 F300.0 Z-1.2
G1 F1000.0 X99.0
G0 Z3.0
G0 X7.0
G0 Z0.4
G1 F300.0 Z-1.2
G1 F1000.0 X53.0
G1 F300.0 Z-1.8
G1 F1000.0 X99.0
G0 Z3.0
G0 X7.0
G0 Z-0.2
G1 F300.0 Z-1.8
G1 F1000.0 X53.0
G1 F300.0 Z-2.4
G1 F1000.0 X99.0
G0 Z3.0
G0 X7.0
G0 Z-0.8
G1 F300.0 Z-2.4
G1 F1000.0 X53.0
G0 Z3.0
M5
M30
