( Made using CamBam - http://www.cambam.co.uk )
( fatar_converter.gcode.bottom 8/22/2014 6:28:20 PM )
( T0 : 0.6 )
G21 G90 G64 G40
G0 Z3.0
( T0 : 0.6 )
T0 M6
( drill3.25mm )
G17
M3 S1000
G0 X11.0 Y11.0
G0 Z3.0
G0 X12.325 Y11.0
G0 Z1.0
G1 F300.0 Z0.0
G2 F400.0 X10.3375 Y9.8525 Z-0.1333 I-1.325 J0.0
G2 Y12.1475 Z-0.2667 I0.6625 J1.1475
G2 X12.325 Y11.0 Z-0.4 I0.6625 J-1.1475
G2 X10.3375 Y9.8525 Z-0.5333 I-1.325 J0.0
G2 Y12.1475 Z-0.6667 I0.6625 J1.1475
G2 X12.325 Y11.0 Z-0.8 I0.6625 J-1.1475
G2 X10.3375 Y9.8525 Z-0.9333 I-1.325 J0.0
G2 Y12.1475 Z-1.0667 I0.6625 J1.1475
G2 X12.325 Y11.0 Z-1.2 I0.6625 J-1.1475
G2 X10.3375 Y9.8525 Z-1.3333 I-1.325 J0.0
G2 Y12.1475 Z-1.4667 I0.6625 J1.1475
G2 X12.325 Y11.0 Z-1.6 I0.6625 J-1.1475
G2 X10.3375 Y9.8525 Z-1.7333 I-1.325 J0.0
G2 Y12.1475 Z-1.8667 I0.6625 J1.1475
G2 X12.325 Y11.0 Z-2.0 I0.6625 J-1.1475
G2 X10.3375 Y9.8525 Z-2.1333 I-1.325 J0.0
G2 Y12.1475 Z-2.2667 I0.6625 J1.1475
G2 X12.325 Y11.0 Z-2.4 I0.6625 J-1.1475
G2 X10.3375 Y9.8525 I-1.325 J0.0
G2 Y12.1475 I0.6625 J1.1475
G2 X12.325 Y11.0 I0.6625 J-1.1475
G0 Z3.0
G0 X50.325
G0 Z1.0
G1 F300.0 Z0.0
G2 F400.0 X48.3375 Y9.8525 Z-0.1333 I-1.325 J0.0
G2 Y12.1475 Z-0.2667 I0.6625 J1.1475
G2 X50.325 Y11.0 Z-0.4 I0.6625 J-1.1475
G2 X48.3375 Y9.8525 Z-0.5333 I-1.325 J0.0
G2 Y12.1475 Z-0.6667 I0.6625 J1.1475
G2 X50.325 Y11.0 Z-0.8 I0.6625 J-1.1475
G2 X48.3375 Y9.8525 Z-0.9333 I-1.325 J0.0
G2 Y12.1475 Z-1.0667 I0.6625 J1.1475
G2 X50.325 Y11.0 Z-1.2 I0.6625 J-1.1475
G2 X48.3375 Y9.8525 Z-1.3333 I-1.325 J0.0
G2 Y12.1475 Z-1.4667 I0.6625 J1.1475
G2 X50.325 Y11.0 Z-1.6 I0.6625 J-1.1475
G2 X48.3375 Y9.8525 Z-1.7333 I-1.325 J0.0
G2 Y12.1475 Z-1.8667 I0.6625 J1.1475
G2 X50.325 Y11.0 Z-2.0 I0.6625 J-1.1475
G2 X48.3375 Y9.8525 Z-2.1333 I-1.325 J0.0
G2 Y12.1475 Z-2.2667 I0.6625 J1.1475
G2 X50.325 Y11.0 Z-2.4 I0.6625 J-1.1475
G2 X48.3375 Y9.8525 I-1.325 J0.0
G2 Y12.1475 I0.6625 J1.1475
G2 X50.325 Y11.0 I0.6625 J-1.1475
G0 Z3.0
G0 X58.325
G0 Z1.0
G1 F300.0 Z0.0
G2 F400.0 X56.3375 Y9.8525 Z-0.1333 I-1.325 J0.0
G2 Y12.1475 Z-0.2667 I0.6625 J1.1475
G2 X58.325 Y11.0 Z-0.4 I0.6625 J-1.1475
G2 X56.3375 Y9.8525 Z-0.5333 I-1.325 J0.0
G2 Y12.1475 Z-0.6667 I0.6625 J1.1475
G2 X58.325 Y11.0 Z-0.8 I0.6625 J-1.1475
G2 X56.3375 Y9.8525 Z-0.9333 I-1.325 J0.0
G2 Y12.1475 Z-1.0667 I0.6625 J1.1475
G2 X58.325 Y11.0 Z-1.2 I0.6625 J-1.1475
G2 X56.3375 Y9.8525 Z-1.3333 I-1.325 J0.0
G2 Y12.1475 Z-1.4667 I0.6625 J1.1475
G2 X58.325 Y11.0 Z-1.6 I0.6625 J-1.1475
G2 X56.3375 Y9.8525 Z-1.7333 I-1.325 J0.0
G2 Y12.1475 Z-1.8667 I0.6625 J1.1475
G2 X58.325 Y11.0 Z-2.0 I0.6625 J-1.1475
G2 X56.3375 Y9.8525 Z-2.1333 I-1.325 J0.0
G2 Y12.1475 Z-2.2667 I0.6625 J1.1475
G2 X58.325 Y11.0 Z-2.4 I0.6625 J-1.1475
G2 X56.3375 Y9.8525 I-1.325 J0.0
G2 Y12.1475 I0.6625 J1.1475
G2 X58.325 Y11.0 I0.6625 J-1.1475
G0 Z3.0
G0 X96.325
G0 Z1.0
G1 F300.0 Z0.0
G2 F400.0 X94.3375 Y9.8525 Z-0.1333 I-1.325 J0.0
G2 Y12.1475 Z-0.2667 I0.6625 J1.1475
G2 X96.325 Y11.0 Z-0.4 I0.6625 J-1.1475
G2 X94.3375 Y9.8525 Z-0.5333 I-1.325 J0.0
G2 Y12.1475 Z-0.6667 I0.6625 J1.1475
G2 X96.325 Y11.0 Z-0.8 I0.6625 J-1.1475
G2 X94.3375 Y9.8525 Z-0.9333 I-1.325 J0.0
G2 Y12.1475 Z-1.0667 I0.6625 J1.1475
G2 X96.325 Y11.0 Z-1.2 I0.6625 J-1.1475
G2 X94.3375 Y9.8525 Z-1.3333 I-1.325 J0.0
G2 Y12.1475 Z-1.4667 I0.6625 J1.1475
G2 X96.325 Y11.0 Z-1.6 I0.6625 J-1.1475
G2 X94.3375 Y9.8525 Z-1.7333 I-1.325 J0.0
G2 Y12.1475 Z-1.8667 I0.6625 J1.1475
G2 X96.325 Y11.0 Z-2.0 I0.6625 J-1.1475
G2 X94.3375 Y9.8525 Z-2.1333 I-1.325 J0.0
G2 Y12.1475 Z-2.2667 I0.6625 J1.1475
G2 X96.325 Y11.0 Z-2.4 I0.6625 J-1.1475
G2 X94.3375 Y9.8525 I-1.325 J0.0
G2 Y12.1475 I0.6625 J1.1475
G2 X96.325 Y11.0 I0.6625 J-1.1475
G0 Z3.0
G0 Y53.0
G0 Z1.0
G1 F300.0 Z0.0
G2 F400.0 X94.3375 Y51.8525 Z-0.1333 I-1.325 J0.0
G2 Y54.1475 Z-0.2667 I0.6625 J1.1475
G2 X96.325 Y53.0 Z-0.4 I0.6625 J-1.1475
G2 X94.3375 Y51.8525 Z-0.5333 I-1.325 J0.0
G2 Y54.1475 Z-0.6667 I0.6625 J1.1475
G2 X96.325 Y53.0 Z-0.8 I0.6625 J-1.1475
G2 X94.3375 Y51.8525 Z-0.9333 I-1.325 J0.0
G2 Y54.1475 Z-1.0667 I0.6625 J1.1475
G2 X96.325 Y53.0 Z-1.2 I0.6625 J-1.1475
G2 X94.3375 Y51.8525 Z-1.3333 I-1.325 J0.0
G2 Y54.1475 Z-1.4667 I0.6625 J1.1475
G2 X96.325 Y53.0 Z-1.6 I0.6625 J-1.1475
G2 X94.3375 Y51.8525 Z-1.7333 I-1.325 J0.0
G2 Y54.1475 Z-1.8667 I0.6625 J1.1475
G2 X96.325 Y53.0 Z-2.0 I0.6625 J-1.1475
G2 X94.3375 Y51.8525 Z-2.1333 I-1.325 J0.0
G2 Y54.1475 Z-2.2667 I0.6625 J1.1475
G2 X96.325 Y53.0 Z-2.4 I0.6625 J-1.1475
G2 X94.3375 Y51.8525 I-1.325 J0.0
G2 Y54.1475 I0.6625 J1.1475
G2 X96.325 Y53.0 I0.6625 J-1.1475
G0 Z3.0
G0 Y61.0
G0 Z1.0
G1 F300.0 Z0.0
G2 F400.0 X94.3375 Y59.8525 Z-0.1333 I-1.325 J0.0
G2 Y62.1475 Z-0.2667 I0.6625 J1.1475
G2 X96.325 Y61.0 Z-0.4 I0.6625 J-1.1475
G2 X94.3375 Y59.8525 Z-0.5333 I-1.325 J0.0
G2 Y62.1475 Z-0.6667 I0.6625 J1.1475
G2 X96.325 Y61.0 Z-0.8 I0.6625 J-1.1475
G2 X94.3375 Y59.8525 Z-0.9333 I-1.325 J0.0
G2 Y62.1475 Z-1.0667 I0.6625 J1.1475
G2 X96.325 Y61.0 Z-1.2 I0.6625 J-1.1475
G2 X94.3375 Y59.8525 Z-1.3333 I-1.325 J0.0
G2 Y62.1475 Z-1.4667 I0.6625 J1.1475
G2 X96.325 Y61.0 Z-1.6 I0.6625 J-1.1475
G2 X94.3375 Y59.8525 Z-1.7333 I-1.325 J0.0
G2 Y62.1475 Z-1.8667 I0.6625 J1.1475
G2 X96.325 Y61.0 Z-2.0 I0.6625 J-1.1475
G2 X94.3375 Y59.8525 Z-2.1333 I-1.325 J0.0
G2 Y62.1475 Z-2.2667 I0.6625 J1.1475
G2 X96.325 Y61.0 Z-2.4 I0.6625 J-1.1475
G2 X94.3375 Y59.8525 I-1.325 J0.0
G2 Y62.1475 I0.6625 J1.1475
G2 X96.325 Y61.0 I0.6625 J-1.1475
G0 Z3.0
G0 X58.325
G0 Z1.0
G1 F300.0 Z0.0
G2 F400.0 X56.3375 Y59.8525 Z-0.1333 I-1.325 J0.0
G2 Y62.1475 Z-0.2667 I0.6625 J1.1475
G2 X58.325 Y61.0 Z-0.4 I0.6625 J-1.1475
G2 X56.3375 Y59.8525 Z-0.5333 I-1.325 J0.0
G2 Y62.1475 Z-0.6667 I0.6625 J1.1475
G2 X58.325 Y61.0 Z-0.8 I0.6625 J-1.1475
G2 X56.3375 Y59.8525 Z-0.9333 I-1.325 J0.0
G2 Y62.1475 Z-1.0667 I0.6625 J1.1475
G2 X58.325 Y61.0 Z-1.2 I0.6625 J-1.1475
G2 X56.3375 Y59.8525 Z-1.3333 I-1.325 J0.0
G2 Y62.1475 Z-1.4667 I0.6625 J1.1475
G2 X58.325 Y61.0 Z-1.6 I0.6625 J-1.1475
G2 X56.3375 Y59.8525 Z-1.7333 I-1.325 J0.0
G2 Y62.1475 Z-1.8667 I0.6625 J1.1475
G2 X58.325 Y61.0 Z-2.0 I0.6625 J-1.1475
G2 X56.3375 Y59.8525 Z-2.1333 I-1.325 J0.0
G2 Y62.1475 Z-2.2667 I0.6625 J1.1475
G2 X58.325 Y61.0 Z-2.4 I0.6625 J-1.1475
G2 X56.3375 Y59.8525 I-1.325 J0.0
G2 Y62.1475 I0.6625 J1.1475
G2 X58.325 Y61.0 I0.6625 J-1.1475
G0 Z3.0
G0 X50.325
G0 Z1.0
G1 F300.0 Z0.0
G2 F400.0 X48.3375 Y59.8525 Z-0.1333 I-1.325 J0.0
G2 Y62.1475 Z-0.2667 I0.6625 J1.1475
G2 X50.325 Y61.0 Z-0.4 I0.6625 J-1.1475
G2 X48.3375 Y59.8525 Z-0.5333 I-1.325 J0.0
G2 Y62.1475 Z-0.6667 I0.6625 J1.1475
G2 X50.325 Y61.0 Z-0.8 I0.6625 J-1.1475
G2 X48.3375 Y59.8525 Z-0.9333 I-1.325 J0.0
G2 Y62.1475 Z-1.0667 I0.6625 J1.1475
G2 X50.325 Y61.0 Z-1.2 I0.6625 J-1.1475
G2 X48.3375 Y59.8525 Z-1.3333 I-1.325 J0.0
G2 Y62.1475 Z-1.4667 I0.6625 J1.1475
G2 X50.325 Y61.0 Z-1.6 I0.6625 J-1.1475
G2 X48.3375 Y59.8525 Z-1.7333 I-1.325 J0.0
G2 Y62.1475 Z-1.8667 I0.6625 J1.1475
G2 X50.325 Y61.0 Z-2.0 I0.6625 J-1.1475
G2 X48.3375 Y59.8525 Z-2.1333 I-1.325 J0.0
G2 Y62.1475 Z-2.2667 I0.6625 J1.1475
G2 X50.325 Y61.0 Z-2.4 I0.6625 J-1.1475
G2 X48.3375 Y59.8525 I-1.325 J0.0
G2 Y62.1475 I0.6625 J1.1475
G2 X50.325 Y61.0 I0.6625 J-1.1475
G0 Z3.0
G0 Y53.0
G0 Z1.0
G1 F300.0 Z0.0
G2 F400.0 X48.3375 Y51.8525 Z-0.1333 I-1.325 J0.0
G2 Y54.1475 Z-0.2667 I0.6625 J1.1475
G2 X50.325 Y53.0 Z-0.4 I0.6625 J-1.1475
G2 X48.3375 Y51.8525 Z-0.5333 I-1.325 J0.0
G2 Y54.1475 Z-0.6667 I0.6625 J1.1475
G2 X50.325 Y53.0 Z-0.8 I0.6625 J-1.1475
G2 X48.3375 Y51.8525 Z-0.9333 I-1.325 J0.0
G2 Y54.1475 Z-1.0667 I0.6625 J1.1475
G2 X50.325 Y53.0 Z-1.2 I0.6625 J-1.1475
G2 X48.3375 Y51.8525 Z-1.3333 I-1.325 J0.0
G2 Y54.1475 Z-1.4667 I0.6625 J1.1475
G2 X50.325 Y53.0 Z-1.6 I0.6625 J-1.1475
G2 X48.3375 Y51.8525 Z-1.7333 I-1.325 J0.0
G2 Y54.1475 Z-1.8667 I0.6625 J1.1475
G2 X50.325 Y53.0 Z-2.0 I0.6625 J-1.1475
G2 X48.3375 Y51.8525 Z-2.1333 I-1.325 J0.0
G2 Y54.1475 Z-2.2667 I0.6625 J1.1475
G2 X50.325 Y53.0 Z-2.4 I0.6625 J-1.1475
G2 X48.3375 Y51.8525 I-1.325 J0.0
G2 Y54.1475 I0.6625 J1.1475
G2 X50.325 Y53.0 I0.6625 J-1.1475
G0 Z3.0
G0 X58.325
G0 Z1.0
G1 F300.0 Z0.0
G2 F400.0 X56.3375 Y51.8525 Z-0.1333 I-1.325 J0.0
G2 Y54.1475 Z-0.2667 I0.6625 J1.1475
G2 X58.325 Y53.0 Z-0.4 I0.6625 J-1.1475
G2 X56.3375 Y51.8525 Z-0.5333 I-1.325 J0.0
G2 Y54.1475 Z-0.6667 I0.6625 J1.1475
G2 X58.325 Y53.0 Z-0.8 I0.6625 J-1.1475
G2 X56.3375 Y51.8525 Z-0.9333 I-1.325 J0.0
G2 Y54.1475 Z-1.0667 I0.6625 J1.1475
G2 X58.325 Y53.0 Z-1.2 I0.6625 J-1.1475
G2 X56.3375 Y51.8525 Z-1.3333 I-1.325 J0.0
G2 Y54.1475 Z-1.4667 I0.6625 J1.1475
G2 X58.325 Y53.0 Z-1.6 I0.6625 J-1.1475
G2 X56.3375 Y51.8525 Z-1.7333 I-1.325 J0.0
G2 Y54.1475 Z-1.8667 I0.6625 J1.1475
G2 X58.325 Y53.0 Z-2.0 I0.6625 J-1.1475
G2 X56.3375 Y51.8525 Z-2.1333 I-1.325 J0.0
G2 Y54.1475 Z-2.2667 I0.6625 J1.1475
G2 X58.325 Y53.0 Z-2.4 I0.6625 J-1.1475
G2 X56.3375 Y51.8525 I-1.325 J0.0
G2 Y54.1475 I0.6625 J1.1475
G2 X58.325 Y53.0 I0.6625 J-1.1475
G0 Z3.0
G0 X12.325
G0 Z1.0
G1 F300.0 Z0.0
G2 F400.0 X10.3375 Y51.8525 Z-0.1333 I-1.325 J0.0
G2 Y54.1475 Z-0.2667 I0.6625 J1.1475
G2 X12.325 Y53.0 Z-0.4 I0.6625 J-1.1475
G2 X10.3375 Y51.8525 Z-0.5333 I-1.325 J0.0
G2 Y54.1475 Z-0.6667 I0.6625 J1.1475
G2 X12.325 Y53.0 Z-0.8 I0.6625 J-1.1475
G2 X10.3375 Y51.8525 Z-0.9333 I-1.325 J0.0
G2 Y54.1475 Z-1.0667 I0.6625 J1.1475
G2 X12.325 Y53.0 Z-1.2 I0.6625 J-1.1475
G2 X10.3375 Y51.8525 Z-1.3333 I-1.325 J0.0
G2 Y54.1475 Z-1.4667 I0.6625 J1.1475
G2 X12.325 Y53.0 Z-1.6 I0.6625 J-1.1475
G2 X10.3375 Y51.8525 Z-1.7333 I-1.325 J0.0
G2 Y54.1475 Z-1.8667 I0.6625 J1.1475
G2 X12.325 Y53.0 Z-2.0 I0.6625 J-1.1475
G2 X10.3375 Y51.8525 Z-2.1333 I-1.325 J0.0
G2 Y54.1475 Z-2.2667 I0.6625 J1.1475
G2 X12.325 Y53.0 Z-2.4 I0.6625 J-1.1475
G2 X10.3375 Y51.8525 I-1.325 J0.0
G2 Y54.1475 I0.6625 J1.1475
G2 X12.325 Y53.0 I0.6625 J-1.1475
G0 Z3.0
G0 Y61.0
G0 Z1.0
G1 F300.0 Z0.0
G2 F400.0 X10.3375 Y59.8525 Z-0.1333 I-1.325 J0.0
G2 Y62.1475 Z-0.2667 I0.6625 J1.1475
G2 X12.325 Y61.0 Z-0.4 I0.6625 J-1.1475
G2 X10.3375 Y59.8525 Z-0.5333 I-1.325 J0.0
G2 Y62.1475 Z-0.6667 I0.6625 J1.1475
G2 X12.325 Y61.0 Z-0.8 I0.6625 J-1.1475
G2 X10.3375 Y59.8525 Z-0.9333 I-1.325 J0.0
G2 Y62.1475 Z-1.0667 I0.6625 J1.1475
G2 X12.325 Y61.0 Z-1.2 I0.6625 J-1.1475
G2 X10.3375 Y59.8525 Z-1.3333 I-1.325 J0.0
G2 Y62.1475 Z-1.4667 I0.6625 J1.1475
G2 X12.325 Y61.0 Z-1.6 I0.6625 J-1.1475
G2 X10.3375 Y59.8525 Z-1.7333 I-1.325 J0.0
G2 Y62.1475 Z-1.8667 I0.6625 J1.1475
G2 X12.325 Y61.0 Z-2.0 I0.6625 J-1.1475
G2 X10.3375 Y59.8525 Z-2.1333 I-1.325 J0.0
G2 Y62.1475 Z-2.2667 I0.6625 J1.1475
G2 X12.325 Y61.0 Z-2.4 I0.6625 J-1.1475
G2 X10.3375 Y59.8525 I-1.325 J0.0
G2 Y62.1475 I0.6625 J1.1475
G2 X12.325 Y61.0 I0.6625 J-1.1475
G0 Z3.0
G0 Y103.0
G0 Z1.0
G1 F300.0 Z0.0
G2 F400.0 X10.3375 Y101.8525 Z-0.1333 I-1.325 J0.0
G2 Y104.1475 Z-0.2667 I0.6625 J1.1475
G2 X12.325 Y103.0 Z-0.4 I0.6625 J-1.1475
G2 X10.3375 Y101.8525 Z-0.5333 I-1.325 J0.0
G2 Y104.1475 Z-0.6667 I0.6625 J1.1475
G2 X12.325 Y103.0 Z-0.8 I0.6625 J-1.1475
G2 X10.3375 Y101.8525 Z-0.9333 I-1.325 J0.0
G2 Y104.1475 Z-1.0667 I0.6625 J1.1475
G2 X12.325 Y103.0 Z-1.2 I0.6625 J-1.1475
G2 X10.3375 Y101.8525 Z-1.3333 I-1.325 J0.0
G2 Y104.1475 Z-1.4667 I0.6625 J1.1475
G2 X12.325 Y103.0 Z-1.6 I0.6625 J-1.1475
G2 X10.3375 Y101.8525 Z-1.7333 I-1.325 J0.0
G2 Y104.1475 Z-1.8667 I0.6625 J1.1475
G2 X12.325 Y103.0 Z-2.0 I0.6625 J-1.1475
G2 X10.3375 Y101.8525 Z-2.1333 I-1.325 J0.0
G2 Y104.1475 Z-2.2667 I0.6625 J1.1475
G2 X12.325 Y103.0 Z-2.4 I0.6625 J-1.1475
G2 X10.3375 Y101.8525 I-1.325 J0.0
G2 Y104.1475 I0.6625 J1.1475
G2 X12.325 Y103.0 I0.6625 J-1.1475
G0 Z3.0
G0 X50.325
G0 Z1.0
G1 F300.0 Z0.0
G2 F400.0 X48.3375 Y101.8525 Z-0.1333 I-1.325 J0.0
G2 Y104.1475 Z-0.2667 I0.6625 J1.1475
G2 X50.325 Y103.0 Z-0.4 I0.6625 J-1.1475
G2 X48.3375 Y101.8525 Z-0.5333 I-1.325 J0.0
G2 Y104.1475 Z-0.6667 I0.6625 J1.1475
G2 X50.325 Y103.0 Z-0.8 I0.6625 J-1.1475
G2 X48.3375 Y101.8525 Z-0.9333 I-1.325 J0.0
G2 Y104.1475 Z-1.0667 I0.6625 J1.1475
G2 X50.325 Y103.0 Z-1.2 I0.6625 J-1.1475
G2 X48.3375 Y101.8525 Z-1.3333 I-1.325 J0.0
G2 Y104.1475 Z-1.4667 I0.6625 J1.1475
G2 X50.325 Y103.0 Z-1.6 I0.6625 J-1.1475
G2 X48.3375 Y101.8525 Z-1.7333 I-1.325 J0.0
G2 Y104.1475 Z-1.8667 I0.6625 J1.1475
G2 X50.325 Y103.0 Z-2.0 I0.6625 J-1.1475
G2 X48.3375 Y101.8525 Z-2.1333 I-1.325 J0.0
G2 Y104.1475 Z-2.2667 I0.6625 J1.1475
G2 X50.325 Y103.0 Z-2.4 I0.6625 J-1.1475
G2 X48.3375 Y101.8525 I-1.325 J0.0
G2 Y104.1475 I0.6625 J1.1475
G2 X50.325 Y103.0 I0.6625 J-1.1475
G0 Z3.0
G0 X58.325
G0 Z1.0
G1 F300.0 Z0.0
G2 F400.0 X56.3375 Y101.8525 Z-0.1333 I-1.325 J0.0
G2 Y104.1475 Z-0.2667 I0.6625 J1.1475
G2 X58.325 Y103.0 Z-0.4 I0.6625 J-1.1475
G2 X56.3375 Y101.8525 Z-0.5333 I-1.325 J0.0
G2 Y104.1475 Z-0.6667 I0.6625 J1.1475
G2 X58.325 Y103.0 Z-0.8 I0.6625 J-1.1475
G2 X56.3375 Y101.8525 Z-0.9333 I-1.325 J0.0
G2 Y104.1475 Z-1.0667 I0.6625 J1.1475
G2 X58.325 Y103.0 Z-1.2 I0.6625 J-1.1475
G2 X56.3375 Y101.8525 Z-1.3333 I-1.325 J0.0
G2 Y104.1475 Z-1.4667 I0.6625 J1.1475
G2 X58.325 Y103.0 Z-1.6 I0.6625 J-1.1475
G2 X56.3375 Y101.8525 Z-1.7333 I-1.325 J0.0
G2 Y104.1475 Z-1.8667 I0.6625 J1.1475
G2 X58.325 Y103.0 Z-2.0 I0.6625 J-1.1475
G2 X56.3375 Y101.8525 Z-2.1333 I-1.325 J0.0
G2 Y104.1475 Z-2.2667 I0.6625 J1.1475
G2 X58.325 Y103.0 Z-2.4 I0.6625 J-1.1475
G2 X56.3375 Y101.8525 I-1.325 J0.0
G2 Y104.1475 I0.6625 J1.1475
G2 X58.325 Y103.0 I0.6625 J-1.1475
G0 Z3.0
G0 X96.325
G0 Z1.0
G1 F300.0 Z0.0
G2 F400.0 X94.3375 Y101.8525 Z-0.1333 I-1.325 J0.0
G2 Y104.1475 Z-0.2667 I0.6625 J1.1475
G2 X96.325 Y103.0 Z-0.4 I0.6625 J-1.1475
G2 X94.3375 Y101.8525 Z-0.5333 I-1.325 J0.0
G2 Y104.1475 Z-0.6667 I0.6625 J1.1475
G2 X96.325 Y103.0 Z-0.8 I0.6625 J-1.1475
G2 X94.3375 Y101.8525 Z-0.9333 I-1.325 J0.0
G2 Y104.1475 Z-1.0667 I0.6625 J1.1475
G2 X96.325 Y103.0 Z-1.2 I0.6625 J-1.1475
G2 X94.3375 Y101.8525 Z-1.3333 I-1.325 J0.0
G2 Y104.1475 Z-1.4667 I0.6625 J1.1475
G2 X96.325 Y103.0 Z-1.6 I0.6625 J-1.1475
G2 X94.3375 Y101.8525 Z-1.7333 I-1.325 J0.0
G2 Y104.1475 Z-1.8667 I0.6625 J1.1475
G2 X96.325 Y103.0 Z-2.0 I0.6625 J-1.1475
G2 X94.3375 Y101.8525 Z-2.1333 I-1.325 J0.0
G2 Y104.1475 Z-2.2667 I0.6625 J1.1475
G2 X96.325 Y103.0 Z-2.4 I0.6625 J-1.1475
G2 X94.3375 Y101.8525 I-1.325 J0.0
G2 Y104.1475 I0.6625 J1.1475
G2 X96.325 Y103.0 I0.6625 J-1.1475
G0 Z3.0
M5
M30
