( Made using CamBam - http://www.cambam.co.uk )
( fatar_converter.gcode.bottom 8/22/2014 6:26:54 PM )
( T0 : 0.0 )
G21 G90 G64 G40
G0 Z3.0
( T0 : 0.0 )
T0 M6
( drill09mm )
G17
M3 S1000
G0 X11.36 Y22.98
G98
G81 X11.36 Y22.98 Z-2.5 R3.0 F800.0
G81 Y25.52 Z-2.5
G81 Y28.06 Z-2.5
G81 Y30.6 Z-2.5
G81 Y33.14 Z-2.5
G81 Y35.68 Z-2.5
G81 Y38.22 Z-2.5
G81 Y40.76 Z-2.5
G81 X29.14 Z-2.5
G81 X31.68 Z-2.5
G81 Y38.22 Z-2.5
G81 Y35.68 Z-2.5
G81 X29.14 Z-2.5
G81 Y38.22 Z-2.5
G81 Y43.3 Z-2.5
G81 X31.68 Z-2.5
G81 Y45.84 Z-2.5
G81 Y48.38 Z-2.5
G81 Y50.92 Z-2.5
G81 Y53.46 Z-2.5
G81 X29.14 Z-2.5
G81 Y50.92 Z-2.5
G81 Y48.38 Z-2.5
G81 Y45.84 Z-2.5
G81 Y60.28 Z-2.5
G81 Y62.82 Z-2.5
G81 Y65.36 Z-2.5
G81 X31.68 Z-2.5
G81 Y62.82 Z-2.5
G81 X34.22 Z-2.5
G81 Y65.36 Z-2.5
G81 Y67.9 Z-2.5
G81 Y70.44 Z-2.5
G81 X31.68 Z-2.5
G81 Y67.9 Z-2.5
G81 X29.14 Z-2.5
G81 Y70.44 Z-2.5
G81 Y72.98 Z-2.5
G81 Y75.52 Z-2.5
G81 X31.68 Z-2.5
G81 Y72.98 Z-2.5
G81 X34.22 Z-2.5
G81 Y75.52 Z-2.5
G81 Y78.06 Z-2.5
G81 X31.68 Z-2.5
G81 X29.14 Z-2.5
G81 Y85.68 Z-2.5
G81 Y88.22 Z-2.5
G81 X31.68 Z-2.5
G81 Y85.68 Z-2.5
G81 Y90.76 Z-2.5
G81 Y93.3 Z-2.5
G81 X29.14 Z-2.5
G81 Y90.76 Z-2.5
G81 Y95.84 Z-2.5
G81 Y98.38 Z-2.5
G81 X31.68 Z-2.5
G81 Y95.84 Z-2.5
G81 Y100.92 Z-2.5
G81 Y103.46 Z-2.5
G81 X29.14 Z-2.5
G81 Y100.92 Z-2.5
G81 X46.92 Y90.76 Z-2.5
G81 X49.46 Z-2.5
G81 Y88.22 Z-2.5
G81 Y85.68 Z-2.5
G81 X46.92 Z-2.5
G81 Y88.22 Z-2.5
G81 Y83.14 Z-2.5
G81 X49.46 Z-2.5
G81 Y80.6 Z-2.5
G81 Y78.06 Z-2.5
G81 X46.92 Z-2.5
G81 Y80.6 Z-2.5
G81 Y75.52 Z-2.5
G81 Y72.98 Z-2.5
G81 X49.46 Z-2.5
G81 Y75.52 Z-2.5
G81 X57.36 Z-2.5
G81 Y72.98 Z-2.5
G81 Y78.06 Z-2.5
G81 Y80.6 Z-2.5
G81 Y83.14 Z-2.5
G81 Y85.68 Z-2.5
G81 Y88.22 Z-2.5
G81 Y90.76 Z-2.5
G81 X75.14 Z-2.5
G81 Y93.3 Z-2.5
G81 X77.68 Z-2.5
G81 Y90.76 Z-2.5
G81 Y88.22 Z-2.5
G81 Y85.68 Z-2.5
G81 X75.14 Z-2.5
G81 Y88.22 Z-2.5
G81 Y95.84 Z-2.5
G81 Y98.38 Z-2.5
G81 Y100.92 Z-2.5
G81 Y103.46 Z-2.5
G81 X77.68 Z-2.5
G81 Y100.92 Z-2.5
G81 Y98.38 Z-2.5
G81 Y95.84 Z-2.5
G81 X92.92 Y90.76 Z-2.5
G81 X95.46 Z-2.5
G81 Y88.22 Z-2.5
G81 Y85.68 Z-2.5
G81 X92.92 Z-2.5
G81 Y88.22 Z-2.5
G81 Y83.14 Z-2.5
G81 X95.46 Z-2.5
G81 Y80.6 Z-2.5
G81 Y78.06 Z-2.5
G81 X92.92 Z-2.5
G81 Y80.6 Z-2.5
G81 Y75.52 Z-2.5
G81 Y72.98 Z-2.5
G81 X95.46 Z-2.5
G81 Y75.52 Z-2.5
G81 X80.22 Z-2.5
G81 X77.68 Z-2.5
G81 Y72.98 Z-2.5
G81 X80.22 Z-2.5
G81 Y70.44 Z-2.5
G81 Y67.9 Z-2.5
G81 X77.68 Z-2.5
G81 Y70.44 Z-2.5
G81 X75.14 Z-2.5
G81 Y67.9 Z-2.5
G81 Y65.36 Z-2.5
G81 Y62.82 Z-2.5
G81 Y60.28 Z-2.5
G81 X77.68 Z-2.5
G81 X80.22 Z-2.5
G81 Y62.82 Z-2.5
G81 X77.68 Z-2.5
G81 Y65.36 Z-2.5
G81 X80.22 Z-2.5
G81 X75.14 Y72.98 Z-2.5
G81 Y75.52 Z-2.5
G81 Y78.06 Z-2.5
G81 X77.68 Z-2.5
G81 X80.22 Z-2.5
G81 X77.68 Y53.46 Z-2.5
G81 Y50.92 Z-2.5
G81 Y48.38 Z-2.5
G81 Y45.84 Z-2.5
G81 X75.14 Z-2.5
G81 Y48.38 Z-2.5
G81 Y50.92 Z-2.5
G81 Y53.46 Z-2.5
G81 Y43.3 Z-2.5
G81 Y40.76 Z-2.5
G81 Y38.22 Z-2.5
G81 Y35.68 Z-2.5
G81 X77.68 Z-2.5
G81 Y38.22 Z-2.5
G81 Y40.76 Z-2.5
G81 Y43.3 Z-2.5
G81 Y28.06 Z-2.5
G81 X80.22 Z-2.5
G81 Y25.52 Z-2.5
G81 X77.68 Z-2.5
G81 Y22.98 Z-2.5
G81 X80.22 Z-2.5
G81 Y20.44 Z-2.5
G81 X77.68 Z-2.5
G81 Y17.9 Z-2.5
G81 X80.22 Z-2.5
G81 Y15.36 Z-2.5
G81 X77.68 Z-2.5
G81 Y12.82 Z-2.5
G81 X80.22 Z-2.5
G81 Y10.28 Z-2.5
G81 X77.68 Z-2.5
G81 X75.14 Z-2.5
G81 Y12.82 Z-2.5
G81 Y15.36 Z-2.5
G81 Y17.9 Z-2.5
G81 Y20.44 Z-2.5
G81 Y22.98 Z-2.5
G81 Y25.52 Z-2.5
G81 Y28.06 Z-2.5
G81 X57.36 Z-2.5
G81 Y25.52 Z-2.5
G81 Y22.98 Z-2.5
G81 Y30.6 Z-2.5
G81 Y33.14 Z-2.5
G81 Y35.68 Z-2.5
G81 Y38.22 Z-2.5
G81 Y40.76 Z-2.5
G81 X49.46 Z-2.5
G81 X46.92 Z-2.5
G81 Y38.22 Z-2.5
G81 Y35.68 Z-2.5
G81 Y33.14 Z-2.5
G81 Y30.6 Z-2.5
G81 X49.46 Z-2.5
G81 Y33.14 Z-2.5
G81 Y35.68 Z-2.5
G81 Y38.22 Z-2.5
G81 Y28.06 Z-2.5
G81 Y25.52 Z-2.5
G81 Y22.98 Z-2.5
G81 X46.92 Z-2.5
G81 Y25.52 Z-2.5
G81 Y28.06 Z-2.5
G81 X34.22 Z-2.5
G81 X31.68 Z-2.5
G81 X29.14 Z-2.5
G81 Y25.52 Z-2.5
G81 Y22.98 Z-2.5
G81 X31.68 Z-2.5
G81 X34.22 Z-2.5
G81 Y25.52 Z-2.5
G81 X31.68 Z-2.5
G81 Y20.44 Z-2.5
G81 Y17.9 Z-2.5
G81 X29.14 Z-2.5
G81 Y15.36 Z-2.5
G81 Y12.82 Z-2.5
G81 X31.68 Z-2.5
G81 X34.22 Z-2.5
G81 Y15.36 Z-2.5
G81 Y17.9 Z-2.5
G81 Y20.44 Z-2.5
G81 X29.14 Z-2.5
G81 X31.68 Y15.36 Z-2.5
G81 Y10.28 Z-2.5
G81 X29.14 Z-2.5
G81 X34.22 Z-2.5
G81 Y60.28 Z-2.5
G81 X31.68 Z-2.5
G81 X11.36 Y72.98 Z-2.5
G81 Y75.52 Z-2.5
G81 Y78.06 Z-2.5
G81 Y80.6 Z-2.5
G81 Y83.14 Z-2.5
G81 Y85.68 Z-2.5
G81 Y88.22 Z-2.5
G81 Y90.76 Z-2.5
G81 X92.92 Y40.76 Z-2.5
G81 X95.46 Z-2.5
G81 Y38.22 Z-2.5
G81 X92.92 Z-2.5
G81 Y35.68 Z-2.5
G81 X95.46 Z-2.5
G81 Y33.14 Z-2.5
G81 X92.92 Z-2.5
G81 Y30.6 Z-2.5
G81 X95.46 Z-2.5
G81 Y28.06 Z-2.5
G81 X92.92 Z-2.5
G81 Y25.52 Z-2.5
G81 X95.46 Z-2.5
G81 Y22.98 Z-2.5
G81 X92.92 Z-2.5
G80
G0 Z3.0
M5
M30
