( Made using CamBam - http://www.cambam.co.uk )
( matrica.gcode.complete-double 8/21/2014 7:58:22 PM )
( T0 : 0.0 )
G21 G90 G64 G40
G0 Z3.0
( T0 : 0.0 )
T0 M6
( drill09mm )
G17
M3 S1000
G0 X44.6651 Y18.4566
G98
G81 X44.6651 Y18.4566 Z-0.18 R3.0 F800.0
G81 X45.6342 Y20.8045 Z-0.18
G81 X46.6033 Y23.1523 Z-0.18
G81 X47.5724 Y25.5002 Z-0.18
G81 X48.5415 Y27.848 Z-0.18
G81 X49.5106 Y30.1959 Z-0.18
G81 X50.4797 Y32.5437 Z-0.18
G81 X51.4489 Y34.8916 Z-0.18
G81 X63.4127 Y23.3871 Z-0.18
G81 X65.7606 Y22.418 Z-0.18
G81 X68.1084 Y21.4489 Z-0.18
G81 X70.4563 Y20.4797 Z-0.18
G81 X72.8041 Y19.5106 Z-0.18
G81 X75.152 Y18.5415 Z-0.18
G81 X77.4998 Y17.5724 Z-0.18
G81 X79.8477 Y16.6033 Z-0.18
G81 X77.2301 Y25.2404 Z-0.18
G81 X78.1992 Y27.5883 Z-0.18
G81 X79.1683 Y29.9361 Z-0.18
G81 X76.8205 Y30.9052 Z-0.18
G81 X75.8513 Y28.5574 Z-0.18
G81 X74.8822 Y26.2095 Z-0.18
G81 X77.7896 Y33.2531 Z-0.18
G81 X78.7587 Y35.6009 Z-0.18
G81 X81.1065 Y34.6318 Z-0.18
G81 X80.1374 Y32.284 Z-0.18
G81 X82.0757 Y36.9797 Z-0.18
G81 X83.0448 Y39.3275 Z-0.18
G81 X84.0139 Y41.6754 Z-0.18
G81 X81.666 Y42.6445 Z-0.18
G81 X80.6969 Y40.2966 Z-0.18
G81 X79.7278 Y37.9488 Z-0.18
G81 X75.5916 Y47.8997 Z-0.18
G81 X76.5607 Y50.2475 Z-0.18
G81 X77.5298 Y52.5954 Z-0.18
G81 X78.4989 Y54.9432 Z-0.18
G81 X76.1511 Y55.9124 Z-0.18
G81 X77.1202 Y58.2602 Z-0.18
G81 X79.468 Y57.2911 Z-0.18
G81 X80.4372 Y59.639 Z-0.18
G81 X81.4063 Y61.9868 Z-0.18
G81 X82.3754 Y64.3347 Z-0.18
G81 X80.0275 Y65.3038 Z-0.18
G81 X79.0584 Y62.9559 Z-0.18
G81 X78.0893 Y60.6081 Z-0.18
G81 X75.182 Y53.5645 Z-0.18
G81 X74.2128 Y51.2167 Z-0.18
G81 X73.2437 Y48.8688 Z-0.18
G81 X73.9531 Y70.559 Z-0.18
G81 X74.9222 Y72.9068 Z-0.18
G81 X75.8913 Y75.2547 Z-0.18
G81 X73.5435 Y76.2238 Z-0.18
G81 X74.5126 Y78.5716 Z-0.18
G81 X76.8604 Y77.6025 Z-0.18
G81 X77.8295 Y79.9504 Z-0.18
G81 X75.4817 Y80.9195 Z-0.18
G81 X76.4508 Y83.2674 Z-0.18
G81 X77.4199 Y85.6152 Z-0.18
G81 X78.389 Y87.9631 Z-0.18
G81 X80.7369 Y86.9939 Z-0.18
G81 X79.7678 Y84.6461 Z-0.18
G81 X78.7987 Y82.2982 Z-0.18
G81 X72.5743 Y73.8759 Z-0.18
G81 X71.6052 Y71.5281 Z-0.18
G81 X72.3146 Y93.2183 Z-0.18
G81 X73.2837 Y95.5661 Z-0.18
G81 X70.9358 Y96.5352 Z-0.18
G81 X69.9667 Y94.1874 Z-0.18
G81 X71.905 Y98.8831 Z-0.18
G81 X72.8741 Y101.2309 Z-0.18
G81 X75.2219 Y100.2618 Z-0.18
G81 X74.2528 Y97.914 Z-0.18
G81 X76.191 Y102.6097 Z-0.18
G81 X73.8432 Y103.5788 Z-0.18
G81 X74.8123 Y105.9266 Z-0.18
G81 X77.1602 Y104.9575 Z-0.18
G81 X78.1293 Y107.3054 Z-0.18
G81 X79.0984 Y109.6532 Z-0.18
G81 X76.7505 Y110.6224 Z-0.18
G81 X75.7814 Y108.2745 Z-0.18
G81 X70.6761 Y115.8775 Z-0.18
G81 X71.6452 Y118.2254 Z-0.18
G81 X69.2973 Y119.1945 Z-0.18
G81 X68.3282 Y116.8467 Z-0.18
G81 X70.2665 Y121.5424 Z-0.18
G81 X71.2356 Y123.8902 Z-0.18
G81 X73.5834 Y122.9211 Z-0.18
G81 X72.6143 Y120.5733 Z-0.18
G81 X74.5525 Y125.269 Z-0.18
G81 X72.2047 Y126.2381 Z-0.18
G81 X73.1738 Y128.5859 Z-0.18
G81 X75.5216 Y127.6168 Z-0.18
G81 X76.4908 Y129.9647 Z-0.18
G81 X77.4599 Y132.3125 Z-0.18
G81 X75.112 Y133.2816 Z-0.18
G81 X74.1429 Y130.9338 Z-0.18
G81 X69.0376 Y138.5368 Z-0.18
G81 X66.6897 Y139.5059 Z-0.18
G81 X67.6588 Y141.8538 Z-0.18
G81 X70.0067 Y140.8847 Z-0.18
G81 X70.9758 Y143.2325 Z-0.18
G81 X68.628 Y144.2017 Z-0.18
G81 X69.5971 Y146.5495 Z-0.18
G81 X71.9449 Y145.5804 Z-0.18
G81 X72.914 Y147.9283 Z-0.18
G81 X73.8831 Y150.2761 Z-0.18
G81 X71.5353 Y151.2452 Z-0.18
G81 X70.5662 Y148.8974 Z-0.18
G81 X72.5044 Y153.5931 Z-0.18
G81 X73.4735 Y155.9409 Z-0.18
G81 X75.8214 Y154.9718 Z-0.18
G81 X74.8523 Y152.624 Z-0.18
G81 X67.3991 Y161.1961 Z-0.18
G81 X65.0512 Y162.1652 Z-0.18
G81 X66.0203 Y164.5131 Z-0.18
G81 X66.9894 Y166.8609 Z-0.18
G81 X69.3373 Y165.8918 Z-0.18
G81 X68.3682 Y163.544 Z-0.18
G81 X70.3064 Y168.2397 Z-0.18
G81 X71.2755 Y170.5875 Z-0.18
G81 X68.9277 Y171.5567 Z-0.18
G81 X69.8968 Y173.9045 Z-0.18
G81 X72.2446 Y172.9354 Z-0.18
G81 X73.2138 Y175.2832 Z-0.18
G81 X74.1829 Y177.6311 Z-0.18
G81 X71.835 Y178.6002 Z-0.18
G81 X70.8659 Y176.2524 Z-0.18
G81 X67.9586 Y169.2088 Z-0.18
G81 X65.7606 Y183.8554 Z-0.18
G81 X63.4127 Y184.8245 Z-0.18
G81 X64.3818 Y187.1724 Z-0.18
G81 X65.3509 Y189.5202 Z-0.18
G81 X67.6988 Y188.5511 Z-0.18
G81 X66.7297 Y186.2033 Z-0.18
G81 X68.6679 Y190.899 Z-0.18
G81 X66.3201 Y191.8681 Z-0.18
G81 X67.2892 Y194.2159 Z-0.18
G81 X69.637 Y193.2468 Z-0.18
G81 X70.6061 Y195.5947 Z-0.18
G81 X68.2583 Y196.5638 Z-0.18
G81 X69.2274 Y198.9116 Z-0.18
G81 X71.5753 Y197.9425 Z-0.18
G81 X72.5444 Y200.2904 Z-0.18
G81 X70.1965 Y201.2595 Z-0.18
G81 X23.5444 Y200.2904 Z-0.18
G81 X21.1965 Y201.2595 Z-0.18
G81 X20.2274 Y198.9116 Z-0.18
G81 X19.2583 Y196.5638 Z-0.18
G81 X21.6061 Y195.5947 Z-0.18
G81 X22.5753 Y197.9425 Z-0.18
G81 X20.637 Y193.2468 Z-0.18
G81 X18.2892 Y194.2159 Z-0.18
G81 X17.3201 Y191.8681 Z-0.18
G81 X19.6679 Y190.899 Z-0.18
G81 X18.6988 Y188.5511 Z-0.18
G81 X17.7297 Y186.2033 Z-0.18
G81 X15.3818 Y187.1724 Z-0.18
G81 X16.3509 Y189.5202 Z-0.18
G81 X14.4127 Y184.8245 Z-0.18
G81 X16.7606 Y183.8554 Z-0.18
G81 X22.835 Y178.6002 Z-0.18
G81 X21.8659 Y176.2524 Z-0.18
G81 X20.8968 Y173.9045 Z-0.18
G81 X19.9277 Y171.5567 Z-0.18
G81 X22.2755 Y170.5875 Z-0.18
G81 X21.3064 Y168.2397 Z-0.18
G81 X18.9586 Y169.2088 Z-0.18
G81 X17.9894 Y166.8609 Z-0.18
G81 X17.0203 Y164.5131 Z-0.18
G81 X19.3682 Y163.544 Z-0.18
G81 X20.3373 Y165.8918 Z-0.18
G81 X18.3991 Y161.1961 Z-0.18
G81 X16.0512 Y162.1652 Z-0.18
G81 X24.4735 Y155.9409 Z-0.18
G81 X23.5044 Y153.5931 Z-0.18
G81 X22.5353 Y151.2452 Z-0.18
G81 X24.8831 Y150.2761 Z-0.18
G81 X23.914 Y147.9283 Z-0.18
G81 X21.5662 Y148.8974 Z-0.18
G81 X20.5971 Y146.5495 Z-0.18
G81 X19.628 Y144.2017 Z-0.18
G81 X21.9758 Y143.2325 Z-0.18
G81 X21.0067 Y140.8847 Z-0.18
G81 X20.0376 Y138.5368 Z-0.18
G81 X17.6897 Y139.5059 Z-0.18
G81 X18.6588 Y141.8538 Z-0.18
G81 X22.9449 Y145.5804 Z-0.18
G81 X25.8523 Y152.624 Z-0.18
G81 X26.8214 Y154.9718 Z-0.18
G81 X23.2446 Y172.9354 Z-0.18
G81 X24.2138 Y175.2832 Z-0.18
G81 X25.1829 Y177.6311 Z-0.18
G81 X26.112 Y133.2816 Z-0.18
G81 X25.1429 Y130.9338 Z-0.18
G81 X24.1738 Y128.5859 Z-0.18
G81 X23.2047 Y126.2381 Z-0.18
G81 X25.5525 Y125.269 Z-0.18
G81 X26.5216 Y127.6168 Z-0.18
G81 X27.4908 Y129.9647 Z-0.18
G81 X28.4599 Y132.3125 Z-0.18
G81 X24.5834 Y122.9211 Z-0.18
G81 X23.6143 Y120.5733 Z-0.18
G81 X21.2665 Y121.5424 Z-0.18
G81 X22.2356 Y123.8902 Z-0.18
G81 X20.2973 Y119.1945 Z-0.18
G81 X19.3282 Y116.8467 Z-0.18
G81 X21.6761 Y115.8775 Z-0.18
G81 X22.6452 Y118.2254 Z-0.18
G81 X27.7505 Y110.6224 Z-0.18
G81 X26.7814 Y108.2745 Z-0.18
G81 X29.1293 Y107.3054 Z-0.18
G81 X30.0984 Y109.6532 Z-0.18
G81 X28.1602 Y104.9575 Z-0.18
G81 X27.191 Y102.6097 Z-0.18
G81 X24.8432 Y103.5788 Z-0.18
G81 X25.8123 Y105.9266 Z-0.18
G81 X23.8741 Y101.2309 Z-0.18
G81 X22.905 Y98.8831 Z-0.18
G81 X25.2528 Y97.914 Z-0.18
G81 X26.2219 Y100.2618 Z-0.18
G81 X24.2837 Y95.5661 Z-0.18
G81 X23.3146 Y93.2183 Z-0.18
G81 X20.9667 Y94.1874 Z-0.18
G81 X21.9358 Y96.5352 Z-0.18
G81 X29.389 Y87.9631 Z-0.18
G81 X28.4199 Y85.6152 Z-0.18
G81 X27.4508 Y83.2674 Z-0.18
G81 X26.4817 Y80.9195 Z-0.18
G81 X28.8295 Y79.9504 Z-0.18
G81 X29.7987 Y82.2982 Z-0.18
G81 X30.7678 Y84.6461 Z-0.18
G81 X31.7369 Y86.9939 Z-0.18
G81 X27.8604 Y77.6025 Z-0.18
G81 X25.5126 Y78.5716 Z-0.18
G81 X24.5435 Y76.2238 Z-0.18
G81 X26.8913 Y75.2547 Z-0.18
G81 X25.9222 Y72.9068 Z-0.18
G81 X24.9531 Y70.559 Z-0.18
G81 X22.6052 Y71.5281 Z-0.18
G81 X23.5743 Y73.8759 Z-0.18
G81 X31.0275 Y65.3038 Z-0.18
G81 X33.3754 Y64.3347 Z-0.18
G81 X32.4063 Y61.9868 Z-0.18
G81 X31.4372 Y59.639 Z-0.18
G81 X29.0893 Y60.6081 Z-0.18
G81 X30.0584 Y62.9559 Z-0.18
G81 X28.1202 Y58.2602 Z-0.18
G81 X27.1511 Y55.9124 Z-0.18
G81 X29.4989 Y54.9432 Z-0.18
G81 X28.5298 Y52.5954 Z-0.18
G81 X26.182 Y53.5645 Z-0.18
G81 X25.2128 Y51.2167 Z-0.18
G81 X24.2437 Y48.8688 Z-0.18
G81 X26.5916 Y47.8997 Z-0.18
G81 X27.5607 Y50.2475 Z-0.18
G81 X30.468 Y57.2911 Z-0.18
G81 X32.666 Y42.6445 Z-0.18
G81 X31.6969 Y40.2966 Z-0.18
G81 X30.7278 Y37.9488 Z-0.18
G81 X33.0757 Y36.9797 Z-0.18
G81 X34.0448 Y39.3275 Z-0.18
G81 X35.0139 Y41.6754 Z-0.18
G81 X32.1065 Y34.6318 Z-0.18
G81 X29.7587 Y35.6009 Z-0.18
G81 X28.7896 Y33.2531 Z-0.18
G81 X31.1374 Y32.284 Z-0.18
G81 X30.1683 Y29.9361 Z-0.18
G81 X29.1992 Y27.5883 Z-0.18
G81 X28.2301 Y25.2404 Z-0.18
G81 X25.8822 Y26.2095 Z-0.18
G81 X26.8513 Y28.5574 Z-0.18
G81 X27.8205 Y30.9052 Z-0.18
G81 X23.8041 Y19.5106 Z-0.18
G81 X21.4563 Y20.4797 Z-0.18
G81 X19.1084 Y21.4489 Z-0.18
G81 X16.7606 Y22.418 Z-0.18
G81 X14.4127 Y23.3871 Z-0.18
G81 X26.152 Y18.5415 Z-0.18
G81 X28.4998 Y17.5724 Z-0.18
G81 X30.8477 Y16.6033 Z-0.18
G81 X93.6651 Y18.4566 Z-0.18
G81 X94.6342 Y20.8045 Z-0.18
G81 X95.6033 Y23.1523 Z-0.18
G81 X96.5724 Y25.5002 Z-0.18
G81 X97.5415 Y27.848 Z-0.18
G81 X98.5106 Y30.1959 Z-0.18
G81 X99.4797 Y32.5437 Z-0.18
G81 X100.4489 Y34.8916 Z-0.18
G80
G0 Z3.0
M5
M30
