( Made using CamBam - http://www.cambam.co.uk )
( matrica.gcode.complete 8/21/2014 3:03:08 PM )
( T0 : 1.0 )
G21 G90 G64 G40
G0 Z3.0
( T0 : 1.0 )
T0 M6
( drill-3.25 )
G17
M3 S1000
G0 X15.0 Y15.0
G0 Z3.0
G0 X16.125 Y15.0
G0 Z1.0
G1 F300.0 Z0.0
G2 F200.0 X14.4375 Y14.0257 Z-0.1333 I-1.125 J0.0
G2 Y15.9743 Z-0.2667 I0.5625 J0.9743
G2 X16.125 Y15.0 Z-0.4 I0.5625 J-0.9743
G2 X14.4375 Y14.0257 Z-0.5333 I-1.125 J0.0
G2 Y15.9743 Z-0.6667 I0.5625 J0.9743
G2 X16.125 Y15.0 Z-0.8 I0.5625 J-0.9743
G2 X14.4375 Y14.0257 Z-0.9333 I-1.125 J0.0
G2 Y15.9743 Z-1.0667 I0.5625 J0.9743
G2 X16.125 Y15.0 Z-1.2 I0.5625 J-0.9743
G2 X14.4375 Y14.0257 Z-1.3333 I-1.125 J0.0
G2 Y15.9743 Z-1.4667 I0.5625 J0.9743
G2 X16.125 Y15.0 Z-1.6 I0.5625 J-0.9743
G2 X14.4375 Y14.0257 Z-1.7333 I-1.125 J0.0
G2 Y15.9743 Z-1.8667 I0.5625 J0.9743
G2 X16.125 Y15.0 Z-2.0 I0.5625 J-0.9743
G2 X14.4375 Y14.0257 Z-2.1333 I-1.125 J0.0
G2 Y15.9743 Z-2.2667 I0.5625 J0.9743
G2 X15.7955 Y15.7955 Z-2.35 I0.5625 J-0.9743
G2 X15.2912 Y13.9133 I-0.7955 J-0.7955
G2 X13.9133 Y15.2912 I-0.2912 J1.0867
G2 X15.7955 Y15.7955 I1.0867 J-0.2912
G0 Z3.0
G0 X53.125 Y15.0
G0 Z1.0
G1 F300.0 Z0.0
G2 F200.0 X51.4375 Y14.0257 Z-0.1333 I-1.125 J0.0
G2 Y15.9743 Z-0.2667 I0.5625 J0.9743
G2 X53.125 Y15.0 Z-0.4 I0.5625 J-0.9743
G2 X51.4375 Y14.0257 Z-0.5333 I-1.125 J0.0
G2 Y15.9743 Z-0.6667 I0.5625 J0.9743
G2 X53.125 Y15.0 Z-0.8 I0.5625 J-0.9743
G2 X51.4375 Y14.0257 Z-0.9333 I-1.125 J0.0
G2 Y15.9743 Z-1.0667 I0.5625 J0.9743
G2 X53.125 Y15.0 Z-1.2 I0.5625 J-0.9743
G2 X51.4375 Y14.0257 Z-1.3333 I-1.125 J0.0
G2 Y15.9743 Z-1.4667 I0.5625 J0.9743
G2 X53.125 Y15.0 Z-1.6 I0.5625 J-0.9743
G2 X51.4375 Y14.0257 Z-1.7333 I-1.125 J0.0
G2 Y15.9743 Z-1.8667 I0.5625 J0.9743
G2 X53.125 Y15.0 Z-2.0 I0.5625 J-0.9743
G2 X51.4375 Y14.0257 Z-2.1333 I-1.125 J0.0
G2 Y15.9743 Z-2.2667 I0.5625 J0.9743
G2 X52.7955 Y15.7955 Z-2.35 I0.5625 J-0.9743
G2 X52.2912 Y13.9133 I-0.7955 J-0.7955
G2 X50.9133 Y15.2912 I-0.2912 J1.0867
G2 X52.7955 Y15.7955 I1.0867 J-0.2912
G0 Z3.0
G0 X53.125 Y201.0
G0 Z1.0
G1 F300.0 Z0.0
G2 F200.0 X51.4375 Y200.0257 Z-0.1333 I-1.125 J0.0
G2 Y201.9743 Z-0.2667 I0.5625 J0.9743
G2 X53.125 Y201.0 Z-0.4 I0.5625 J-0.9743
G2 X51.4375 Y200.0257 Z-0.5333 I-1.125 J0.0
G2 Y201.9743 Z-0.6667 I0.5625 J0.9743
G2 X53.125 Y201.0 Z-0.8 I0.5625 J-0.9743
G2 X51.4375 Y200.0257 Z-0.9333 I-1.125 J0.0
G2 Y201.9743 Z-1.0667 I0.5625 J0.9743
G2 X53.125 Y201.0 Z-1.2 I0.5625 J-0.9743
G2 X51.4375 Y200.0257 Z-1.3333 I-1.125 J0.0
G2 Y201.9743 Z-1.4667 I0.5625 J0.9743
G2 X53.125 Y201.0 Z-1.6 I0.5625 J-0.9743
G2 X51.4375 Y200.0257 Z-1.7333 I-1.125 J0.0
G2 Y201.9743 Z-1.8667 I0.5625 J0.9743
G2 X53.125 Y201.0 Z-2.0 I0.5625 J-0.9743
G2 X51.4375 Y200.0257 Z-2.1333 I-1.125 J0.0
G2 Y201.9743 Z-2.2667 I0.5625 J0.9743
G2 X52.7955 Y201.7955 Z-2.35 I0.5625 J-0.9743
G2 X52.2912 Y199.9133 I-0.7955 J-0.7955
G2 X50.9133 Y201.2912 I-0.2912 J1.0867
G2 X52.7955 Y201.7955 I1.0867 J-0.2912
G0 Z3.0
G0 X16.125 Y201.0
G0 Z1.0
G1 F300.0 Z0.0
G2 F200.0 X14.4375 Y200.0257 Z-0.1333 I-1.125 J0.0
G2 Y201.9743 Z-0.2667 I0.5625 J0.9743
G2 X16.125 Y201.0 Z-0.4 I0.5625 J-0.9743
G2 X14.4375 Y200.0257 Z-0.5333 I-1.125 J0.0
G2 Y201.9743 Z-0.6667 I0.5625 J0.9743
G2 X16.125 Y201.0 Z-0.8 I0.5625 J-0.9743
G2 X14.4375 Y200.0257 Z-0.9333 I-1.125 J0.0
G2 Y201.9743 Z-1.0667 I0.5625 J0.9743
G2 X16.125 Y201.0 Z-1.2 I0.5625 J-0.9743
G2 X14.4375 Y200.0257 Z-1.3333 I-1.125 J0.0
G2 Y201.9743 Z-1.4667 I0.5625 J0.9743
G2 X16.125 Y201.0 Z-1.6 I0.5625 J-0.9743
G2 X14.4375 Y200.0257 Z-1.7333 I-1.125 J0.0
G2 Y201.9743 Z-1.8667 I0.5625 J0.9743
G2 X16.125 Y201.0 Z-2.0 I0.5625 J-0.9743
G2 X14.4375 Y200.0257 Z-2.1333 I-1.125 J0.0
G2 Y201.9743 Z-2.2667 I0.5625 J0.9743
G2 X15.7955 Y201.7955 Z-2.35 I0.5625 J-0.9743
G2 X15.2912 Y199.9133 I-0.7955 J-0.7955
G2 X13.9133 Y201.2912 I-0.2912 J1.0867
G2 X15.7955 Y201.7955 I1.0867 J-0.2912
G0 Z3.0
M5
M30
