( Made using CamBam - http://www.cambam.co.uk )
( matrica.gcode.complete-double 8/21/2014 7:58:51 PM )
( T0 : 1.0 )
G21 G90 G64 G40
G0 Z3.0
( T0 : 1.0 )
T0 M6
( drill3.25mm )
G17
M3 S1000
G0 X15.0 Y15.0
G0 Z3.0
G0 X16.125 Y15.0
G0 Z1.0
G1 F300.0 Z0.0
G2 F200.0 X14.4375 Y14.0257 Z-0.1333 I-1.125 J0.0
G2 X13.9301 Y14.6523 Z-0.18 I0.5625 J0.9743
G2 X15.2339 Y16.1004 I1.0699 J0.3476
G2 X15.836 Y14.2472 I-0.2339 J-1.1004
G2 X13.9301 Y14.6523 I-0.836 J0.7528
G0 Z3.0
G0 X53.125 Y15.0
G0 Z1.0
G1 F300.0 Z0.0
G2 F200.0 X51.4375 Y14.0257 Z-0.1333 I-1.125 J0.0
G2 X50.9301 Y14.6523 Z-0.18 I0.5625 J0.9743
G2 X52.2339 Y16.1004 I1.0699 J0.3476
G2 X52.836 Y14.2472 I-0.2339 J-1.1004
G2 X50.9301 Y14.6523 I-0.836 J0.7528
G0 Z3.0
G0 X65.125 Y15.0
G0 Z1.0
G1 F300.0 Z0.0
G2 F200.0 X63.4375 Y14.0257 Z-0.1333 I-1.125 J0.0
G2 X62.9301 Y14.6523 Z-0.18 I0.5625 J0.9743
G2 X64.2339 Y16.1004 I1.0699 J0.3476
G2 X64.836 Y14.2472 I-0.2339 J-1.1004
G2 X62.9301 Y14.6523 I-0.836 J0.7528
G0 Z3.0
G0 X102.125 Y15.0
G0 Z1.0
G1 F300.0 Z0.0
G2 F200.0 X100.4375 Y14.0257 Z-0.1333 I-1.125 J0.0
G2 X99.9301 Y14.6523 Z-0.18 I0.5625 J0.9743
G2 X101.2339 Y16.1004 I1.0699 J0.3476
G2 X101.836 Y14.2472 I-0.2339 J-1.1004
G2 X99.9301 Y14.6523 I-0.836 J0.7528
G0 Z3.0
G0 X102.125 Y201.0
G0 Z1.0
G1 F300.0 Z0.0
G2 F200.0 X100.4375 Y200.0257 Z-0.1333 I-1.125 J0.0
G2 X99.9301 Y200.6523 Z-0.18 I0.5625 J0.9743
G2 X101.2339 Y202.1004 I1.0699 J0.3476
G2 X101.836 Y200.2472 I-0.2339 J-1.1004
G2 X99.9301 Y200.6523 I-0.836 J0.7528
G0 Z3.0
G0 X65.125 Y201.0
G0 Z1.0
G1 F300.0 Z0.0
G2 F200.0 X63.4375 Y200.0257 Z-0.1333 I-1.125 J0.0
G2 X62.9301 Y200.6523 Z-0.18 I0.5625 J0.9743
G2 X64.2339 Y202.1004 I1.0699 J0.3476
G2 X64.836 Y200.2472 I-0.2339 J-1.1004
G2 X62.9301 Y200.6523 I-0.836 J0.7528
G0 Z3.0
G0 X53.125 Y201.0
G0 Z1.0
G1 F300.0 Z0.0
G2 F200.0 X51.4375 Y200.0257 Z-0.1333 I-1.125 J0.0
G2 X50.9301 Y200.6523 Z-0.18 I0.5625 J0.9743
G2 X52.2339 Y202.1004 I1.0699 J0.3476
G2 X52.836 Y200.2472 I-0.2339 J-1.1004
G2 X50.9301 Y200.6523 I-0.836 J0.7528
G0 Z3.0
G0 X16.125 Y201.0
G0 Z1.0
G1 F300.0 Z0.0
G2 F200.0 X14.4375 Y200.0257 Z-0.1333 I-1.125 J0.0
G2 X13.9301 Y200.6523 Z-0.18 I0.5625 J0.9743
G2 X15.2339 Y202.1004 I1.0699 J0.3476
G2 X15.836 Y200.2472 I-0.2339 J-1.1004
G2 X13.9301 Y200.6523 I-0.836 J0.7528
G0 Z3.0
M5
M30
