( Made using CamBam - http://www.cambam.co.uk )
( matrica.gcode.complete-double 8/21/2014 7:58:06 PM )
( T0 : 0.0 )
G21 G90 G64 G40
G0 Z3.0
( T0 : 0.0 )
T0 M6
( drill08mm )
G17
M3 S1000
G0 X43.8858 Y76.4836
G98
G81 X43.8858 Y76.4836 Z-0.18 R3.0 F800.0
G81 X44.8549 Y78.8314 Z-0.18
G81 X45.824 Y81.1793 Z-0.18
G81 X42.9167 Y74.1357 Z-0.18
G81 X41.9475 Y71.7878 Z-0.18
G81 X40.9784 Y69.44 Z-0.18
G81 X40.0093 Y67.0921 Z-0.18
G81 X39.0402 Y64.7443 Z-0.18
G81 X35.7232 Y63.3655 Z-0.18
G81 X34.7541 Y61.0177 Z-0.18
G81 X33.785 Y58.6698 Z-0.18
G81 X32.8159 Y56.322 Z-0.18
G81 X31.8468 Y53.9741 Z-0.18
G81 X30.8777 Y51.6263 Z-0.18
G81 X29.9086 Y49.2784 Z-0.18
G81 X28.9394 Y46.9306 Z-0.18
G81 X37.3617 Y40.7063 Z-0.18
G81 X36.3926 Y38.3584 Z-0.18
G81 X35.4235 Y36.0106 Z-0.18
G81 X34.4544 Y33.6627 Z-0.18
G81 X33.4853 Y31.3148 Z-0.18
G81 X32.5162 Y28.967 Z-0.18
G81 X31.5471 Y26.6191 Z-0.18
G81 X30.5779 Y24.2713 Z-0.18
G81 X42.3172 Y19.4257 Z-0.18
G81 X43.2863 Y21.7736 Z-0.18
G81 X44.2554 Y24.1214 Z-0.18
G81 X45.2246 Y26.4693 Z-0.18
G81 X46.1937 Y28.8171 Z-0.18
G81 X47.1628 Y31.165 Z-0.18
G81 X48.1319 Y33.5128 Z-0.18
G81 X49.101 Y35.8607 Z-0.18
G81 X40.6787 Y42.085 Z-0.18
G81 X41.6478 Y44.4329 Z-0.18
G81 X42.6169 Y46.7807 Z-0.18
G81 X43.5861 Y49.1286 Z-0.18
G81 X44.5552 Y51.4764 Z-0.18
G81 X45.5243 Y53.8243 Z-0.18
G81 X46.4934 Y56.1721 Z-0.18
G81 X47.4625 Y58.52 Z-0.18
G81 X27.3009 Y69.5899 Z-0.18
G81 X28.2701 Y71.9377 Z-0.18
G81 X29.2392 Y74.2856 Z-0.18
G81 X30.2083 Y76.6334 Z-0.18
G81 X31.1774 Y78.9813 Z-0.18
G81 X32.1465 Y81.3291 Z-0.18
G81 X33.1156 Y83.677 Z-0.18
G81 X34.0847 Y86.0248 Z-0.18
G81 X37.4017 Y87.4036 Z-0.18
G81 X38.3708 Y89.7514 Z-0.18
G81 X39.3399 Y92.0993 Z-0.18
G81 X40.309 Y94.4471 Z-0.18
G81 X41.2782 Y96.795 Z-0.18
G81 X42.2473 Y99.1428 Z-0.18
G81 X43.2164 Y101.4907 Z-0.18
G81 X44.1855 Y103.8386 Z-0.18
G81 X35.7632 Y110.0629 Z-0.18
G81 X36.7323 Y112.4107 Z-0.18
G81 X37.7014 Y114.7586 Z-0.18
G81 X38.6705 Y117.1064 Z-0.18
G81 X39.6397 Y119.4543 Z-0.18
G81 X40.6088 Y121.8021 Z-0.18
G81 X41.5779 Y124.15 Z-0.18
G81 X42.547 Y126.4978 Z-0.18
G81 X34.1247 Y132.7221 Z-0.18
G81 X35.0938 Y135.07 Z-0.18
G81 X36.0629 Y137.4179 Z-0.18
G81 X37.032 Y139.7657 Z-0.18
G81 X38.0012 Y142.1136 Z-0.18
G81 X38.9703 Y144.4614 Z-0.18
G81 X39.9394 Y146.8093 Z-0.18
G81 X40.9085 Y149.1571 Z-0.18
G81 X32.4862 Y155.3814 Z-0.18
G81 X33.4553 Y157.7293 Z-0.18
G81 X34.4244 Y160.0771 Z-0.18
G81 X35.3935 Y162.425 Z-0.18
G81 X36.3627 Y164.7729 Z-0.18
G81 X37.3318 Y167.1207 Z-0.18
G81 X38.3009 Y169.4686 Z-0.18
G81 X39.27 Y171.8164 Z-0.18
G81 X30.8477 Y178.0407 Z-0.18
G81 X31.8168 Y180.3886 Z-0.18
G81 X32.7859 Y182.7364 Z-0.18
G81 X33.755 Y185.0843 Z-0.18
G81 X34.7242 Y187.4321 Z-0.18
G81 X35.6933 Y189.78 Z-0.18
G81 X36.6624 Y192.1278 Z-0.18
G81 X37.6315 Y194.4757 Z-0.18
G81 X25.8922 Y199.3213 Z-0.18
G81 X24.9231 Y196.9734 Z-0.18
G81 X23.954 Y194.6256 Z-0.18
G81 X22.9849 Y192.2777 Z-0.18
G81 X22.0158 Y189.9299 Z-0.18
G81 X21.0467 Y187.582 Z-0.18
G81 X20.0775 Y185.2341 Z-0.18
G81 X19.1084 Y182.8863 Z-0.18
G81 X27.5307 Y176.662 Z-0.18
G81 X26.5616 Y174.3141 Z-0.18
G81 X25.5925 Y171.9663 Z-0.18
G81 X24.6234 Y169.6184 Z-0.18
G81 X23.6543 Y167.2706 Z-0.18
G81 X22.6852 Y164.9227 Z-0.18
G81 X21.716 Y162.5749 Z-0.18
G81 X20.7469 Y160.227 Z-0.18
G81 X29.1692 Y154.0027 Z-0.18
G81 X28.2001 Y151.6548 Z-0.18
G81 X27.231 Y149.307 Z-0.18
G81 X26.2619 Y146.9591 Z-0.18
G81 X25.2928 Y144.6113 Z-0.18
G81 X24.3237 Y142.2634 Z-0.18
G81 X23.3545 Y139.9156 Z-0.18
G81 X22.3854 Y137.5677 Z-0.18
G81 X30.8077 Y131.3434 Z-0.18
G81 X29.8386 Y128.9956 Z-0.18
G81 X28.8695 Y126.6477 Z-0.18
G81 X27.9004 Y124.2998 Z-0.18
G81 X26.9313 Y121.952 Z-0.18
G81 X25.9622 Y119.6041 Z-0.18
G81 X24.993 Y117.2563 Z-0.18
G81 X24.0239 Y114.9084 Z-0.18
G81 X32.4462 Y108.6841 Z-0.18
G81 X31.4771 Y106.3363 Z-0.18
G81 X30.508 Y103.9884 Z-0.18
G81 X29.5389 Y101.6406 Z-0.18
G81 X28.5698 Y99.2927 Z-0.18
G81 X27.6007 Y96.9449 Z-0.18
G81 X26.6315 Y94.597 Z-0.18
G81 X25.6624 Y92.2491 Z-0.18
G81 X74.6624 Z-0.18
G81 X75.6315 Y94.597 Z-0.18
G81 X76.6007 Y96.9449 Z-0.18
G81 X77.5698 Y99.2927 Z-0.18
G81 X78.5389 Y101.6406 Z-0.18
G81 X79.508 Y103.9884 Z-0.18
G81 X80.4771 Y106.3363 Z-0.18
G81 X81.4462 Y108.6841 Z-0.18
G81 X84.7632 Y110.0629 Z-0.18
G81 X85.7323 Y112.4107 Z-0.18
G81 X86.7014 Y114.7586 Z-0.18
G81 X87.6705 Y117.1064 Z-0.18
G81 X88.6397 Y119.4543 Z-0.18
G81 X89.6088 Y121.8021 Z-0.18
G81 X90.5779 Y124.15 Z-0.18
G81 X91.547 Y126.4978 Z-0.18
G81 X83.1247 Y132.7221 Z-0.18
G81 X84.0938 Y135.07 Z-0.18
G81 X85.0629 Y137.4179 Z-0.18
G81 X86.032 Y139.7657 Z-0.18
G81 X87.0012 Y142.1136 Z-0.18
G81 X87.9703 Y144.4614 Z-0.18
G81 X88.9394 Y146.8093 Z-0.18
G81 X89.9085 Y149.1571 Z-0.18
G81 X81.4862 Y155.3814 Z-0.18
G81 X82.4553 Y157.7293 Z-0.18
G81 X83.4244 Y160.0771 Z-0.18
G81 X84.3935 Y162.425 Z-0.18
G81 X85.3627 Y164.7729 Z-0.18
G81 X86.3318 Y167.1207 Z-0.18
G81 X87.3009 Y169.4686 Z-0.18
G81 X88.27 Y171.8164 Z-0.18
G81 X79.8477 Y178.0407 Z-0.18
G81 X80.8168 Y180.3886 Z-0.18
G81 X81.7859 Y182.7364 Z-0.18
G81 X82.755 Y185.0843 Z-0.18
G81 X83.7242 Y187.4321 Z-0.18
G81 X84.6933 Y189.78 Z-0.18
G81 X85.6624 Y192.1278 Z-0.18
G81 X86.6315 Y194.4757 Z-0.18
G81 X74.8922 Y199.3213 Z-0.18
G81 X73.9231 Y196.9734 Z-0.18
G81 X72.954 Y194.6256 Z-0.18
G81 X71.9849 Y192.2777 Z-0.18
G81 X71.0158 Y189.9299 Z-0.18
G81 X70.0467 Y187.582 Z-0.18
G81 X69.0775 Y185.2341 Z-0.18
G81 X68.1084 Y182.8863 Z-0.18
G81 X76.5307 Y176.662 Z-0.18
G81 X75.5616 Y174.3141 Z-0.18
G81 X74.5925 Y171.9663 Z-0.18
G81 X73.6234 Y169.6184 Z-0.18
G81 X72.6543 Y167.2706 Z-0.18
G81 X71.6852 Y164.9227 Z-0.18
G81 X70.716 Y162.5749 Z-0.18
G81 X69.7469 Y160.227 Z-0.18
G81 X78.1692 Y154.0027 Z-0.18
G81 X77.2001 Y151.6548 Z-0.18
G81 X76.231 Y149.307 Z-0.18
G81 X75.2619 Y146.9591 Z-0.18
G81 X74.2928 Y144.6113 Z-0.18
G81 X73.3237 Y142.2634 Z-0.18
G81 X72.3545 Y139.9156 Z-0.18
G81 X71.3854 Y137.5677 Z-0.18
G81 X79.8077 Y131.3434 Z-0.18
G81 X78.8386 Y128.9956 Z-0.18
G81 X77.8695 Y126.6477 Z-0.18
G81 X76.9004 Y124.2998 Z-0.18
G81 X75.9313 Y121.952 Z-0.18
G81 X74.9622 Y119.6041 Z-0.18
G81 X73.993 Y117.2563 Z-0.18
G81 X73.0239 Y114.9084 Z-0.18
G81 X93.1855 Y103.8386 Z-0.18
G81 X92.2164 Y101.4907 Z-0.18
G81 X91.2473 Y99.1428 Z-0.18
G81 X90.2782 Y96.795 Z-0.18
G81 X89.309 Y94.4471 Z-0.18
G81 X88.3399 Y92.0993 Z-0.18
G81 X87.3708 Y89.7514 Z-0.18
G81 X86.4017 Y87.4036 Z-0.18
G81 X83.0847 Y86.0248 Z-0.18
G81 X82.1156 Y83.677 Z-0.18
G81 X81.1465 Y81.3291 Z-0.18
G81 X80.1774 Y78.9813 Z-0.18
G81 X79.2083 Y76.6334 Z-0.18
G81 X78.2392 Y74.2856 Z-0.18
G81 X77.2701 Y71.9377 Z-0.18
G81 X76.3009 Y69.5899 Z-0.18
G81 X84.7232 Y63.3655 Z-0.18
G81 X83.7541 Y61.0177 Z-0.18
G81 X82.785 Y58.6698 Z-0.18
G81 X81.8159 Y56.322 Z-0.18
G81 X80.8468 Y53.9741 Z-0.18
G81 X79.8777 Y51.6263 Z-0.18
G81 X78.9086 Y49.2784 Z-0.18
G81 X77.9394 Y46.9306 Z-0.18
G81 X86.3617 Y40.7063 Z-0.18
G81 X85.3926 Y38.3584 Z-0.18
G81 X84.4235 Y36.0106 Z-0.18
G81 X83.4544 Y33.6627 Z-0.18
G81 X82.4853 Y31.3148 Z-0.18
G81 X81.5162 Y28.967 Z-0.18
G81 X80.5471 Y26.6191 Z-0.18
G81 X79.5779 Y24.2713 Z-0.18
G81 X91.3172 Y19.4257 Z-0.18
G81 X92.2863 Y21.7736 Z-0.18
G81 X93.2554 Y24.1214 Z-0.18
G81 X94.2246 Y26.4693 Z-0.18
G81 X95.1937 Y28.8171 Z-0.18
G81 X96.1628 Y31.165 Z-0.18
G81 X97.1319 Y33.5128 Z-0.18
G81 X98.101 Y35.8607 Z-0.18
G81 X89.6787 Y42.085 Z-0.18
G81 X90.6478 Y44.4329 Z-0.18
G81 X91.6169 Y46.7807 Z-0.18
G81 X92.5861 Y49.1286 Z-0.18
G81 X93.5552 Y51.4764 Z-0.18
G81 X94.5243 Y53.8243 Z-0.18
G81 X95.4934 Y56.1721 Z-0.18
G81 X96.4625 Y58.52 Z-0.18
G81 X88.0402 Y64.7443 Z-0.18
G81 X89.0093 Y67.0921 Z-0.18
G81 X89.9784 Y69.44 Z-0.18
G81 X90.9475 Y71.7878 Z-0.18
G81 X91.9167 Y74.1357 Z-0.18
G81 X92.8858 Y76.4836 Z-0.18
G81 X93.8549 Y78.8314 Z-0.18
G81 X94.824 Y81.1793 Z-0.18
G80
G0 Z3.0
M5
M30
