( Made using CamBam - http://www.cambam.co.uk )
( matrica.gcode.complete-double 8/21/2014 9:36:35 PM )
( T0 : 0.6 )
G21 G90 G64 G40
G0 Z3.0
( T0 : 0.6 )
T0 M6
( bottom_deblje )
G17
M3 S1000
G0 X95.0686 Y19.0788
G0 Z1.2
G1 F400.0 Z-0.2
G1 X93.0729 Y19.9025
G1 X92.8953 Y19.4721
G1 X92.3083 Y19.7144
G1 X92.0853 Y20.1728
G1 X91.8046 Y20.3803
G1 X91.4916 Y20.5095
G1 X86.797 Y31.8816
G1 X90.6412 Y41.1947
G1 X90.5586 Y41.5494
G1 X90.6716 Y41.8233
G1 X90.7226 Y42.1687
G1 X90.4468 Y42.8321
G1 X90.1661 Y43.0395
G1 X89.8531 Y43.1688
G1 X85.1585 Y54.5409
G1 X89.0027 Y63.854
G1 X88.9201 Y64.2087
G1 X89.0331 Y64.4826
G1 X89.0841 Y64.828
G1 X88.8083 Y65.4914
G1 X88.5276 Y65.6988
G1 X88.2145 Y65.828
G1 X83.52 Y77.2002
G1 X87.3642 Y86.5133
G1 X87.2816 Y86.868
G1 X87.3946 Y87.1419
G1 X87.4456 Y87.4873
G1 X87.1698 Y88.1506
G1 X86.8891 Y88.3581
G1 X86.576 Y88.4873
G1 X81.8815 Y99.8594
G1 X85.7257 Y109.1726
G1 X85.6431 Y109.5273
G1 X85.7561 Y109.8012
G1 X85.8071 Y110.1465
G1 X85.5313 Y110.8099
G1 X85.2506 Y111.0174
G1 X84.9375 Y111.1466
G1 X80.243 Y122.5187
G1 X84.0872 Y131.8319
G1 X84.0046 Y132.1866
G1 X84.1176 Y132.4605
G1 X84.1686 Y132.8058
G1 X83.8928 Y133.4692
G1 X83.6121 Y133.6767
G1 X83.299 Y133.8059
G1 X78.6045 Y145.178
G1 X82.4487 Y154.4912
G1 X82.3661 Y154.8458
G1 X82.4791 Y155.1198
G1 X82.5301 Y155.4651
G1 X82.2543 Y156.1285
G1 X81.9736 Y156.336
G1 X81.6605 Y156.4652
G1 X76.966 Y167.8373
G1 X80.8102 Y177.1505
G1 X80.7276 Y177.5051
G1 X80.8406 Y177.779
G1 X80.8916 Y178.1244
G1 X80.6158 Y178.7878
G1 X80.3351 Y178.9953
G1 X80.1394 Y179.076
G1 X79.7941 Y179.127
G1 X79.1307 Y178.8512
G1 X78.9232 Y178.5705
G1 X78.8424 Y178.3748
G1 X78.7915 Y178.0295
G1 X79.0672 Y177.3661
G1 X79.348 Y177.1586
G1 X79.4654 Y177.1102
G1 X75.702 Y167.9927
G1 X75.7225 Y167.7094
G1 X80.6102 Y156.0286
G1 X80.481 Y155.7156
G1 X80.43 Y155.3702
G1 X80.7057 Y154.7068
G1 X80.9865 Y154.4993
G1 X81.1039 Y154.4509
G1 X77.3405 Y145.3334
G1 X77.361 Y145.0501
G1 X82.2487 Y133.3693
G1 X82.1195 Y133.0563
G1 X82.0685 Y132.7109
G1 X82.3442 Y132.0475
G1 X82.625 Y131.84
G1 X82.7424 Y131.7916
G1 X78.979 Y122.6741
G1 X78.9995 Y122.3908
G1 X83.8872 Y110.71
G1 X83.758 Y110.397
G1 X83.707 Y110.0516
G1 X83.9828 Y109.3882
G1 X84.2635 Y109.1808
G1 X84.3809 Y109.1323
G1 X80.6175 Y100.0148
G1 X80.638 Y99.7316
G1 X85.5257 Y88.0507
G1 X85.3965 Y87.7377
G1 X85.3455 Y87.3923
G1 X85.6213 Y86.7289
G1 X85.902 Y86.5215
G1 X86.0194 Y86.473
G1 X82.256 Y77.3555
G1 X82.2765 Y77.0723
G1 X87.1642 Y65.3914
G1 X87.035 Y65.0784
G1 X86.984 Y64.733
G1 X87.2598 Y64.0697
G1 X87.5405 Y63.8622
G1 X87.6579 Y63.8137
G1 X83.8945 Y54.6962
G1 X83.915 Y54.413
G1 X88.8027 Y42.7322
G1 X88.6735 Y42.4191
G1 X88.6225 Y42.0738
G1 X88.8983 Y41.4104
G1 X89.179 Y41.2029
G1 X89.2964 Y41.1544
G1 X85.533 Y32.0369
G1 X85.5535 Y31.7537
G1 X90.4412 Y20.0729
G1 X90.312 Y19.7598
G1 X90.261 Y19.4145
G1 X90.5368 Y18.7511
G1 X90.8175 Y18.5436
G1 X91.0132 Y18.4628
G1 X91.3585 Y18.4119
G1 X91.8399 Y18.5796
G1 X92.4269 Y18.3373
G1 X92.2492 Y17.9069
G1 X94.2449 Y17.0831
G1 X95.0686 Y19.0788
G1 X93.0729 Y19.9025
G1 X92.8953 Y19.4721
G1 X92.3083 Y19.7144
G1 X92.0853 Y20.1728
G1 X91.8046 Y20.3803
G1 X91.4916 Y20.5095
G1 X86.797 Y31.8816
G1 X90.6412 Y41.1947
G1 X90.5586 Y41.5494
G1 X90.6716 Y41.8233
G1 X90.7226 Y42.1687
G1 X90.4468 Y42.8321
G1 X90.1661 Y43.0395
G1 X89.8531 Y43.1688
G1 X85.1585 Y54.5409
G1 X89.0027 Y63.854
G1 X88.9201 Y64.2087
G1 X89.0331 Y64.4826
G1 X89.0841 Y64.828
G1 X88.8083 Y65.4914
G1 X88.5276 Y65.6988
G1 X88.2145 Y65.828
G1 X83.52 Y77.2002
G1 X87.3642 Y86.5133
G1 X87.2816 Y86.868
G1 X87.3946 Y87.1419
G1 X87.4456 Y87.4873
G1 X87.1698 Y88.1506
G1 X86.8891 Y88.3581
G1 X86.576 Y88.4873
G1 X81.8815 Y99.8594
G1 X85.7257 Y109.1726
G1 X85.6431 Y109.5273
G1 X85.7561 Y109.8012
G1 X85.8071 Y110.1465
G1 X85.5313 Y110.8099
G1 X85.2506 Y111.0174
G1 X84.9375 Y111.1466
G1 X80.243 Y122.5187
G1 X84.0872 Y131.8319
G1 X84.0046 Y132.1866
G1 X84.1176 Y132.4605
G1 X84.1686 Y132.8058
G1 X83.8928 Y133.4692
G1 X83.6121 Y133.6767
G1 X83.299 Y133.8059
G1 X78.6045 Y145.178
G1 X82.4487 Y154.4912
G1 X82.3661 Y154.8458
G1 X82.4791 Y155.1198
G1 X82.5301 Y155.4651
G1 X82.2543 Y156.1285
G1 X81.9736 Y156.336
G1 X81.6605 Y156.4652
G1 X76.966 Y167.8373
G1 X80.8102 Y177.1505
G1 X80.7276 Y177.5051
G1 X80.8406 Y177.779
G1 X80.8916 Y178.1244
G1 X80.6158 Y178.7878
G1 X80.3351 Y178.9953
G1 X80.1394 Y179.076
G1 X79.7941 Y179.127
G1 X79.1307 Y178.8512
G1 X78.9232 Y178.5705
G1 X78.8424 Y178.3748
G1 X78.7915 Y178.0295
G1 X79.0672 Y177.3661
G1 X79.348 Y177.1586
G1 X79.4654 Y177.1102
G1 X75.702 Y167.9927
G1 X75.7225 Y167.7094
G1 X80.6102 Y156.0286
G1 X80.481 Y155.7156
G1 X80.43 Y155.3702
G1 X80.7057 Y154.7068
G1 X80.9865 Y154.4993
G1 X81.1039 Y154.4509
G1 X77.3405 Y145.3334
G1 X77.361 Y145.0501
G1 X82.2487 Y133.3693
G1 X82.1195 Y133.0563
G1 X82.0685 Y132.7109
G1 X82.3442 Y132.0475
G1 X82.625 Y131.84
G1 X82.7424 Y131.7916
G1 X78.979 Y122.6741
G1 X78.9995 Y122.3908
G1 X83.8872 Y110.71
G1 X83.758 Y110.397
G1 X83.707 Y110.0516
G1 X83.9828 Y109.3882
G1 X84.2635 Y109.1808
G1 X84.3809 Y109.1323
G1 X80.6175 Y100.0148
G1 X80.638 Y99.7316
G1 X85.5257 Y88.0507
G1 X85.3965 Y87.7377
G1 X85.3455 Y87.3923
G1 X85.6213 Y86.7289
G1 X85.902 Y86.5215
G1 X86.0194 Y86.473
G1 X82.256 Y77.3555
G1 X82.2765 Y77.0723
G1 X87.1642 Y65.3914
G1 X87.035 Y65.0784
G1 X86.984 Y64.733
G1 X87.2598 Y64.0697
G1 X87.5405 Y63.8622
G1 X87.6579 Y63.8137
G1 X83.8945 Y54.6962
G1 X83.915 Y54.413
G1 X88.8027 Y42.7322
G1 X88.6735 Y42.4191
G1 X88.6225 Y42.0738
G1 X88.8983 Y41.4104
G1 X89.179 Y41.2029
G1 X89.2964 Y41.1544
G1 X85.533 Y32.0369
G1 X85.5535 Y31.7537
G1 X90.4412 Y20.0729
G1 X90.312 Y19.7598
G1 X90.261 Y19.4145
G1 X90.5368 Y18.7511
G1 X90.8175 Y18.5436
G1 X91.0132 Y18.4628
G1 X91.3585 Y18.4119
G1 X91.8399 Y18.5796
G1 X92.4269 Y18.3373
G1 X92.2492 Y17.9069
G1 X94.2449 Y17.0831
G1 X95.0686 Y19.0788
G0 Z3.0
G0 X94.7584 Y19.8251
G0 Z1.2
G1 Z-0.2
G1 X95.3389 Y20.0664
G1 X95.5463 Y20.3471
G1 X95.6594 Y20.621
G1 X95.6781 Y20.8881
G1 X95.4023 Y21.5515
G1 X95.1216 Y21.759
G1 X94.9259 Y21.8398
G1 X94.5806 Y21.8907
G1 X94.0992 Y21.723
G1 X93.2774 Y22.0622
G1 X93.0545 Y22.5206
G1 X92.7737 Y22.7281
G1 X92.4607 Y22.8573
G1 X88.4555 Y32.5709
G1 X92.2835 Y41.845
G1 X92.263 Y42.1282
G1 X91.5115 Y43.8581
G1 X91.6408 Y44.1712
G1 X91.6917 Y44.5165
G1 X91.416 Y45.1799
G1 X91.1352 Y45.3874
G1 X90.8222 Y45.5166
G1 X86.817 Y55.2302
G1 X90.645 Y64.5043
G1 X90.6245 Y64.7875
G1 X89.873 Y66.5174
G1 X90.0022 Y66.8305
G1 X90.0532 Y67.1758
G1 X89.7775 Y67.8392
G1 X89.4967 Y68.0467
G1 X89.1837 Y68.1759
G1 X85.1785 Y77.8895
G1 X89.0065 Y87.1635
G1 X88.986 Y87.4468
G1 X88.2345 Y89.1767
G1 X88.3637 Y89.4898
G1 X88.4147 Y89.8351
G1 X88.139 Y90.4985
G1 X87.8582 Y90.706
G1 X87.5452 Y90.8352
G1 X83.54 Y100.5488
G1 X87.368 Y109.8228
G1 X87.3475 Y110.1061
G1 X86.596 Y111.836
G1 X86.7252 Y112.149
G1 X86.7762 Y112.4944
G1 X86.5004 Y113.1578
G1 X86.2197 Y113.3653
G1 X85.9067 Y113.4945
G1 X81.9015 Y123.2081
G1 X85.7295 Y132.4821
G1 X85.709 Y132.7654
G1 X84.9575 Y134.4953
G1 X85.0867 Y134.8083
G1 X85.1377 Y135.1537
G1 X84.8619 Y135.8171
G1 X84.5812 Y136.0245
G1 X84.2682 Y136.1538
G1 X80.263 Y145.8674
G1 X84.091 Y155.1414
G1 X84.0705 Y155.4246
G1 X83.319 Y157.1546
G1 X83.4482 Y157.4676
G1 X83.4992 Y157.813
G1 X83.2234 Y158.4764
G1 X82.9427 Y158.6838
G1 X82.6297 Y158.8131
G1 X78.6245 Y168.5267
G1 X82.4525 Y177.8007
G1 X82.432 Y178.0839
G1 X81.6805 Y179.8139
G1 X81.8097 Y180.1269
G1 X81.8607 Y180.4723
G1 X81.5849 Y181.1356
G1 X81.3042 Y181.3431
G1 X81.1085 Y181.4239
G1 X80.7632 Y181.4748
G1 X80.0998 Y181.1991
G1 X79.8923 Y180.9183
G1 X79.8116 Y180.7227
G1 X79.7606 Y180.3773
G1 X80.0364 Y179.7139
G1 X80.3171 Y179.5065
G1 X80.6301 Y179.3773
G1 X81.1885 Y177.9561
G1 X77.3605 Y168.682
G1 X77.381 Y168.3988
G1 X81.5793 Y158.3765
G1 X81.4501 Y158.0634
G1 X81.3991 Y157.7181
G1 X81.6749 Y157.0547
G1 X81.9556 Y156.8472
G1 X82.2687 Y156.718
G1 X82.827 Y155.2968
G1 X78.999 Y146.0227
G1 X79.0195 Y145.7395
G1 X83.2178 Y135.7172
G1 X83.0886 Y135.4041
G1 X83.0376 Y135.0588
G1 X83.3134 Y134.3954
G1 X83.5941 Y134.1879
G1 X83.9072 Y134.0587
G1 X84.4655 Y132.6375
G1 X80.6375 Y123.3635
G1 X80.658 Y123.0802
G1 X84.8563 Y113.0579
G1 X84.7271 Y112.7448
G1 X84.6761 Y112.3995
G1 X84.9519 Y111.7361
G1 X85.2326 Y111.5286
G1 X85.5457 Y111.3994
G1 X86.104 Y109.9782
G1 X82.276 Y100.7042
G1 X82.2965 Y100.4209
G1 X86.4948 Y90.3986
G1 X86.3656 Y90.0855
G1 X86.3146 Y89.7402
G1 X86.5904 Y89.0768
G1 X86.8711 Y88.8693
G1 X87.1842 Y88.7401
G1 X87.7425 Y87.3189
G1 X83.9145 Y78.0449
G1 X83.935 Y77.7616
G1 X88.1333 Y67.7393
G1 X88.0041 Y67.4263
G1 X87.9531 Y67.0809
G1 X88.2289 Y66.4175
G1 X88.5096 Y66.21
G1 X88.8227 Y66.0808
G1 X89.381 Y64.6596
G1 X85.553 Y55.3856
G1 X85.5735 Y55.1024
G1 X89.7718 Y45.08
G1 X89.6426 Y44.767
G1 X89.5916 Y44.4216
G1 X89.8674 Y43.7582
G1 X90.1481 Y43.5507
G1 X90.4612 Y43.4215
G1 X91.0195 Y42.0003
G1 X87.1915 Y32.7263
G1 X87.212 Y32.4431
G1 X91.4103 Y22.4207
G1 X91.2811 Y22.1077
G1 X91.2301 Y21.7623
G1 X91.5059 Y21.0989
G1 X91.7866 Y20.8915
G1 X91.9823 Y20.8107
G1 X92.3276 Y20.7597
G1 X92.809 Y20.9274
G1 X93.6308 Y20.5882
G1 X93.8537 Y20.1298
G1 X94.1345 Y19.9223
G1 X94.3301 Y19.8416
G1 X94.6755 Y19.7906
G1 X94.7584 Y19.8251
G1 X95.3389 Y20.0664
G1 X95.5463 Y20.3471
G1 X95.6594 Y20.621
G1 X95.6781 Y20.8881
G1 X95.4023 Y21.5515
G1 X95.1216 Y21.759
G1 X94.9259 Y21.8398
G1 X94.5806 Y21.8907
G1 X94.0992 Y21.723
G1 X93.2774 Y22.0622
G1 X93.0545 Y22.5206
G1 X92.7737 Y22.7281
G1 X92.4607 Y22.8573
G1 X88.4555 Y32.5709
G1 X92.2835 Y41.845
G1 X92.263 Y42.1282
G1 X91.5115 Y43.8581
G1 X91.6408 Y44.1712
G1 X91.6917 Y44.5165
G1 X91.416 Y45.1799
G1 X91.1352 Y45.3874
G1 X90.8222 Y45.5166
G1 X86.817 Y55.2302
G1 X90.645 Y64.5043
G1 X90.6245 Y64.7875
G1 X89.873 Y66.5174
G1 X90.0022 Y66.8305
G1 X90.0532 Y67.1758
G1 X89.7775 Y67.8392
G1 X89.4967 Y68.0467
G1 X89.1837 Y68.1759
G1 X85.1785 Y77.8895
G1 X89.0065 Y87.1635
G1 X88.986 Y87.4468
G1 X88.2345 Y89.1767
G1 X88.3637 Y89.4898
G1 X88.4147 Y89.8351
G1 X88.139 Y90.4985
G1 X87.8582 Y90.706
G1 X87.5452 Y90.8352
G1 X83.54 Y100.5488
G1 X87.368 Y109.8228
G1 X87.3475 Y110.1061
G1 X86.596 Y111.836
G1 X86.7252 Y112.149
G1 X86.7762 Y112.4944
G1 X86.5004 Y113.1578
G1 X86.2197 Y113.3653
G1 X85.9067 Y113.4945
G1 X81.9015 Y123.2081
G1 X85.7295 Y132.4821
G1 X85.709 Y132.7654
G1 X84.9575 Y134.4953
G1 X85.0867 Y134.8083
G1 X85.1377 Y135.1537
G1 X84.8619 Y135.8171
G1 X84.5812 Y136.0245
G1 X84.2682 Y136.1538
G1 X80.263 Y145.8674
G1 X84.091 Y155.1414
G1 X84.0705 Y155.4246
G1 X83.319 Y157.1546
G1 X83.4482 Y157.4676
G1 X83.4992 Y157.813
G1 X83.2234 Y158.4764
G1 X82.9427 Y158.6838
G1 X82.6297 Y158.8131
G1 X78.6245 Y168.5267
G1 X82.4525 Y177.8007
G1 X82.432 Y178.0839
G1 X81.6805 Y179.8139
G1 X81.8097 Y180.1269
G1 X81.8607 Y180.4723
G1 X81.5849 Y181.1356
G1 X81.3042 Y181.3431
G1 X81.1085 Y181.4239
G1 X80.7632 Y181.4748
G1 X80.0998 Y181.1991
G1 X79.8923 Y180.9183
G1 X79.8116 Y180.7227
G1 X79.7606 Y180.3773
G1 X80.0364 Y179.7139
G1 X80.3171 Y179.5065
G1 X80.6301 Y179.3773
G1 X81.1885 Y177.9561
G1 X77.3605 Y168.682
G1 X77.381 Y168.3988
G1 X81.5793 Y158.3765
G1 X81.4501 Y158.0634
G1 X81.3991 Y157.7181
G1 X81.6749 Y157.0547
G1 X81.9556 Y156.8472
G1 X82.2687 Y156.718
G1 X82.827 Y155.2968
G1 X78.999 Y146.0227
G1 X79.0195 Y145.7395
G1 X83.2178 Y135.7172
G1 X83.0886 Y135.4041
G1 X83.0376 Y135.0588
G1 X83.3134 Y134.3954
G1 X83.5941 Y134.1879
G1 X83.9072 Y134.0587
G1 X84.4655 Y132.6375
G1 X80.6375 Y123.3635
G1 X80.658 Y123.0802
G1 X84.8563 Y113.0579
G1 X84.7271 Y112.7448
G1 X84.6761 Y112.3995
G1 X84.9519 Y111.7361
G1 X85.2326 Y111.5286
G1 X85.5457 Y111.3994
G1 X86.104 Y109.9782
G1 X82.276 Y100.7042
G1 X82.2965 Y100.4209
G1 X86.4948 Y90.3986
G1 X86.3656 Y90.0855
G1 X86.3146 Y89.7402
G1 X86.5904 Y89.0768
G1 X86.8711 Y88.8693
G1 X87.1842 Y88.7401
G1 X87.7425 Y87.3189
G1 X83.9145 Y78.0449
G1 X83.935 Y77.7616
G1 X88.1333 Y67.7393
G1 X88.0041 Y67.4263
G1 X87.9531 Y67.0809
G1 X88.2289 Y66.4175
G1 X88.5096 Y66.21
G1 X88.8227 Y66.0808
G1 X89.381 Y64.6596
G1 X85.553 Y55.3856
G1 X85.5735 Y55.1024
G1 X89.7718 Y45.08
G1 X89.6426 Y44.767
G1 X89.5916 Y44.4216
G1 X89.8674 Y43.7582
G1 X90.1481 Y43.5507
G1 X90.4612 Y43.4215
G1 X91.0195 Y42.0003
G1 X87.1915 Y32.7263
G1 X87.212 Y32.4431
G1 X91.4103 Y22.4207
G1 X91.2811 Y22.1077
G1 X91.2301 Y21.7623
G1 X91.5059 Y21.0989
G1 X91.7866 Y20.8915
G1 X91.9823 Y20.8107
G1 X92.3276 Y20.7597
G1 X92.809 Y20.9274
G1 X93.6308 Y20.5882
G1 X93.8537 Y20.1298
G1 X94.1345 Y19.9223
G1 X94.3301 Y19.8416
G1 X94.6755 Y19.7906
G1 X94.7584 Y19.8251
G0 Z3.0
G0 X95.2992 Y22.1894
G0 Z1.2
G1 Z-0.2
G1 X95.6446 Y22.1385
G1 X96.308 Y22.4142
G1 X96.5155 Y22.695
G1 X96.6285 Y22.9689
G1 X96.6472 Y23.236
G1 X96.3714 Y23.8994
G1 X96.0907 Y24.1069
G1 X95.895 Y24.1876
G1 X95.5497 Y24.2386
G1 X95.0683 Y24.0709
G1 X94.2465 Y24.4101
G1 X94.0236 Y24.8685
G1 X93.7428 Y25.076
G1 X93.4298 Y25.2052
G1 X90.114 Y33.2603
G1 X93.942 Y42.5343
G1 X93.9215 Y42.8176
G1 X92.4806 Y46.206
G1 X92.6099 Y46.519
G1 X92.6608 Y46.8644
G1 X92.3851 Y47.5278
G1 X92.1043 Y47.7353
G1 X91.7913 Y47.8645
G1 X88.4755 Y55.9196
G1 X92.3035 Y65.1936
G1 X92.283 Y65.4769
G1 X90.8421 Y68.8653
G1 X90.9714 Y69.1783
G1 X91.0223 Y69.5237
G1 X90.7466 Y70.1871
G1 X90.4658 Y70.3945
G1 X90.1528 Y70.5238
G1 X86.837 Y78.5789
G1 X90.665 Y87.8529
G1 X90.6445 Y88.1362
G1 X89.2036 Y91.5246
G1 X89.3329 Y91.8376
G1 X89.3838 Y92.183
G1 X89.1081 Y92.8464
G1 X88.8273 Y93.0538
G1 X88.5143 Y93.183
G1 X85.1985 Y101.2382
G1 X89.0265 Y110.5122
G1 X89.006 Y110.7954
G1 X87.5651 Y114.1838
G1 X87.6944 Y114.4969
G1 X87.7453 Y114.8422
G1 X87.4696 Y115.5056
G1 X87.1888 Y115.7131
G1 X86.8758 Y115.8423
G1 X83.56 Y123.8975
G1 X87.388 Y133.1715
G1 X87.3675 Y133.4547
G1 X85.9266 Y136.8431
G1 X86.0559 Y137.1562
G1 X86.1068 Y137.5015
G1 X85.8311 Y138.1649
G1 X85.5503 Y138.3724
G1 X85.2373 Y138.5016
G1 X81.9215 Y146.5568
G1 X85.7495 Y155.8308
G1 X85.729 Y156.114
G1 X84.2881 Y159.5024
G1 X84.4174 Y159.8155
G1 X84.4683 Y160.1608
G1 X84.1926 Y160.8242
G1 X83.9118 Y161.0317
G1 X83.5988 Y161.1609
G1 X80.283 Y169.216
G1 X84.111 Y178.4901
G1 X84.0905 Y178.7733
G1 X82.6496 Y182.1617
G1 X82.7789 Y182.4748
G1 X82.8298 Y182.8201
G1 X82.5541 Y183.4835
G1 X82.2733 Y183.691
G1 X82.0777 Y183.7717
G1 X81.7323 Y183.8227
G1 X81.0689 Y183.5469
G1 X80.8614 Y183.2662
G1 X80.7807 Y183.0705
G1 X80.7297 Y182.7252
G1 X81.0055 Y182.0618
G1 X81.2862 Y181.8543
G1 X81.5993 Y181.7251
G1 X82.847 Y178.6454
G1 X79.019 Y169.3714
G1 X79.0394 Y169.0882
G1 X82.5484 Y160.7243
G1 X82.4192 Y160.4113
G1 X82.3682 Y160.0659
G1 X82.644 Y159.4025
G1 X82.9247 Y159.195
G1 X83.2378 Y159.0658
G1 X84.4855 Y155.9861
G1 X80.6575 Y146.7121
G1 X80.6779 Y146.4289
G1 X84.1869 Y138.065
G1 X84.0577 Y137.752
G1 X84.0067 Y137.4066
G1 X84.2825 Y136.7432
G1 X84.5632 Y136.5357
G1 X84.8763 Y136.4065
G1 X86.124 Y133.3268
G1 X82.296 Y124.0528
G1 X82.3164 Y123.7696
G1 X85.8254 Y115.4057
G1 X85.6962 Y115.0927
G1 X85.6452 Y114.7473
G1 X85.921 Y114.0839
G1 X86.2017 Y113.8765
G1 X86.5148 Y113.7472
G1 X87.7625 Y110.6676
G1 X83.9345 Y101.3935
G1 X83.9549 Y101.1103
G1 X87.4639 Y92.7464
G1 X87.3347 Y92.4334
G1 X87.2837 Y92.088
G1 X87.5595 Y91.4247
G1 X87.8402 Y91.2172
G1 X88.1533 Y91.088
G1 X89.401 Y88.0083
G1 X85.573 Y78.7343
G1 X85.5934 Y78.451
G1 X89.1024 Y70.0872
G1 X88.9732 Y69.7741
G1 X88.9222 Y69.4288
G1 X89.198 Y68.7654
G1 X89.4787 Y68.5579
G1 X89.7918 Y68.4287
G1 X91.0395 Y65.349
G1 X87.2115 Y56.075
G1 X87.2319 Y55.7917
G1 X90.7409 Y47.4279
G1 X90.6117 Y47.1148
G1 X90.5607 Y46.7695
G1 X90.8365 Y46.1061
G1 X91.1172 Y45.8986
G1 X91.4303 Y45.7694
G1 X92.678 Y42.6897
G1 X88.85 Y33.4157
G1 X88.8704 Y33.1324
G1 X92.3794 Y24.7686
G1 X92.2502 Y24.4555
G1 X92.1992 Y24.1102
G1 X92.475 Y23.4468
G1 X92.7557 Y23.2393
G1 X92.9514 Y23.1586
G1 X93.2967 Y23.1076
G1 X93.7781 Y23.2753
G1 X94.5999 Y22.9361
G1 X94.8228 Y22.4777
G1 X95.1036 Y22.2702
G1 X95.2992 Y22.1894
G1 X95.6446 Y22.1385
G1 X96.308 Y22.4142
G1 X96.5155 Y22.695
G1 X96.6285 Y22.9689
G1 X96.6472 Y23.236
G1 X96.3714 Y23.8994
G1 X96.0907 Y24.1069
G1 X95.895 Y24.1876
G1 X95.5497 Y24.2386
G1 X95.0683 Y24.0709
G1 X94.2465 Y24.4101
G1 X94.0236 Y24.8685
G1 X93.7428 Y25.076
G1 X93.4298 Y25.2052
G1 X90.114 Y33.2603
G1 X93.942 Y42.5343
G1 X93.9215 Y42.8176
G1 X92.4806 Y46.206
G1 X92.6099 Y46.519
G1 X92.6608 Y46.8644
G1 X92.3851 Y47.5278
G1 X92.1043 Y47.7353
G1 X91.7913 Y47.8645
G1 X88.4755 Y55.9196
G1 X92.3035 Y65.1936
G1 X92.283 Y65.4769
G1 X90.8421 Y68.8653
G1 X90.9714 Y69.1783
G1 X91.0223 Y69.5237
G1 X90.7466 Y70.1871
G1 X90.4658 Y70.3945
G1 X90.1528 Y70.5238
G1 X86.837 Y78.5789
G1 X90.665 Y87.8529
G1 X90.6445 Y88.1362
G1 X89.2036 Y91.5246
G1 X89.3329 Y91.8376
G1 X89.3838 Y92.183
G1 X89.1081 Y92.8464
G1 X88.8273 Y93.0538
G1 X88.5143 Y93.183
G1 X85.1985 Y101.2382
G1 X89.0265 Y110.5122
G1 X89.006 Y110.7954
G1 X87.5651 Y114.1838
G1 X87.6944 Y114.4969
G1 X87.7453 Y114.8422
G1 X87.4696 Y115.5056
G1 X87.1888 Y115.7131
G1 X86.8758 Y115.8423
G1 X83.56 Y123.8975
G1 X87.388 Y133.1715
G1 X87.3675 Y133.4547
G1 X85.9266 Y136.8431
G1 X86.0559 Y137.1562
G1 X86.1068 Y137.5015
G1 X85.8311 Y138.1649
G1 X85.5503 Y138.3724
G1 X85.2373 Y138.5016
G1 X81.9215 Y146.5568
G1 X85.7495 Y155.8308
G1 X85.729 Y156.114
G1 X84.2881 Y159.5024
G1 X84.4174 Y159.8155
G1 X84.4683 Y160.1608
G1 X84.1926 Y160.8242
G1 X83.9118 Y161.0317
G1 X83.5988 Y161.1609
G1 X80.283 Y169.216
G1 X84.111 Y178.4901
G1 X84.0905 Y178.7733
G1 X82.6496 Y182.1617
G1 X82.7789 Y182.4748
G1 X82.8298 Y182.8201
G1 X82.5541 Y183.4835
G1 X82.2733 Y183.691
G1 X82.0777 Y183.7717
G1 X81.7323 Y183.8227
G1 X81.0689 Y183.5469
G1 X80.8614 Y183.2662
G1 X80.7807 Y183.0705
G1 X80.7297 Y182.7252
G1 X81.0055 Y182.0618
G1 X81.2862 Y181.8543
G1 X81.5993 Y181.7251
G1 X82.847 Y178.6454
G1 X79.019 Y169.3714
G1 X79.0394 Y169.0882
G1 X82.5484 Y160.7243
G1 X82.4192 Y160.4113
G1 X82.3682 Y160.0659
G1 X82.644 Y159.4025
G1 X82.9247 Y159.195
G1 X83.2378 Y159.0658
G1 X84.4855 Y155.9861
G1 X80.6575 Y146.7121
G1 X80.6779 Y146.4289
G1 X84.1869 Y138.065
G1 X84.0577 Y137.752
G1 X84.0067 Y137.4066
G1 X84.2825 Y136.7432
G1 X84.5632 Y136.5357
G1 X84.8763 Y136.4065
G1 X86.124 Y133.3268
G1 X82.296 Y124.0528
G1 X82.3164 Y123.7696
G1 X85.8254 Y115.4057
G1 X85.6962 Y115.0927
G1 X85.6452 Y114.7473
G1 X85.921 Y114.0839
G1 X86.2017 Y113.8765
G1 X86.5148 Y113.7472
G1 X87.7625 Y110.6676
G1 X83.9345 Y101.3935
G1 X83.9549 Y101.1103
G1 X87.4639 Y92.7464
G1 X87.3347 Y92.4334
G1 X87.2837 Y92.088
G1 X87.5595 Y91.4247
G1 X87.8402 Y91.2172
G1 X88.1533 Y91.088
G1 X89.401 Y88.0083
G1 X85.573 Y78.7343
G1 X85.5934 Y78.451
G1 X89.1024 Y70.0872
G1 X88.9732 Y69.7741
G1 X88.9222 Y69.4288
G1 X89.198 Y68.7654
G1 X89.4787 Y68.5579
G1 X89.7918 Y68.4287
G1 X91.0395 Y65.349
G1 X87.2115 Y56.075
G1 X87.2319 Y55.7917
G1 X90.7409 Y47.4279
G1 X90.6117 Y47.1148
G1 X90.5607 Y46.7695
G1 X90.8365 Y46.1061
G1 X91.1172 Y45.8986
G1 X91.4303 Y45.7694
G1 X92.678 Y42.6897
G1 X88.85 Y33.4157
G1 X88.8704 Y33.1324
G1 X92.3794 Y24.7686
G1 X92.2502 Y24.4555
G1 X92.1992 Y24.1102
G1 X92.475 Y23.4468
G1 X92.7557 Y23.2393
G1 X92.9514 Y23.1586
G1 X93.2967 Y23.1076
G1 X93.7781 Y23.2753
G1 X94.5999 Y22.9361
G1 X94.8228 Y22.4777
G1 X95.1036 Y22.2702
G1 X95.2992 Y22.1894
G0 Z3.0
G0 X96.2684 Y24.5373
G0 Z1.2
G1 Z-0.2
G1 X96.6137 Y24.4863
G1 X97.2771 Y24.7621
G1 X97.4846 Y25.0428
G1 X97.5976 Y25.3167
G1 X97.6163 Y25.5838
G1 X97.3405 Y26.2472
G1 X97.0598 Y26.4547
G1 X96.8641 Y26.5355
G1 X96.5188 Y26.5864
G1 X96.0374 Y26.4187
G1 X95.2156 Y26.7579
G1 X94.9927 Y27.2163
G1 X94.7119 Y27.4238
G1 X94.3989 Y27.553
G1 X91.7725 Y33.9497
G1 X95.6005 Y43.2237
G1 X95.58 Y43.507
G1 X93.4498 Y48.5538
G1 X93.579 Y48.8669
G1 X93.6299 Y49.2122
G1 X93.3542 Y49.8756
G1 X93.0734 Y50.0831
G1 X92.7604 Y50.2123
G1 X90.134 Y56.609
G1 X93.962 Y65.883
G1 X93.9415 Y66.1662
G1 X91.8113 Y71.2131
G1 X91.9405 Y71.5262
G1 X91.9914 Y71.8715
G1 X91.7157 Y72.5349
G1 X91.4349 Y72.7424
G1 X91.1219 Y72.8716
G1 X88.4955 Y79.2683
G1 X92.3235 Y88.5423
G1 X92.303 Y88.8255
G1 X90.1728 Y93.8724
G1 X90.302 Y94.1855
G1 X90.3529 Y94.5308
G1 X90.0772 Y95.1942
G1 X89.7964 Y95.4017
G1 X89.4834 Y95.5309
G1 X86.857 Y101.9276
G1 X90.685 Y111.2016
G1 X90.6645 Y111.4848
G1 X88.5343 Y116.5317
G1 X88.6635 Y116.8447
G1 X88.7144 Y117.1901
G1 X88.4387 Y117.8535
G1 X88.1579 Y118.061
G1 X87.8449 Y118.1902
G1 X85.2185 Y124.5868
G1 X89.0465 Y133.8609
G1 X89.026 Y134.1441
G1 X86.8958 Y139.191
G1 X87.025 Y139.504
G1 X87.0759 Y139.8494
G1 X86.8002 Y140.5128
G1 X86.5194 Y140.7203
G1 X86.2064 Y140.8495
G1 X83.58 Y147.2461
G1 X87.408 Y156.5201
G1 X87.3875 Y156.8034
G1 X85.2573 Y161.8503
G1 X85.3865 Y162.1633
G1 X85.4374 Y162.5087
G1 X85.1617 Y163.1721
G1 X84.8809 Y163.3795
G1 X84.5679 Y163.5088
G1 X81.9414 Y169.9054
G1 X85.7695 Y179.1794
G1 X85.749 Y179.4627
G1 X83.6188 Y184.5096
G1 X83.748 Y184.8226
G1 X83.7989 Y185.168
G1 X83.5232 Y185.8314
G1 X83.2424 Y186.0388
G1 X83.0468 Y186.1196
G1 X82.7014 Y186.1705
G1 X82.038 Y185.8948
G1 X81.8306 Y185.6141
G1 X81.7498 Y185.4184
G1 X81.6988 Y185.073
G1 X81.9746 Y184.4097
G1 X82.2553 Y184.2022
G1 X82.5684 Y184.073
G1 X84.5054 Y179.3348
G1 X80.6774 Y170.0608
G1 X80.6979 Y169.7775
G1 X83.5175 Y163.0722
G1 X83.3883 Y162.7591
G1 X83.3373 Y162.4138
G1 X83.6131 Y161.7504
G1 X83.8938 Y161.5429
G1 X84.2069 Y161.4137
G1 X86.1439 Y156.6755
G1 X82.3159 Y147.4015
G1 X82.3364 Y147.1182
G1 X85.156 Y140.4129
G1 X85.0268 Y140.0998
G1 X84.9758 Y139.7545
G1 X85.2516 Y139.0911
G1 X85.5323 Y138.8836
G1 X85.8454 Y138.7544
G1 X87.7824 Y134.0162
G1 X83.9544 Y124.7422
G1 X83.9749 Y124.459
G1 X86.7945 Y117.7536
G1 X86.6653 Y117.4405
G1 X86.6143 Y117.0952
G1 X86.8901 Y116.4318
G1 X87.1708 Y116.2243
G1 X87.4839 Y116.0951
G1 X89.4209 Y111.3569
G1 X85.5929 Y102.0829
G1 X85.6134 Y101.7997
G1 X88.433 Y95.0943
G1 X88.3038 Y94.7812
G1 X88.2528 Y94.4359
G1 X88.5286 Y93.7725
G1 X88.8093 Y93.565
G1 X89.1224 Y93.4358
G1 X91.0594 Y88.6976
G1 X87.2314 Y79.4236
G1 X87.2519 Y79.1404
G1 X90.0715 Y72.435
G1 X89.9423 Y72.122
G1 X89.8913 Y71.7766
G1 X90.1671 Y71.1132
G1 X90.4478 Y70.9057
G1 X90.7609 Y70.7765
G1 X92.698 Y66.0384
G1 X88.8699 Y56.7643
G1 X88.8904 Y56.4811
G1 X91.71 Y49.7757
G1 X91.5808 Y49.4627
G1 X91.5299 Y49.1173
G1 X91.8056 Y48.4539
G1 X92.0863 Y48.2465
G1 X92.3994 Y48.1172
G1 X94.3365 Y43.3791
G1 X90.5085 Y34.105
G1 X90.5289 Y33.8218
G1 X93.3485 Y27.1164
G1 X93.2193 Y26.8034
G1 X93.1684 Y26.458
G1 X93.4441 Y25.7946
G1 X93.7248 Y25.5872
G1 X93.9205 Y25.5064
G1 X94.2659 Y25.4555
G1 X94.7472 Y25.6231
G1 X95.569 Y25.2839
G1 X95.792 Y24.8255
G1 X96.0727 Y24.6181
G1 X96.2684 Y24.5373
G1 X96.6137 Y24.4863
G1 X97.2771 Y24.7621
G1 X97.4846 Y25.0428
G1 X97.5976 Y25.3167
G1 X97.6163 Y25.5838
G1 X97.3405 Y26.2472
G1 X97.0598 Y26.4547
G1 X96.8641 Y26.5355
G1 X96.5188 Y26.5864
G1 X96.0374 Y26.4187
G1 X95.2156 Y26.7579
G1 X94.9927 Y27.2163
G1 X94.7119 Y27.4238
G1 X94.3989 Y27.553
G1 X91.7725 Y33.9497
G1 X95.6005 Y43.2237
G1 X95.58 Y43.507
G1 X93.4498 Y48.5538
G1 X93.579 Y48.8669
G1 X93.6299 Y49.2122
G1 X93.3542 Y49.8756
G1 X93.0734 Y50.0831
G1 X92.7604 Y50.2123
G1 X90.134 Y56.609
G1 X93.962 Y65.883
G1 X93.9415 Y66.1662
G1 X91.8113 Y71.2131
G1 X91.9405 Y71.5262
G1 X91.9914 Y71.8715
G1 X91.7157 Y72.5349
G1 X91.4349 Y72.7424
G1 X91.1219 Y72.8716
G1 X88.4955 Y79.2683
G1 X92.3235 Y88.5423
G1 X92.303 Y88.8255
G1 X90.1728 Y93.8724
G1 X90.302 Y94.1855
G1 X90.3529 Y94.5308
G1 X90.0772 Y95.1942
G1 X89.7964 Y95.4017
G1 X89.4834 Y95.5309
G1 X86.857 Y101.9276
G1 X90.685 Y111.2016
G1 X90.6645 Y111.4848
G1 X88.5343 Y116.5317
G1 X88.6635 Y116.8447
G1 X88.7144 Y117.1901
G1 X88.4387 Y117.8535
G1 X88.1579 Y118.061
G1 X87.8449 Y118.1902
G1 X85.2185 Y124.5868
G1 X89.0465 Y133.8609
G1 X89.026 Y134.1441
G1 X86.8958 Y139.191
G1 X87.025 Y139.504
G1 X87.0759 Y139.8494
G1 X86.8002 Y140.5128
G1 X86.5194 Y140.7203
G1 X86.2064 Y140.8495
G1 X83.58 Y147.2461
G1 X87.408 Y156.5201
G1 X87.3875 Y156.8034
G1 X85.2573 Y161.8503
G1 X85.3865 Y162.1633
G1 X85.4374 Y162.5087
G1 X85.1617 Y163.1721
G1 X84.8809 Y163.3795
G1 X84.5679 Y163.5088
G1 X81.9414 Y169.9054
G1 X85.7695 Y179.1794
G1 X85.749 Y179.4627
G1 X83.6188 Y184.5096
G1 X83.748 Y184.8226
G1 X83.7989 Y185.168
G1 X83.5232 Y185.8314
G1 X83.2424 Y186.0388
G1 X83.0468 Y186.1196
G1 X82.7014 Y186.1705
G1 X82.038 Y185.8948
G1 X81.8306 Y185.6141
G1 X81.7498 Y185.4184
G1 X81.6988 Y185.073
G1 X81.9746 Y184.4097
G1 X82.2553 Y184.2022
G1 X82.5684 Y184.073
G1 X84.5054 Y179.3348
G1 X80.6774 Y170.0608
G1 X80.6979 Y169.7775
G1 X83.5175 Y163.0722
G1 X83.3883 Y162.7591
G1 X83.3373 Y162.4138
G1 X83.6131 Y161.7504
G1 X83.8938 Y161.5429
G1 X84.2069 Y161.4137
G1 X86.1439 Y156.6755
G1 X82.3159 Y147.4015
G1 X82.3364 Y147.1182
G1 X85.156 Y140.4129
G1 X85.0268 Y140.0998
G1 X84.9758 Y139.7545
G1 X85.2516 Y139.0911
G1 X85.5323 Y138.8836
G1 X85.8454 Y138.7544
G1 X87.7824 Y134.0162
G1 X83.9544 Y124.7422
G1 X83.9749 Y124.459
G1 X86.7945 Y117.7536
G1 X86.6653 Y117.4405
G1 X86.6143 Y117.0952
G1 X86.8901 Y116.4318
G1 X87.1708 Y116.2243
G1 X87.4839 Y116.0951
G1 X89.4209 Y111.3569
G1 X85.5929 Y102.0829
G1 X85.6134 Y101.7997
G1 X88.433 Y95.0943
G1 X88.3038 Y94.7812
G1 X88.2528 Y94.4359
G1 X88.5286 Y93.7725
G1 X88.8093 Y93.565
G1 X89.1224 Y93.4358
G1 X91.0594 Y88.6976
G1 X87.2314 Y79.4236
G1 X87.2519 Y79.1404
G1 X90.0715 Y72.435
G1 X89.9423 Y72.122
G1 X89.8913 Y71.7766
G1 X90.1671 Y71.1132
G1 X90.4478 Y70.9057
G1 X90.7609 Y70.7765
G1 X92.698 Y66.0384
G1 X88.8699 Y56.7643
G1 X88.8904 Y56.4811
G1 X91.71 Y49.7757
G1 X91.5808 Y49.4627
G1 X91.5299 Y49.1173
G1 X91.8056 Y48.4539
G1 X92.0863 Y48.2465
G1 X92.3994 Y48.1172
G1 X94.3365 Y43.3791
G1 X90.5085 Y34.105
G1 X90.5289 Y33.8218
G1 X93.3485 Y27.1164
G1 X93.2193 Y26.8034
G1 X93.1684 Y26.458
G1 X93.4441 Y25.7946
G1 X93.7248 Y25.5872
G1 X93.9205 Y25.5064
G1 X94.2659 Y25.4555
G1 X94.7472 Y25.6231
G1 X95.569 Y25.2839
G1 X95.792 Y24.8255
G1 X96.0727 Y24.6181
G1 X96.2684 Y24.5373
G0 Z3.0
G0 X97.2375 Y26.8851
G0 Z1.2
G1 Z-0.2
G1 X97.5828 Y26.8342
G1 X98.2462 Y27.1099
G1 X98.4537 Y27.3907
G1 X98.5668 Y27.6646
G1 X98.5854 Y27.9317
G1 X98.3097 Y28.5951
G1 X98.0289 Y28.8026
G1 X97.8333 Y28.8833
G1 X97.4879 Y28.9343
G1 X97.0065 Y28.7666
G1 X96.1848 Y29.1058
G1 X95.9618 Y29.5642
G1 X95.6811 Y29.7717
G1 X95.368 Y29.9009
G1 X93.4309 Y34.6391
G1 X97.2589 Y43.9131
G1 X97.2385 Y44.1963
G1 X94.4189 Y50.9017
G1 X94.5481 Y51.2147
G1 X94.599 Y51.5601
G1 X94.3233 Y52.2235
G1 X94.0426 Y52.431
G1 X93.7295 Y52.5602
G1 X91.7924 Y57.2983
G1 X95.6204 Y66.5724
G1 X95.6 Y66.8556
G1 X92.7804 Y73.561
G1 X92.9096 Y73.874
G1 X92.9605 Y74.2194
G1 X92.6848 Y74.8828
G1 X92.4041 Y75.0902
G1 X92.091 Y75.2195
G1 X90.1539 Y79.9576
G1 X93.9819 Y89.2317
G1 X93.9615 Y89.5149
G1 X91.1419 Y96.2203
G1 X91.2711 Y96.5333
G1 X91.322 Y96.8787
G1 X91.0463 Y97.5421
G1 X90.7656 Y97.7495
G1 X90.4525 Y97.8788
G1 X88.5154 Y102.6169
G1 X92.3434 Y111.8909
G1 X92.323 Y112.1742
G1 X89.5034 Y118.8796
G1 X89.6326 Y119.1926
G1 X89.6835 Y119.538
G1 X89.4078 Y120.2013
G1 X89.127 Y120.4088
G1 X88.814 Y120.538
G1 X86.8769 Y125.2762
G1 X90.7049 Y134.5502
G1 X90.6845 Y134.8335
G1 X87.8649 Y141.5388
G1 X87.9941 Y141.8519
G1 X88.045 Y142.1972
G1 X87.7693 Y142.8606
G1 X87.4885 Y143.0681
G1 X87.1755 Y143.1973
G1 X85.2384 Y147.9355
G1 X89.0664 Y157.2095
G1 X89.046 Y157.4928
G1 X86.2264 Y164.1981
G1 X86.3556 Y164.5112
G1 X86.4065 Y164.8565
G1 X86.1308 Y165.5199
G1 X85.85 Y165.7274
G1 X85.537 Y165.8566
G1 X83.5999 Y170.5948
G1 X87.4279 Y179.8688
G1 X87.4075 Y180.152
G1 X84.5879 Y186.8574
G1 X84.7171 Y187.1705
G1 X84.768 Y187.5158
G1 X84.4923 Y188.1792
G1 X84.2115 Y188.3867
G1 X84.0159 Y188.4674
G1 X83.6705 Y188.5184
G1 X83.0071 Y188.2427
G1 X82.7997 Y187.9619
G1 X82.7189 Y187.7663
G1 X82.668 Y187.4209
G1 X82.9437 Y186.7575
G1 X83.2244 Y186.55
G1 X83.5375 Y186.4208
G1 X86.1639 Y180.0242
G1 X82.3359 Y170.7501
G1 X82.3564 Y170.4669
G1 X84.4866 Y165.42
G1 X84.3574 Y165.107
G1 X84.3065 Y164.7616
G1 X84.5822 Y164.0982
G1 X84.8629 Y163.8907
G1 X85.176 Y163.7615
G1 X87.8024 Y157.3649
G1 X83.9744 Y148.0909
G1 X83.9949 Y147.8076
G1 X86.1251 Y142.7607
G1 X85.9959 Y142.4477
G1 X85.945 Y142.1023
G1 X86.2207 Y141.4389
G1 X86.5014 Y141.2315
G1 X86.8145 Y141.1022
G1 X89.4409 Y134.7056
G1 X85.6129 Y125.4316
G1 X85.6334 Y125.1483
G1 X87.7636 Y120.1014
G1 X87.6344 Y119.7884
G1 X87.5835 Y119.443
G1 X87.8592 Y118.7796
G1 X88.14 Y118.5722
G1 X88.453 Y118.443
G1 X91.0794 Y112.0463
G1 X87.2514 Y102.7723
G1 X87.2719 Y102.489
G1 X89.4021 Y97.4422
G1 X89.2729 Y97.1291
G1 X89.222 Y96.7838
G1 X89.4977 Y96.1204
G1 X89.7785 Y95.9129
G1 X90.0915 Y95.7837
G1 X92.7179 Y89.387
G1 X88.8899 Y80.113
G1 X88.9104 Y79.8297
G1 X91.0406 Y74.7829
G1 X90.9114 Y74.4698
G1 X90.8605 Y74.1245
G1 X91.1362 Y73.4611
G1 X91.417 Y73.2536
G1 X91.73 Y73.1244
G1 X94.3564 Y66.7277
G1 X90.5284 Y57.4537
G1 X90.5489 Y57.1705
G1 X92.6791 Y52.1236
G1 X92.5499 Y51.8105
G1 X92.499 Y51.4652
G1 X92.7747 Y50.8018
G1 X93.0555 Y50.5943
G1 X93.3685 Y50.4651
G1 X95.9949 Y44.0684
G1 X92.1669 Y34.7944
G1 X92.1874 Y34.5112
G1 X94.3176 Y29.4643
G1 X94.1884 Y29.1512
G1 X94.1375 Y28.8059
G1 X94.4132 Y28.1425
G1 X94.694 Y27.935
G1 X94.8896 Y27.8543
G1 X95.235 Y27.8033
G1 X95.7164 Y27.971
G1 X96.5381 Y27.6318
G1 X96.7611 Y27.1734
G1 X97.0418 Y26.9659
G1 X97.2375 Y26.8851
G1 X97.5828 Y26.8342
G1 X98.2462 Y27.1099
G1 X98.4537 Y27.3907
G1 X98.5668 Y27.6646
G1 X98.5854 Y27.9317
G1 X98.3097 Y28.5951
G1 X98.0289 Y28.8026
G1 X97.8333 Y28.8833
G1 X97.4879 Y28.9343
G1 X97.0065 Y28.7666
G1 X96.1848 Y29.1058
G1 X95.9618 Y29.5642
G1 X95.6811 Y29.7717
G1 X95.368 Y29.9009
G1 X93.4309 Y34.6391
G1 X97.2589 Y43.9131
G1 X97.2385 Y44.1963
G1 X94.4189 Y50.9017
G1 X94.5481 Y51.2147
G1 X94.599 Y51.5601
G1 X94.3233 Y52.2235
G1 X94.0426 Y52.431
G1 X93.7295 Y52.5602
G1 X91.7924 Y57.2983
G1 X95.6204 Y66.5724
G1 X95.6 Y66.8556
G1 X92.7804 Y73.561
G1 X92.9096 Y73.874
G1 X92.9605 Y74.2194
G1 X92.6848 Y74.8828
G1 X92.4041 Y75.0902
G1 X92.091 Y75.2195
G1 X90.1539 Y79.9576
G1 X93.9819 Y89.2317
G1 X93.9615 Y89.5149
G1 X91.1419 Y96.2203
G1 X91.2711 Y96.5333
G1 X91.322 Y96.8787
G1 X91.0463 Y97.5421
G1 X90.7656 Y97.7495
G1 X90.4525 Y97.8788
G1 X88.5154 Y102.6169
G1 X92.3434 Y111.8909
G1 X92.323 Y112.1742
G1 X89.5034 Y118.8796
G1 X89.6326 Y119.1926
G1 X89.6835 Y119.538
G1 X89.4078 Y120.2013
G1 X89.127 Y120.4088
G1 X88.814 Y120.538
G1 X86.8769 Y125.2762
G1 X90.7049 Y134.5502
G1 X90.6845 Y134.8335
G1 X87.8649 Y141.5388
G1 X87.9941 Y141.8519
G1 X88.045 Y142.1972
G1 X87.7693 Y142.8606
G1 X87.4885 Y143.0681
G1 X87.1755 Y143.1973
G1 X85.2384 Y147.9355
G1 X89.0664 Y157.2095
G1 X89.046 Y157.4928
G1 X86.2264 Y164.1981
G1 X86.3556 Y164.5112
G1 X86.4065 Y164.8565
G1 X86.1308 Y165.5199
G1 X85.85 Y165.7274
G1 X85.537 Y165.8566
G1 X83.5999 Y170.5948
G1 X87.4279 Y179.8688
G1 X87.4075 Y180.152
G1 X84.5879 Y186.8574
G1 X84.7171 Y187.1705
G1 X84.768 Y187.5158
G1 X84.4923 Y188.1792
G1 X84.2115 Y188.3867
G1 X84.0159 Y188.4674
G1 X83.6705 Y188.5184
G1 X83.0071 Y188.2427
G1 X82.7997 Y187.9619
G1 X82.7189 Y187.7663
G1 X82.668 Y187.4209
G1 X82.9437 Y186.7575
G1 X83.2244 Y186.55
G1 X83.5375 Y186.4208
G1 X86.1639 Y180.0242
G1 X82.3359 Y170.7501
G1 X82.3564 Y170.4669
G1 X84.4866 Y165.42
G1 X84.3574 Y165.107
G1 X84.3065 Y164.7616
G1 X84.5822 Y164.0982
G1 X84.8629 Y163.8907
G1 X85.176 Y163.7615
G1 X87.8024 Y157.3649
G1 X83.9744 Y148.0909
G1 X83.9949 Y147.8076
G1 X86.1251 Y142.7607
G1 X85.9959 Y142.4477
G1 X85.945 Y142.1023
G1 X86.2207 Y141.4389
G1 X86.5014 Y141.2315
G1 X86.8145 Y141.1022
G1 X89.4409 Y134.7056
G1 X85.6129 Y125.4316
G1 X85.6334 Y125.1483
G1 X87.7636 Y120.1014
G1 X87.6344 Y119.7884
G1 X87.5835 Y119.443
G1 X87.8592 Y118.7796
G1 X88.14 Y118.5722
G1 X88.453 Y118.443
G1 X91.0794 Y112.0463
G1 X87.2514 Y102.7723
G1 X87.2719 Y102.489
G1 X89.4021 Y97.4422
G1 X89.2729 Y97.1291
G1 X89.222 Y96.7838
G1 X89.4977 Y96.1204
G1 X89.7785 Y95.9129
G1 X90.0915 Y95.7837
G1 X92.7179 Y89.387
G1 X88.8899 Y80.113
G1 X88.9104 Y79.8297
G1 X91.0406 Y74.7829
G1 X90.9114 Y74.4698
G1 X90.8605 Y74.1245
G1 X91.1362 Y73.4611
G1 X91.417 Y73.2536
G1 X91.73 Y73.1244
G1 X94.3564 Y66.7277
G1 X90.5284 Y57.4537
G1 X90.5489 Y57.1705
G1 X92.6791 Y52.1236
G1 X92.5499 Y51.8105
G1 X92.499 Y51.4652
G1 X92.7747 Y50.8018
G1 X93.0555 Y50.5943
G1 X93.3685 Y50.4651
G1 X95.9949 Y44.0684
G1 X92.1669 Y34.7944
G1 X92.1874 Y34.5112
G1 X94.3176 Y29.4643
G1 X94.1884 Y29.1512
G1 X94.1375 Y28.8059
G1 X94.4132 Y28.1425
G1 X94.694 Y27.935
G1 X94.8896 Y27.8543
G1 X95.235 Y27.8033
G1 X95.7164 Y27.971
G1 X96.5381 Y27.6318
G1 X96.7611 Y27.1734
G1 X97.0418 Y26.9659
G1 X97.2375 Y26.8851
G0 Z3.0
G0 X98.2066 Y29.233
G0 Z1.2
G1 Z-0.2
G1 X98.5519 Y29.182
G1 X99.2153 Y29.4578
G1 X99.4228 Y29.7385
G1 X99.5359 Y30.0125
G1 X99.5545 Y30.2795
G1 X99.2788 Y30.9429
G1 X98.998 Y31.1504
G1 X98.8024 Y31.2312
G1 X98.457 Y31.2821
G1 X97.9756 Y31.1144
G1 X97.1539 Y31.4536
G1 X96.9309 Y31.9121
G1 X96.6502 Y32.1195
G1 X96.3371 Y32.2487
G1 X95.0894 Y35.3284
G1 X98.9174 Y44.6025
G1 X98.897 Y44.8857
G1 X95.388 Y53.2495
G1 X95.5172 Y53.5626
G1 X95.5682 Y53.9079
G1 X95.2924 Y54.5713
G1 X95.0117 Y54.7788
G1 X94.6986 Y54.908
G1 X93.4509 Y57.9877
G1 X97.2789 Y67.2617
G1 X97.2584 Y67.545
G1 X93.7495 Y75.9088
G1 X93.8787 Y76.2219
G1 X93.9297 Y76.5672
G1 X93.6539 Y77.2306
G1 X93.3732 Y77.4381
G1 X93.0601 Y77.5673
G1 X91.8124 Y80.647
G1 X95.6404 Y89.921
G1 X95.6199 Y90.2043
G1 X92.111 Y98.5681
G1 X92.2402 Y98.8812
G1 X92.2912 Y99.2265
G1 X92.0154 Y99.8899
G1 X91.7347 Y100.0974
G1 X91.4216 Y100.2266
G1 X90.1739 Y103.3063
G1 X94.0019 Y112.5803
G1 X93.9814 Y112.8636
G1 X90.4725 Y121.2274
G1 X90.6017 Y121.5405
G1 X90.6527 Y121.8858
G1 X90.3769 Y122.5492
G1 X90.0962 Y122.7567
G1 X89.7831 Y122.8859
G1 X88.5354 Y125.9656
G1 X92.3634 Y135.2396
G1 X92.3429 Y135.5228
G1 X88.834 Y143.8867
G1 X88.9632 Y144.1997
G1 X89.0142 Y144.5451
G1 X88.7384 Y145.2085
G1 X88.4577 Y145.416
G1 X88.1446 Y145.5452
G1 X86.8969 Y148.6249
G1 X90.7249 Y157.8989
G1 X90.7044 Y158.1821
G1 X87.1955 Y166.546
G1 X87.3247 Y166.859
G1 X87.3756 Y167.2044
G1 X87.0999 Y167.8678
G1 X86.8192 Y168.0753
G1 X86.5061 Y168.2045
G1 X85.2584 Y171.2842
G1 X89.0864 Y180.5582
G1 X89.0659 Y180.8414
G1 X85.557 Y189.2053
G1 X85.6862 Y189.5183
G1 X85.7371 Y189.8637
G1 X85.4614 Y190.5271
G1 X85.1807 Y190.7345
G1 X84.985 Y190.8153
G1 X84.6397 Y190.8663
G1 X83.9763 Y190.5905
G1 X83.7688 Y190.3098
G1 X83.688 Y190.1141
G1 X83.6371 Y189.7688
G1 X83.9128 Y189.1054
G1 X84.1936 Y188.8979
G1 X84.5066 Y188.7687
G1 X87.8224 Y180.7135
G1 X83.9944 Y171.4395
G1 X84.0149 Y171.1563
G1 X85.4557 Y167.7679
G1 X85.3265 Y167.4548
G1 X85.2756 Y167.1095
G1 X85.5513 Y166.4461
G1 X85.8321 Y166.2386
G1 X86.1451 Y166.1094
G1 X89.4609 Y158.0542
G1 X85.6329 Y148.7802
G1 X85.6534 Y148.497
G1 X87.0942 Y145.1086
G1 X86.965 Y144.7955
G1 X86.9141 Y144.4502
G1 X87.1898 Y143.7868
G1 X87.4706 Y143.5793
G1 X87.7836 Y143.4501
G1 X91.0994 Y135.395
G1 X87.2714 Y126.1209
G1 X87.2919 Y125.8377
G1 X88.7327 Y122.4493
G1 X88.6035 Y122.1362
G1 X88.5526 Y121.7909
G1 X88.8283 Y121.1275
G1 X89.1091 Y120.92
G1 X89.4221 Y120.7908
G1 X92.7379 Y112.7357
G1 X88.9099 Y103.4616
G1 X88.9304 Y103.1784
G1 X90.3712 Y99.79
G1 X90.242 Y99.477
G1 X90.1911 Y99.1316
G1 X90.4668 Y98.4682
G1 X90.7476 Y98.2607
G1 X91.0606 Y98.1315
G1 X94.3764 Y90.0764
G1 X90.5484 Y80.8024
G1 X90.5689 Y80.5191
G1 X92.0097 Y77.1307
G1 X91.8805 Y76.8177
G1 X91.8296 Y76.4723
G1 X92.1053 Y75.8089
G1 X92.3861 Y75.6014
G1 X92.6991 Y75.4722
G1 X96.0149 Y67.4171
G1 X92.1869 Y58.1431
G1 X92.2074 Y57.8598
G1 X93.6482 Y54.4714
G1 X93.519 Y54.1584
G1 X93.4681 Y53.813
G1 X93.7438 Y53.1496
G1 X94.0246 Y52.9422
G1 X94.3376 Y52.8129
G1 X97.6534 Y44.7578
G1 X93.8254 Y35.4838
G1 X93.8459 Y35.2005
G1 X95.2868 Y31.8121
G1 X95.1575 Y31.4991
G1 X95.1066 Y31.1537
G1 X95.3823 Y30.4904
G1 X95.6631 Y30.2829
G1 X95.8587 Y30.2021
G1 X96.2041 Y30.1512
G1 X96.6855 Y30.3188
G1 X97.5072 Y29.9797
G1 X97.7302 Y29.5212
G1 X98.0109 Y29.3138
G1 X98.2066 Y29.233
G1 X98.5519 Y29.182
G1 X99.2153 Y29.4578
G1 X99.4228 Y29.7385
G1 X99.5359 Y30.0125
G1 X99.5545 Y30.2795
G1 X99.2788 Y30.9429
G1 X98.998 Y31.1504
G1 X98.8024 Y31.2312
G1 X98.457 Y31.2821
G1 X97.9756 Y31.1144
G1 X97.1539 Y31.4536
G1 X96.9309 Y31.9121
G1 X96.6502 Y32.1195
G1 X96.3371 Y32.2487
G1 X95.0894 Y35.3284
G1 X98.9174 Y44.6025
G1 X98.897 Y44.8857
G1 X95.388 Y53.2495
G1 X95.5172 Y53.5626
G1 X95.5682 Y53.9079
G1 X95.2924 Y54.5713
G1 X95.0117 Y54.7788
G1 X94.6986 Y54.908
G1 X93.4509 Y57.9877
G1 X97.2789 Y67.2617
G1 X97.2584 Y67.545
G1 X93.7495 Y75.9088
G1 X93.8787 Y76.2219
G1 X93.9297 Y76.5672
G1 X93.6539 Y77.2306
G1 X93.3732 Y77.4381
G1 X93.0601 Y77.5673
G1 X91.8124 Y80.647
G1 X95.6404 Y89.921
G1 X95.6199 Y90.2043
G1 X92.111 Y98.5681
G1 X92.2402 Y98.8812
G1 X92.2912 Y99.2265
G1 X92.0154 Y99.8899
G1 X91.7347 Y100.0974
G1 X91.4216 Y100.2266
G1 X90.1739 Y103.3063
G1 X94.0019 Y112.5803
G1 X93.9814 Y112.8636
G1 X90.4725 Y121.2274
G1 X90.6017 Y121.5405
G1 X90.6527 Y121.8858
G1 X90.3769 Y122.5492
G1 X90.0962 Y122.7567
G1 X89.7831 Y122.8859
G1 X88.5354 Y125.9656
G1 X92.3634 Y135.2396
G1 X92.3429 Y135.5228
G1 X88.834 Y143.8867
G1 X88.9632 Y144.1997
G1 X89.0142 Y144.5451
G1 X88.7384 Y145.2085
G1 X88.4577 Y145.416
G1 X88.1446 Y145.5452
G1 X86.8969 Y148.6249
G1 X90.7249 Y157.8989
G1 X90.7044 Y158.1821
G1 X87.1955 Y166.546
G1 X87.3247 Y166.859
G1 X87.3756 Y167.2044
G1 X87.0999 Y167.8678
G1 X86.8192 Y168.0753
G1 X86.5061 Y168.2045
G1 X85.2584 Y171.2842
G1 X89.0864 Y180.5582
G1 X89.0659 Y180.8414
G1 X85.557 Y189.2053
G1 X85.6862 Y189.5183
G1 X85.7371 Y189.8637
G1 X85.4614 Y190.5271
G1 X85.1807 Y190.7345
G1 X84.985 Y190.8153
G1 X84.6397 Y190.8663
G1 X83.9763 Y190.5905
G1 X83.7688 Y190.3098
G1 X83.688 Y190.1141
G1 X83.6371 Y189.7688
G1 X83.9128 Y189.1054
G1 X84.1936 Y188.8979
G1 X84.5066 Y188.7687
G1 X87.8224 Y180.7135
G1 X83.9944 Y171.4395
G1 X84.0149 Y171.1563
G1 X85.4557 Y167.7679
G1 X85.3265 Y167.4548
G1 X85.2756 Y167.1095
G1 X85.5513 Y166.4461
G1 X85.8321 Y166.2386
G1 X86.1451 Y166.1094
G1 X89.4609 Y158.0542
G1 X85.6329 Y148.7802
G1 X85.6534 Y148.497
G1 X87.0942 Y145.1086
G1 X86.965 Y144.7955
G1 X86.9141 Y144.4502
G1 X87.1898 Y143.7868
G1 X87.4706 Y143.5793
G1 X87.7836 Y143.4501
G1 X91.0994 Y135.395
G1 X87.2714 Y126.1209
G1 X87.2919 Y125.8377
G1 X88.7327 Y122.4493
G1 X88.6035 Y122.1362
G1 X88.5526 Y121.7909
G1 X88.8283 Y121.1275
G1 X89.1091 Y120.92
G1 X89.4221 Y120.7908
G1 X92.7379 Y112.7357
G1 X88.9099 Y103.4616
G1 X88.9304 Y103.1784
G1 X90.3712 Y99.79
G1 X90.242 Y99.477
G1 X90.1911 Y99.1316
G1 X90.4668 Y98.4682
G1 X90.7476 Y98.2607
G1 X91.0606 Y98.1315
G1 X94.3764 Y90.0764
G1 X90.5484 Y80.8024
G1 X90.5689 Y80.5191
G1 X92.0097 Y77.1307
G1 X91.8805 Y76.8177
G1 X91.8296 Y76.4723
G1 X92.1053 Y75.8089
G1 X92.3861 Y75.6014
G1 X92.6991 Y75.4722
G1 X96.0149 Y67.4171
G1 X92.1869 Y58.1431
G1 X92.2074 Y57.8598
G1 X93.6482 Y54.4714
G1 X93.519 Y54.1584
G1 X93.4681 Y53.813
G1 X93.7438 Y53.1496
G1 X94.0246 Y52.9422
G1 X94.3376 Y52.8129
G1 X97.6534 Y44.7578
G1 X93.8254 Y35.4838
G1 X93.8459 Y35.2005
G1 X95.2868 Y31.8121
G1 X95.1575 Y31.4991
G1 X95.1066 Y31.1537
G1 X95.3823 Y30.4904
G1 X95.6631 Y30.2829
G1 X95.8587 Y30.2021
G1 X96.2041 Y30.1512
G1 X96.6855 Y30.3188
G1 X97.5072 Y29.9797
G1 X97.7302 Y29.5212
G1 X98.0109 Y29.3138
G1 X98.2066 Y29.233
G0 Z3.0
G0 X99.1757 Y31.5809
G0 Z1.2
G1 Z-0.2
G1 X99.521 Y31.5299
G1 X100.1844 Y31.8056
G1 X100.3919 Y32.0864
G1 X100.505 Y32.3603
G1 X100.5236 Y32.6274
G1 X100.2479 Y33.2908
G1 X99.9671 Y33.4983
G1 X99.7715 Y33.579
G1 X99.4261 Y33.63
G1 X98.9447 Y33.4623
G1 X98.123 Y33.8015
G1 X97.9 Y34.2599
G1 X97.6193 Y34.4674
G1 X97.3062 Y34.5966
G1 X96.7479 Y36.0178
G1 X100.5759 Y45.2918
G1 X100.5554 Y45.5751
G1 X96.3571 Y55.5974
G1 X96.4863 Y55.9104
G1 X96.5373 Y56.2558
G1 X96.2615 Y56.9192
G1 X95.9808 Y57.1267
G1 X95.6677 Y57.2559
G1 X95.1094 Y58.6771
G1 X98.9374 Y67.9511
G1 X98.9169 Y68.2343
G1 X94.7186 Y78.2567
G1 X94.8478 Y78.5697
G1 X94.8988 Y78.9151
G1 X94.623 Y79.5785
G1 X94.3423 Y79.786
G1 X94.0292 Y79.9152
G1 X93.4709 Y81.3364
G1 X97.2989 Y90.6104
G1 X97.2784 Y90.8936
G1 X93.0801 Y100.916
G1 X93.2093 Y101.229
G1 X93.2603 Y101.5744
G1 X92.9845 Y102.2378
G1 X92.7038 Y102.4452
G1 X92.3907 Y102.5745
G1 X91.8324 Y103.9957
G1 X95.6604 Y113.2697
G1 X95.6399 Y113.5529
G1 X91.4416 Y123.5753
G1 X91.5708 Y123.8883
G1 X91.6218 Y124.2337
G1 X91.346 Y124.8971
G1 X91.0653 Y125.1045
G1 X90.7522 Y125.2337
G1 X90.1939 Y126.6549
G1 X94.0219 Y135.929
G1 X94.0014 Y136.2122
G1 X89.8031 Y146.2345
G1 X89.9323 Y146.5476
G1 X89.9833 Y146.8929
G1 X89.7075 Y147.5563
G1 X89.4268 Y147.7638
G1 X89.1137 Y147.893
G1 X88.5554 Y149.3142
G1 X92.3834 Y158.5883
G1 X92.3629 Y158.8715
G1 X88.1646 Y168.8938
G1 X88.2938 Y169.2069
G1 X88.3448 Y169.5522
G1 X88.069 Y170.2156
G1 X87.7883 Y170.4231
G1 X87.4752 Y170.5523
G1 X86.9169 Y171.9735
G1 X90.7449 Y181.2475
G1 X90.7244 Y181.5308
G1 X86.5261 Y191.5531
G1 X86.6553 Y191.8662
G1 X86.7063 Y192.2115
G1 X86.4305 Y192.8749
G1 X86.1498 Y193.0824
G1 X85.9541 Y193.1632
G1 X85.6088 Y193.2141
G1 X84.9454 Y192.9384
G1 X84.7379 Y192.6576
G1 X84.6571 Y192.462
G1 X84.6062 Y192.1166
G1 X84.8819 Y191.4532
G1 X85.1627 Y191.2457
G1 X85.4757 Y191.1165
G1 X89.4809 Y181.4029
G1 X85.6529 Y172.1289
G1 X85.6734 Y171.8456
G1 X86.4249 Y170.1157
G1 X86.2956 Y169.8027
G1 X86.2447 Y169.4573
G1 X86.5204 Y168.7939
G1 X86.8012 Y168.5865
G1 X87.1142 Y168.4572
G1 X91.1194 Y158.7436
G1 X87.2914 Y149.4696
G1 X87.3119 Y149.1864
G1 X88.0634 Y147.4564
G1 X87.9341 Y147.1434
G1 X87.8832 Y146.798
G1 X88.1589 Y146.1346
G1 X88.4397 Y145.9272
G1 X88.7527 Y145.7979
G1 X92.7579 Y136.0843
G1 X88.9299 Y126.8103
G1 X88.9504 Y126.5271
G1 X89.7019 Y124.7971
G1 X89.5726 Y124.4841
G1 X89.5217 Y124.1387
G1 X89.7974 Y123.4754
G1 X90.0782 Y123.2679
G1 X90.3912 Y123.1387
G1 X94.3964 Y113.425
G1 X90.5684 Y104.151
G1 X90.5889 Y103.8678
G1 X91.3404 Y102.1379
G1 X91.2111 Y101.8248
G1 X91.1602 Y101.4795
G1 X91.4359 Y100.8161
G1 X91.7167 Y100.6086
G1 X92.0297 Y100.4794
G1 X96.0349 Y90.7658
G1 X92.2069 Y81.4917
G1 X92.2274 Y81.2085
G1 X92.9789 Y79.4786
G1 X92.8496 Y79.1655
G1 X92.7987 Y78.8202
G1 X93.0744 Y78.1568
G1 X93.3552 Y77.9493
G1 X93.6682 Y77.8201
G1 X97.6734 Y68.1065
G1 X93.8454 Y58.8324
G1 X93.8659 Y58.5492
G1 X94.6174 Y56.8193
G1 X94.4881 Y56.5062
G1 X94.4372 Y56.1609
G1 X94.7129 Y55.4975
G1 X94.9937 Y55.29
G1 X95.3067 Y55.1608
G1 X99.3119 Y45.4472
G1 X95.4839 Y36.1732
G1 X95.5044 Y35.8899
G1 X96.2559 Y34.16
G1 X96.1266 Y33.8469
G1 X96.0757 Y33.5016
G1 X96.3514 Y32.8382
G1 X96.6322 Y32.6307
G1 X96.8278 Y32.55
G1 X97.1732 Y32.499
G1 X97.6546 Y32.6667
G1 X98.4763 Y32.3275
G1 X98.6993 Y31.8691
G1 X98.98 Y31.6616
G1 X99.1757 Y31.5809
G1 X99.521 Y31.5299
G1 X100.1844 Y31.8056
G1 X100.3919 Y32.0864
G1 X100.505 Y32.3603
G1 X100.5236 Y32.6274
G1 X100.2479 Y33.2908
G1 X99.9671 Y33.4983
G1 X99.7715 Y33.579
G1 X99.4261 Y33.63
G1 X98.9447 Y33.4623
G1 X98.123 Y33.8015
G1 X97.9 Y34.2599
G1 X97.6193 Y34.4674
G1 X97.3062 Y34.5966
G1 X96.7479 Y36.0178
G1 X100.5759 Y45.2918
G1 X100.5554 Y45.5751
G1 X96.3571 Y55.5974
G1 X96.4863 Y55.9104
G1 X96.5373 Y56.2558
G1 X96.2615 Y56.9192
G1 X95.9808 Y57.1267
G1 X95.6677 Y57.2559
G1 X95.1094 Y58.6771
G1 X98.9374 Y67.9511
G1 X98.9169 Y68.2343
G1 X94.7186 Y78.2567
G1 X94.8478 Y78.5697
G1 X94.8988 Y78.9151
G1 X94.623 Y79.5785
G1 X94.3423 Y79.786
G1 X94.0292 Y79.9152
G1 X93.4709 Y81.3364
G1 X97.2989 Y90.6104
G1 X97.2784 Y90.8936
G1 X93.0801 Y100.916
G1 X93.2093 Y101.229
G1 X93.2603 Y101.5744
G1 X92.9845 Y102.2378
G1 X92.7038 Y102.4452
G1 X92.3907 Y102.5745
G1 X91.8324 Y103.9957
G1 X95.6604 Y113.2697
G1 X95.6399 Y113.5529
G1 X91.4416 Y123.5753
G1 X91.5708 Y123.8883
G1 X91.6218 Y124.2337
G1 X91.346 Y124.8971
G1 X91.0653 Y125.1045
G1 X90.7522 Y125.2337
G1 X90.1939 Y126.6549
G1 X94.0219 Y135.929
G1 X94.0014 Y136.2122
G1 X89.8031 Y146.2345
G1 X89.9323 Y146.5476
G1 X89.9833 Y146.8929
G1 X89.7075 Y147.5563
G1 X89.4268 Y147.7638
G1 X89.1137 Y147.893
G1 X88.5554 Y149.3142
G1 X92.3834 Y158.5883
G1 X92.3629 Y158.8715
G1 X88.1646 Y168.8938
G1 X88.2938 Y169.2069
G1 X88.3448 Y169.5522
G1 X88.069 Y170.2156
G1 X87.7883 Y170.4231
G1 X87.4752 Y170.5523
G1 X86.9169 Y171.9735
G1 X90.7449 Y181.2475
G1 X90.7244 Y181.5308
G1 X86.5261 Y191.5531
G1 X86.6553 Y191.8662
G1 X86.7063 Y192.2115
G1 X86.4305 Y192.8749
G1 X86.1498 Y193.0824
G1 X85.9541 Y193.1632
G1 X85.6088 Y193.2141
G1 X84.9454 Y192.9384
G1 X84.7379 Y192.6576
G1 X84.6571 Y192.462
G1 X84.6062 Y192.1166
G1 X84.8819 Y191.4532
G1 X85.1627 Y191.2457
G1 X85.4757 Y191.1165
G1 X89.4809 Y181.4029
G1 X85.6529 Y172.1289
G1 X85.6734 Y171.8456
G1 X86.4249 Y170.1157
G1 X86.2956 Y169.8027
G1 X86.2447 Y169.4573
G1 X86.5204 Y168.7939
G1 X86.8012 Y168.5865
G1 X87.1142 Y168.4572
G1 X91.1194 Y158.7436
G1 X87.2914 Y149.4696
G1 X87.3119 Y149.1864
G1 X88.0634 Y147.4564
G1 X87.9341 Y147.1434
G1 X87.8832 Y146.798
G1 X88.1589 Y146.1346
G1 X88.4397 Y145.9272
G1 X88.7527 Y145.7979
G1 X92.7579 Y136.0843
G1 X88.9299 Y126.8103
G1 X88.9504 Y126.5271
G1 X89.7019 Y124.7971
G1 X89.5726 Y124.4841
G1 X89.5217 Y124.1387
G1 X89.7974 Y123.4754
G1 X90.0782 Y123.2679
G1 X90.3912 Y123.1387
G1 X94.3964 Y113.425
G1 X90.5684 Y104.151
G1 X90.5889 Y103.8678
G1 X91.3404 Y102.1379
G1 X91.2111 Y101.8248
G1 X91.1602 Y101.4795
G1 X91.4359 Y100.8161
G1 X91.7167 Y100.6086
G1 X92.0297 Y100.4794
G1 X96.0349 Y90.7658
G1 X92.2069 Y81.4917
G1 X92.2274 Y81.2085
G1 X92.9789 Y79.4786
G1 X92.8496 Y79.1655
G1 X92.7987 Y78.8202
G1 X93.0744 Y78.1568
G1 X93.3552 Y77.9493
G1 X93.6682 Y77.8201
G1 X97.6734 Y68.1065
G1 X93.8454 Y58.8324
G1 X93.8659 Y58.5492
G1 X94.6174 Y56.8193
G1 X94.4881 Y56.5062
G1 X94.4372 Y56.1609
G1 X94.7129 Y55.4975
G1 X94.9937 Y55.29
G1 X95.3067 Y55.1608
G1 X99.3119 Y45.4472
G1 X95.4839 Y36.1732
G1 X95.5044 Y35.8899
G1 X96.2559 Y34.16
G1 X96.1266 Y33.8469
G1 X96.0757 Y33.5016
G1 X96.3514 Y32.8382
G1 X96.6322 Y32.6307
G1 X96.8278 Y32.55
G1 X97.1732 Y32.499
G1 X97.6546 Y32.6667
G1 X98.4763 Y32.3275
G1 X98.6993 Y31.8691
G1 X98.98 Y31.6616
G1 X99.1757 Y31.5809
G0 Z3.0
G0 X100.1448 Y33.9287
G0 Z1.2
G1 Z-0.2
G1 X100.4902 Y33.8778
G1 X101.1536 Y34.1535
G1 X101.361 Y34.4342
G1 X101.4741 Y34.7082
G1 X101.4927 Y34.9753
G1 X101.217 Y35.6386
G1 X100.9363 Y35.8461
G1 X100.7406 Y35.9269
G1 X100.3952 Y35.9778
G1 X99.9139 Y35.8102
G1 X99.053 Y36.1655
G1 X98.9772 Y36.4258
G1 X102.5791 Y45.1519
G1 X102.5586 Y45.4352
G1 X97.3262 Y57.9453
G1 X97.4554 Y58.2583
G1 X97.5064 Y58.6037
G1 X97.3387 Y59.085
G1 X100.9406 Y67.8112
G1 X100.9201 Y68.0945
G1 X95.6877 Y80.6045
G1 X95.8169 Y80.9176
G1 X95.8679 Y81.2629
G1 X95.7002 Y81.7443
G1 X99.3021 Y90.4705
G1 X99.2816 Y90.7538
G1 X94.0492 Y103.2638
G1 X94.1784 Y103.5769
G1 X94.2294 Y103.9222
G1 X94.0617 Y104.4036
G1 X97.6636 Y113.1298
G1 X97.6431 Y113.4131
G1 X92.4107 Y125.9231
G1 X92.5399 Y126.2362
G1 X92.5909 Y126.5815
G1 X92.4232 Y127.0629
G1 X96.0251 Y135.7891
G1 X96.0046 Y136.0723
G1 X90.7722 Y148.5824
G1 X90.9014 Y148.8955
G1 X90.9524 Y149.2408
G1 X90.7847 Y149.7222
G1 X94.3866 Y158.4484
G1 X94.3661 Y158.7316
G1 X89.1337 Y171.2417
G1 X89.2629 Y171.5547
G1 X89.3139 Y171.9001
G1 X89.1462 Y172.3815
G1 X92.7481 Y181.1077
G1 X92.7276 Y181.3909
G1 X87.4952 Y193.901
G1 X87.6244 Y194.214
G1 X87.6754 Y194.5594
G1 X87.3996 Y195.2228
G1 X87.1189 Y195.4302
G1 X86.9232 Y195.511
G1 X86.5779 Y195.562
G1 X85.9145 Y195.2862
G1 X85.707 Y195.0055
G1 X85.6262 Y194.8098
G1 X85.5753 Y194.4645
G1 X85.851 Y193.8011
G1 X86.1318 Y193.5936
G1 X86.4448 Y193.4644
G1 X91.4841 Y181.263
G1 X88.0114 Y172.8499
G1 X87.553 Y172.6269
G1 X87.3455 Y172.3462
G1 X87.2648 Y172.1505
G1 X87.2138 Y171.8052
G1 X87.4895 Y171.1418
G1 X87.7703 Y170.9343
G1 X88.0833 Y170.8051
G1 X93.1226 Y158.6037
G1 X89.6499 Y150.1906
G1 X89.1915 Y149.9676
G1 X88.984 Y149.6869
G1 X88.9033 Y149.4912
G1 X88.8523 Y149.1459
G1 X89.128 Y148.4825
G1 X89.4088 Y148.275
G1 X89.7218 Y148.1458
G1 X94.7611 Y135.9445
G1 X91.2884 Y127.5313
G1 X90.83 Y127.3084
G1 X90.6225 Y127.0276
G1 X90.5418 Y126.832
G1 X90.4908 Y126.4866
G1 X90.7665 Y125.8232
G1 X91.0473 Y125.6157
G1 X91.3603 Y125.4865
G1 X96.3996 Y113.2852
G1 X92.9269 Y104.872
G1 X92.4685 Y104.6491
G1 X92.261 Y104.3683
G1 X92.1803 Y104.1727
G1 X92.1293 Y103.8273
G1 X92.4051 Y103.1639
G1 X92.6858 Y102.9564
G1 X92.9988 Y102.8272
G1 X98.0381 Y90.6259
G1 X94.5654 Y82.2127
G1 X94.107 Y81.9898
G1 X93.8995 Y81.709
G1 X93.8188 Y81.5134
G1 X93.7678 Y81.168
G1 X94.0436 Y80.5046
G1 X94.3243 Y80.2972
G1 X94.6373 Y80.1679
G1 X99.6766 Y67.9666
G1 X96.2039 Y59.5535
G1 X95.7455 Y59.3305
G1 X95.538 Y59.0497
G1 X95.4573 Y58.8541
G1 X95.4063 Y58.5087
G1 X95.6821 Y57.8453
G1 X95.9628 Y57.6379
G1 X96.2758 Y57.5087
G1 X101.3151 Y45.3073
G1 X97.8424 Y36.8942
G1 X97.384 Y36.6712
G1 X97.1765 Y36.3905
G1 X97.0958 Y36.1948
G1 X97.0448 Y35.8495
G1 X97.3206 Y35.1861
G1 X97.6013 Y34.9786
G1 X97.797 Y34.8978
G1 X98.1423 Y34.8469
G1 X98.6237 Y35.0145
G1 X99.4454 Y34.6754
G1 X99.6684 Y34.2169
G1 X99.9492 Y34.0095
G1 X100.1448 Y33.9287
G1 X100.4902 Y33.8778
G1 X101.1536 Y34.1535
G1 X101.361 Y34.4342
G1 X101.4741 Y34.7082
G1 X101.4927 Y34.9753
G1 X101.217 Y35.6386
G1 X100.9363 Y35.8461
G1 X100.7406 Y35.9269
G1 X100.3952 Y35.9778
G1 X99.9139 Y35.8102
G1 X99.053 Y36.1655
G1 X98.9772 Y36.4258
G1 X102.5791 Y45.1519
G1 X102.5586 Y45.4352
G1 X97.3262 Y57.9453
G1 X97.4554 Y58.2583
G1 X97.5064 Y58.6037
G1 X97.3387 Y59.085
G1 X100.9406 Y67.8112
G1 X100.9201 Y68.0945
G1 X95.6877 Y80.6045
G1 X95.8169 Y80.9176
G1 X95.8679 Y81.2629
G1 X95.7002 Y81.7443
G1 X99.3021 Y90.4705
G1 X99.2816 Y90.7538
G1 X94.0492 Y103.2638
G1 X94.1784 Y103.5769
G1 X94.2294 Y103.9222
G1 X94.0617 Y104.4036
G1 X97.6636 Y113.1298
G1 X97.6431 Y113.4131
G1 X92.4107 Y125.9231
G1 X92.5399 Y126.2362
G1 X92.5909 Y126.5815
G1 X92.4232 Y127.0629
G1 X96.0251 Y135.7891
G1 X96.0046 Y136.0723
G1 X90.7722 Y148.5824
G1 X90.9014 Y148.8955
G1 X90.9524 Y149.2408
G1 X90.7847 Y149.7222
G1 X94.3866 Y158.4484
G1 X94.3661 Y158.7316
G1 X89.1337 Y171.2417
G1 X89.2629 Y171.5547
G1 X89.3139 Y171.9001
G1 X89.1462 Y172.3815
G1 X92.7481 Y181.1077
G1 X92.7276 Y181.3909
G1 X87.4952 Y193.901
G1 X87.6244 Y194.214
G1 X87.6754 Y194.5594
G1 X87.3996 Y195.2228
G1 X87.1189 Y195.4302
G1 X86.9232 Y195.511
G1 X86.5779 Y195.562
G1 X85.9145 Y195.2862
G1 X85.707 Y195.0055
G1 X85.6262 Y194.8098
G1 X85.5753 Y194.4645
G1 X85.851 Y193.8011
G1 X86.1318 Y193.5936
G1 X86.4448 Y193.4644
G1 X91.4841 Y181.263
G1 X88.0114 Y172.8499
G1 X87.553 Y172.6269
G1 X87.3455 Y172.3462
G1 X87.2648 Y172.1505
G1 X87.2138 Y171.8052
G1 X87.4895 Y171.1418
G1 X87.7703 Y170.9343
G1 X88.0833 Y170.8051
G1 X93.1226 Y158.6037
G1 X89.6499 Y150.1906
G1 X89.1915 Y149.9676
G1 X88.984 Y149.6869
G1 X88.9033 Y149.4912
G1 X88.8523 Y149.1459
G1 X89.128 Y148.4825
G1 X89.4088 Y148.275
G1 X89.7218 Y148.1458
G1 X94.7611 Y135.9445
G1 X91.2884 Y127.5313
G1 X90.83 Y127.3084
G1 X90.6225 Y127.0276
G1 X90.5418 Y126.832
G1 X90.4908 Y126.4866
G1 X90.7665 Y125.8232
G1 X91.0473 Y125.6157
G1 X91.3603 Y125.4865
G1 X96.3996 Y113.2852
G1 X92.9269 Y104.872
G1 X92.4685 Y104.6491
G1 X92.261 Y104.3683
G1 X92.1803 Y104.1727
G1 X92.1293 Y103.8273
G1 X92.4051 Y103.1639
G1 X92.6858 Y102.9564
G1 X92.9988 Y102.8272
G1 X98.0381 Y90.6259
G1 X94.5654 Y82.2127
G1 X94.107 Y81.9898
G1 X93.8995 Y81.709
G1 X93.8188 Y81.5134
G1 X93.7678 Y81.168
G1 X94.0436 Y80.5046
G1 X94.3243 Y80.2972
G1 X94.6373 Y80.1679
G1 X99.6766 Y67.9666
G1 X96.2039 Y59.5535
G1 X95.7455 Y59.3305
G1 X95.538 Y59.0497
G1 X95.4573 Y58.8541
G1 X95.4063 Y58.5087
G1 X95.6821 Y57.8453
G1 X95.9628 Y57.6379
G1 X96.2758 Y57.5087
G1 X101.3151 Y45.3073
G1 X97.8424 Y36.8942
G1 X97.384 Y36.6712
G1 X97.1765 Y36.3905
G1 X97.0958 Y36.1948
G1 X97.0448 Y35.8495
G1 X97.3206 Y35.1861
G1 X97.6013 Y34.9786
G1 X97.797 Y34.8978
G1 X98.1423 Y34.8469
G1 X98.6237 Y35.0145
G1 X99.4454 Y34.6754
G1 X99.6684 Y34.2169
G1 X99.9492 Y34.0095
G1 X100.1448 Y33.9287
G0 Z3.0
G0 X100.6553 Y27.3319
G0 Z1.2
G1 Z-0.2
G1 X101.1577 Y27.1246
G1 X101.2589 Y27.3697
G1 X101.4484 Y27.2914
G1 X101.3473 Y27.0463
G1 X102.1881 Y26.6993
G3 X102.2562 Y26.6731 I0.4926 J1.1787
G3 X102.3272 Y26.6561 I0.0995 J0.2589
G3 X102.3919 Y26.6785 I-0.0037 J0.1153
G3 X102.4442 Y26.7552 I-0.1214 J0.1389
G3 X102.4788 Y26.8661 I-0.8251 J0.3183
G1 X102.7087 Y26.8124
G2 X102.6543 Y26.6194 I-0.9715 J0.1697
G2 X102.6026 Y26.5172 I-0.6238 J0.2514
G2 X102.5274 Y26.4309 I-0.2856 J0.173
G2 X102.3752 Y26.3732 I-0.162 J0.1978
G2 X102.2972 Y26.3846 I0.0088 J0.3331
G2 X102.0745 Y26.4625 I0.4543 J1.6559
G1 X101.2472 Y26.804
G1 X101.1734 Y26.6252
G1 X100.9839 Y26.7035
G1 X101.0576 Y26.8822
G1 X100.7015 Y27.0292
G1 X100.6553 Y27.3319
G0 Z3.0
G0 X100.8911 Y25.9643
G0 Z1.2
G1 Z-0.2
G2 X100.9255 Y25.9691 I0.0898 J-0.5206
G2 X101.1376 Y25.9571 I0.0677 J-0.6835
G1 X101.0763 Y25.7051
G3 X100.94 Y25.7114 I-0.0932 J-0.5385
G3 X100.8086 Y25.6745 I0.0274 J-0.3501
G3 X100.65 Y25.4976 I0.1523 J-0.2961
G3 X100.6142 Y25.3195 I0.4067 J-0.1744
G3 X100.6592 Y25.1435 I0.4066 J0.0102
G3 X100.8191 Y24.9681 I0.4287 J0.2302
G3 X101.0287 Y24.8563 I0.6096 J0.8905
G3 X101.2569 Y24.7861 I0.4495 J1.0551
G3 X101.3767 Y24.7753 I0.1159 J0.6162
G3 X101.4956 Y24.7935 I-0.0014 J0.4067
G3 X101.7466 Y25.0291 I-0.1148 J0.3738
G3 X101.7787 Y25.166 I-0.3802 J0.1614
G3 X101.7575 Y25.3051 I-0.3501 J0.0178
G3 X101.6673 Y25.4409 I-0.3476 J-0.133
G3 X101.537 Y25.5387 I-0.4574 J-0.4737
G1 X101.667 Y25.7655
G2 X101.8524 Y25.612 I-0.4048 J-0.6777
G2 X101.9724 Y25.4034 I-0.4582 J-0.4024
G2 X102.0024 Y25.174 I-0.5664 J-0.1907
G2 X101.9481 Y24.9491 I-0.706 J0.0515
G2 X101.7966 Y24.7092 I-0.7152 J0.2839
G2 X101.5596 Y24.5532 I-0.4562 J0.4351
G2 X101.2411 Y24.5189 I-0.2308 J0.6471
G2 X100.9321 Y24.603 I0.1472 J1.1504
G2 X100.8611 Y24.6345 I0.4844 J1.1875
G2 X100.7314 Y24.7062 I0.5546 J1.1564
G2 X100.5564 Y24.8484 I0.5027 J0.7974
G2 X100.3917 Y25.1905 I0.4111 J0.4086
G2 X100.4457 Y25.5708 I0.7485 J0.0877
G2 X100.5555 Y25.7618 I0.7296 J-0.2924
G2 X100.723 Y25.9048 I0.4398 J-0.3456
G2 X100.8911 Y25.9643 I0.2579 J-0.4611
G0 Z3.0
G0 X100.4183 Y24.0087
G0 Z1.2
G1 Z-0.2
G2 X100.5953 Y23.9499 I-0.2631 J-1.0881
G2 X100.6598 Y23.9217 I-1.022 J-2.4253
G1 X100.2171 Y22.8493
G3 X100.4248 Y22.8042 I0.2734 J0.7581
G3 X100.6353 Y22.8336 I0.04 J0.4817
G3 X100.8853 Y23.0822 I-0.1529 J0.4037
G3 X100.9094 Y23.3401 I-0.3694 J0.1646
G3 X100.8457 Y23.4734 I-0.3897 J-0.1044
G3 X100.7466 Y23.5831 I-0.5525 J-0.3995
G1 X100.8817 Y23.8221
G2 X101.0383 Y23.6625 I-0.4544 J-0.6024
G2 X101.1332 Y23.46 I-0.5001 J-0.3579
G2 X101.1473 Y23.2251 I-0.6003 J-0.1539
G2 X101.0852 Y22.9981 I-0.8741 J0.1171
G2 X100.9294 Y22.7453 I-0.7957 J0.316
G2 X100.6847 Y22.577 I-0.4783 J0.4334
G2 X100.3699 Y22.5374 I-0.2409 J0.6436
G2 X100.0631 Y22.6181 I0.1187 J1.075
G2 X99.9611 Y22.6646 I0.4204 J1.0573
G2 X99.7799 Y22.7813 I0.5227 J1.0106
G2 X99.5769 Y23.0375 I0.4391 J0.5564
G2 X99.5152 Y23.3212 I0.5973 J0.2785
G2 X99.5766 Y23.6049 I0.7629 J-0.0166
G2 X99.7296 Y23.8425 I0.6824 J-0.2714
G2 X99.9674 Y23.9951 I0.4597 J-0.4548
G2 X100.2857 Y24.0324 I0.2378 J-0.6526
G2 X100.4183 Y24.0087 I-0.1305 J-1.1119
G0 Z3.0
G0 X99.614 Y22.0601
G0 Z1.2
G1 Z-0.2
G1 X100.5454 Y21.6756
G1 X100.4448 Y21.4319
G1 X99.5877 Y21.7857
G1 X98.4597 Y22.2513
G1 X98.5603 Y22.495
G1 X99.614 Y22.0601
G0 Z3.0
G0 X99.3244 Y21.15
G0 Z1.2
G1 Z-0.2
G2 X99.4254 Y21.1124 I-0.3394 J-1.0668
G2 X99.4899 Y21.0843 I-1.0188 J-2.4267
G1 X99.0472 Y20.0119
G3 X99.2549 Y19.9668 I0.2734 J0.7581
G3 X99.4654 Y19.9961 I0.0402 J0.4817
G3 X99.7154 Y20.2447 I-0.1529 J0.4037
G3 X99.7395 Y20.5026 I-0.3694 J0.1646
G3 X99.6758 Y20.636 I-0.3898 J-0.1042
G3 X99.5767 Y20.7457 I-0.5525 J-0.3995
G1 X99.7118 Y20.9847
G2 X99.8684 Y20.8251 I-0.4544 J-0.6024
G2 X99.9633 Y20.6226 I-0.5001 J-0.3579
G2 X99.9774 Y20.3877 I-0.6003 J-0.1539
G2 X99.9153 Y20.1607 I-0.8741 J0.1171
G2 X99.7595 Y19.9078 I-0.7958 J0.3158
G2 X99.5149 Y19.7396 I-0.4782 J0.4335
G2 X99.2 Y19.7 I-0.2409 J0.6436
G2 X99.018 Y19.7361 I0.1186 J1.075
G2 X98.8932 Y19.7807 I0.3009 J1.0388
G2 X98.61 Y19.9439 I0.4206 J1.0572
G2 X98.407 Y20.2001 I0.4391 J0.5564
G2 X98.3453 Y20.4837 I0.5973 J0.2785
G2 X98.4067 Y20.7675 I0.7629 J-0.0165
G2 X98.5598 Y21.005 I0.6822 J-0.2717
G2 X98.7975 Y21.1577 I0.4599 J-0.4546
G2 X99.1158 Y21.195 I0.2378 J-0.6526
G2 X99.3244 Y21.15 I-0.1308 J-1.1118
G0 Z3.0
G0 X98.9004 Y19.0356
G0 Z1.2
G1 Z-0.2
G2 X98.9844 Y19.0085 I-0.0764 J-0.381
G2 X99.185 Y18.8417 I-0.1707 J-0.4093
G2 X99.2672 Y18.5685 I-0.4178 J-0.2747
G2 X99.2002 Y18.2412 I-0.8183 J-0.003
G2 X99.0848 Y18.0273 I-0.9914 J0.3968
G2 X98.9071 Y17.8614 I-0.4618 J0.3166
G2 X98.7 Y17.8 I-0.2443 J0.4441
G2 X98.4847 Y17.817 I-0.0508 J0.7287
G1 X98.5463 Y18.0737
G3 X98.6825 Y18.0586 I0.1168 J0.4319
G3 X98.8147 Y18.0944 I-0.0158 J0.3204
G3 X98.9268 Y18.1925 I-0.1659 J0.3026
G3 X98.9992 Y18.3226 I-0.4684 J0.3459
G3 X99.0401 Y18.4581 I-0.591 J0.2523
G3 X99.0344 Y18.5996 I-0.2989 J0.0588
G3 X98.9875 Y18.6881 I-0.254 J-0.0779
G3 X98.9068 Y18.7474 I-0.1578 J-0.1302
G3 X98.7472 Y18.7293 I-0.0642 J-0.1468
G3 X98.6951 Y18.6807 I0.2186 J-0.2866
G3 X98.5617 Y18.5142 I1.6932 J-1.4933
G2 X98.4328 Y18.347 I-4.2038 J3.1075
G2 X98.2916 Y18.1899 I-1.2488 J0.9804
G2 X98.09 Y18.0893 I-0.2732 J0.2951
G2 X97.8746 Y18.1164 I-0.0597 J0.3951
G2 X97.7151 Y18.233 I0.1499 J0.3725
G2 X97.6281 Y18.4099 I0.3339 J0.274
G2 X97.6214 Y18.5934 I0.5306 J0.1112
G2 X97.6788 Y18.8169 I0.7846 J-0.0824
G2 X97.8499 Y19.0933 I0.838 J-0.3276
G2 X97.9456 Y19.176 I0.4131 J-0.3813
G2 X98.0609 Y19.2281 I0.2027 J-0.295
G2 X98.1897 Y19.2392 I0.1021 J-0.4316
G2 X98.3176 Y19.2204 I-0.0417 J-0.7282
G1 X98.2517 Y18.9687
G3 X98.0393 Y18.9454 I-0.0778 J-0.2703
G3 X97.9465 Y18.8615 I0.1426 J-0.251
G3 X97.8864 Y18.7518 I0.422 J-0.3025
G3 X97.845 Y18.6237 I0.7 J-0.297
G3 X97.843 Y18.4892 I0.2832 J-0.0715
G3 X97.8781 Y18.4144 I0.2132 J0.0544
G3 X97.9434 Y18.3638 I0.1235 J0.092
G3 X98.041 Y18.3584 I0.0564 J0.1342
G3 X98.1445 Y18.425 I-0.0715 J0.2249
G3 X98.2957 Y18.6145 I-4.0035 J3.3494
G2 X98.4221 Y18.7752 I5.0454 J-3.8384
G2 X98.5581 Y18.9278 I1.487 J-1.1884
G2 X98.7519 Y19.0364 I0.2802 J-0.2728
G2 X98.9004 Y19.0356 I0.0721 J-0.3818
G0 Z3.0
G0 X89.6706 Y20.0704
G0 Z1.2
G1 Z-0.2
G1 X81.0846 Y23.6144
G0 Z3.0
G0 X80.5454 Y23.837
G0 Z1.2
G1 Z-0.2
G1 X80.9815 Y24.8935
G1 X78.9858 Y25.7172
G1 X78.8081 Y25.2868
G1 X78.2212 Y25.5291
G1 X77.9982 Y25.9875
G1 X77.7175 Y26.1949
G1 X77.5218 Y26.2757
G1 X77.1765 Y26.3267
G1 X76.5131 Y26.0509
G1 X76.3056 Y25.7702
G1 X76.2248 Y25.5745
G1 X76.1739 Y25.2292
G1 X76.4496 Y24.5658
G1 X76.7304 Y24.3583
G1 X76.926 Y24.2775
G1 X77.2714 Y24.2266
G1 X77.7528 Y24.3943
G1 X78.3397 Y24.152
G1 X78.1621 Y23.7215
G1 X80.1577 Y22.8978
G1 X80.5454 Y23.837
G1 X80.9815 Y24.8935
G1 X78.9858 Y25.7172
G1 X78.8081 Y25.2868
G1 X78.2212 Y25.5291
G1 X77.9982 Y25.9875
G1 X77.7175 Y26.1949
G1 X77.5218 Y26.2757
G1 X77.1765 Y26.3267
G1 X76.5131 Y26.0509
G1 X76.3056 Y25.7702
G1 X76.2248 Y25.5745
G1 X76.1739 Y25.2292
G1 X76.4496 Y24.5658
G1 X76.7304 Y24.3583
G1 X76.926 Y24.2775
G1 X77.2714 Y24.2266
G1 X77.7528 Y24.3943
G1 X78.3397 Y24.152
G1 X78.1621 Y23.7215
G1 X80.1577 Y22.8978
G1 X80.5454 Y23.837
G0 Z3.0
G0 X81.1269 Y25.2456
G0 Z1.2
G1 Z-0.2
G1 X81.9506 Y27.2413
G1 X79.9549 Y28.0651
G1 X79.7773 Y27.6346
G1 X79.1903 Y27.8769
G1 X78.9673 Y28.3353
G1 X78.6866 Y28.5428
G1 X78.4909 Y28.6236
G1 X78.1456 Y28.6745
G1 X77.4822 Y28.3988
G1 X77.2747 Y28.118
G1 X77.194 Y27.9224
G1 X77.143 Y27.577
G1 X77.4188 Y26.9136
G1 X77.6995 Y26.7061
G1 X77.8951 Y26.6254
G1 X78.2405 Y26.5744
G1 X78.7219 Y26.7421
G1 X79.3089 Y26.4998
G1 X79.1312 Y26.0694
G1 X81.1269 Y25.2456
G1 X81.9506 Y27.2413
G1 X79.9549 Y28.0651
G1 X79.7773 Y27.6346
G1 X79.1903 Y27.8769
G1 X78.9673 Y28.3353
G1 X78.6866 Y28.5428
G1 X78.4909 Y28.6236
G1 X78.1456 Y28.6745
G1 X77.4822 Y28.3988
G1 X77.2747 Y28.118
G1 X77.194 Y27.9224
G1 X77.143 Y27.577
G1 X77.4188 Y26.9136
G1 X77.6995 Y26.7061
G1 X77.8951 Y26.6254
G1 X78.2405 Y26.5744
G1 X78.7219 Y26.7421
G1 X79.3089 Y26.4998
G1 X79.1312 Y26.0694
G1 X81.1269 Y25.2456
G0 Z3.0
G0 X82.096 Y27.5935
G0 Z1.2
G1 Z-0.2
G1 X82.9197 Y29.5892
G1 X80.924 Y30.4129
G1 X80.7464 Y29.9825
G1 X80.1594 Y30.2248
G1 X79.9364 Y30.6832
G1 X79.6557 Y30.8907
G1 X79.4601 Y30.9714
G1 X79.1147 Y31.0224
G1 X78.4513 Y30.7466
G1 X78.2438 Y30.4659
G1 X78.1631 Y30.2702
G1 X78.1121 Y29.9249
G1 X78.3879 Y29.2615
G1 X78.6686 Y29.054
G1 X78.8643 Y28.9732
G1 X79.2096 Y28.9223
G1 X79.691 Y29.09
G1 X80.278 Y28.8477
G1 X80.1003 Y28.4172
G1 X82.096 Y27.5935
G1 X82.9197 Y29.5892
G1 X80.924 Y30.4129
G1 X80.7464 Y29.9825
G1 X80.1594 Y30.2248
G1 X79.9364 Y30.6832
G1 X79.6557 Y30.8907
G1 X79.4601 Y30.9714
G1 X79.1147 Y31.0224
G1 X78.4513 Y30.7466
G1 X78.2438 Y30.4659
G1 X78.1631 Y30.2702
G1 X78.1121 Y29.9249
G1 X78.3879 Y29.2615
G1 X78.6686 Y29.054
G1 X78.8643 Y28.9732
G1 X79.2096 Y28.9223
G1 X79.691 Y29.09
G1 X80.278 Y28.8477
G1 X80.1003 Y28.4172
G1 X82.096 Y27.5935
G0 Z3.0
G0 X83.0651 Y29.9414
G0 Z1.2
G1 Z-0.2
G1 X83.8888 Y31.937
G1 X81.8932 Y32.7608
G1 X81.7155 Y32.3303
G1 X81.1285 Y32.5726
G1 X80.9056 Y33.031
G1 X80.6248 Y33.2385
G1 X80.4292 Y33.3193
G1 X80.0838 Y33.3702
G1 X79.4204 Y33.0945
G1 X79.2129 Y32.8137
G1 X79.1322 Y32.6181
G1 X79.0812 Y32.2727
G1 X79.357 Y31.6093
G1 X79.6377 Y31.4019
G1 X79.8334 Y31.3211
G1 X80.1787 Y31.2701
G1 X80.6601 Y31.4378
G1 X81.2471 Y31.1955
G1 X81.0694 Y30.7651
G1 X83.0651 Y29.9414
G1 X83.8888 Y31.937
G1 X81.8932 Y32.7608
G1 X81.7155 Y32.3303
G1 X81.1285 Y32.5726
G1 X80.9056 Y33.031
G1 X80.6248 Y33.2385
G1 X80.4292 Y33.3193
G1 X80.0838 Y33.3702
G1 X79.4204 Y33.0945
G1 X79.2129 Y32.8137
G1 X79.1322 Y32.6181
G1 X79.0812 Y32.2727
G1 X79.357 Y31.6093
G1 X79.6377 Y31.4019
G1 X79.8334 Y31.3211
G1 X80.1787 Y31.2701
G1 X80.6601 Y31.4378
G1 X81.2471 Y31.1955
G1 X81.0694 Y30.7651
G1 X83.0651 Y29.9414
G0 Z3.0
G0 X84.0342 Y32.2892
G0 Z1.2
G1 Z-0.2
G1 X84.858 Y34.2849
G1 X82.8623 Y35.1086
G1 X82.6846 Y34.6782
G1 X82.0976 Y34.9205
G1 X81.8747 Y35.3789
G1 X81.5939 Y35.5864
G1 X81.3983 Y35.6671
G1 X81.0529 Y35.7181
G1 X80.3895 Y35.4423
G1 X80.1821 Y35.1616
G1 X80.1013 Y34.9659
G1 X80.0503 Y34.6206
G1 X80.3261 Y33.9572
G1 X80.6068 Y33.7497
G1 X80.8025 Y33.6689
G1 X81.1478 Y33.618
G1 X81.6292 Y33.7857
G1 X82.2162 Y33.5434
G1 X82.0385 Y33.113
G1 X84.0342 Y32.2892
G1 X84.858 Y34.2849
G1 X82.8623 Y35.1086
G1 X82.6846 Y34.6782
G1 X82.0976 Y34.9205
G1 X81.8747 Y35.3789
G1 X81.5939 Y35.5864
G1 X81.3983 Y35.6671
G1 X81.0529 Y35.7181
G1 X80.3895 Y35.4423
G1 X80.1821 Y35.1616
G1 X80.1013 Y34.9659
G1 X80.0503 Y34.6206
G1 X80.3261 Y33.9572
G1 X80.6068 Y33.7497
G1 X80.8025 Y33.6689
G1 X81.1478 Y33.618
G1 X81.6292 Y33.7857
G1 X82.2162 Y33.5434
G1 X82.0385 Y33.113
G1 X84.0342 Y32.2892
G0 Z3.0
G0 X85.0033 Y34.6371
G0 Z1.2
G1 Z-0.2
G1 X85.8271 Y36.6327
G1 X83.8314 Y37.4565
G1 X83.6537 Y37.026
G1 X83.0668 Y37.2683
G1 X82.8438 Y37.7267
G1 X82.563 Y37.9342
G1 X82.3674 Y38.015
G1 X82.022 Y38.0659
G1 X81.3586 Y37.7902
G1 X81.1512 Y37.5094
G1 X81.0704 Y37.3138
G1 X81.0195 Y36.9684
G1 X81.2952 Y36.305
G1 X81.576 Y36.0976
G1 X81.7716 Y36.0168
G1 X82.117 Y35.9658
G1 X82.5983 Y36.1335
G1 X83.1853 Y35.8912
G1 X83.0076 Y35.4608
G1 X85.0033 Y34.6371
G1 X85.8271 Y36.6327
G1 X83.8314 Y37.4565
G1 X83.6537 Y37.026
G1 X83.0668 Y37.2683
G1 X82.8438 Y37.7267
G1 X82.563 Y37.9342
G1 X82.3674 Y38.015
G1 X82.022 Y38.0659
G1 X81.3586 Y37.7902
G1 X81.1512 Y37.5094
G1 X81.0704 Y37.3138
G1 X81.0195 Y36.9684
G1 X81.2952 Y36.305
G1 X81.576 Y36.0976
G1 X81.7716 Y36.0168
G1 X82.117 Y35.9658
G1 X82.5983 Y36.1335
G1 X83.1853 Y35.8912
G1 X83.0076 Y35.4608
G1 X85.0033 Y34.6371
G0 Z3.0
G0 X85.9724 Y36.9849
G0 Z1.2
G1 Z-0.2
G1 X86.7962 Y38.9806
G1 X84.8005 Y39.8043
G1 X84.6228 Y39.3739
G1 X84.0359 Y39.6162
G1 X83.8129 Y40.0746
G1 X83.5322 Y40.2821
G1 X83.3365 Y40.3628
G1 X82.9912 Y40.4138
G1 X82.3278 Y40.138
G1 X82.1203 Y39.8573
G1 X82.0395 Y39.6616
G1 X81.9886 Y39.3163
G1 X82.2643 Y38.6529
G1 X82.5451 Y38.4454
G1 X82.7407 Y38.3647
G1 X83.0861 Y38.3137
G1 X83.5675 Y38.4814
G1 X84.1544 Y38.2391
G1 X83.9768 Y37.8087
G1 X85.9724 Y36.9849
G1 X86.7962 Y38.9806
G1 X84.8005 Y39.8043
G1 X84.6228 Y39.3739
G1 X84.0359 Y39.6162
G1 X83.8129 Y40.0746
G1 X83.5322 Y40.2821
G1 X83.3365 Y40.3628
G1 X82.9912 Y40.4138
G1 X82.3278 Y40.138
G1 X82.1203 Y39.8573
G1 X82.0395 Y39.6616
G1 X81.9886 Y39.3163
G1 X82.2643 Y38.6529
G1 X82.5451 Y38.4454
G1 X82.7407 Y38.3647
G1 X83.0861 Y38.3137
G1 X83.5675 Y38.4814
G1 X84.1544 Y38.2391
G1 X83.9768 Y37.8087
G1 X85.9724 Y36.9849
G0 Z3.0
G0 X86.9415 Y39.3328
G0 Z1.2
G1 Z-0.2
G1 X87.7653 Y41.3284
G1 X85.7696 Y42.1522
G1 X85.5919 Y41.7218
G1 X85.005 Y41.964
G1 X84.782 Y42.4224
G1 X84.5013 Y42.6299
G1 X84.3056 Y42.7107
G1 X83.9603 Y42.7616
G1 X83.2969 Y42.4859
G1 X83.0894 Y42.2051
G1 X83.0086 Y42.0095
G1 X82.9577 Y41.6641
G1 X83.2334 Y41.0007
G1 X83.5142 Y40.7933
G1 X83.7098 Y40.7125
G1 X84.0552 Y40.6616
G1 X84.5366 Y40.8292
G1 X85.1235 Y40.587
G1 X84.9459 Y40.1565
G1 X86.9415 Y39.3328
G1 X87.7653 Y41.3284
G1 X85.7696 Y42.1522
G1 X85.5919 Y41.7218
G1 X85.005 Y41.964
G1 X84.782 Y42.4224
G1 X84.5013 Y42.6299
G1 X84.3056 Y42.7107
G1 X83.9603 Y42.7616
G1 X83.2969 Y42.4859
G1 X83.0894 Y42.2051
G1 X83.0086 Y42.0095
G1 X82.9577 Y41.6641
G1 X83.2334 Y41.0007
G1 X83.5142 Y40.7933
G1 X83.7098 Y40.7125
G1 X84.0552 Y40.6616
G1 X84.5366 Y40.8292
G1 X85.1235 Y40.587
G1 X84.9459 Y40.1565
G1 X86.9415 Y39.3328
G0 Z3.0
G0 X82.5782 Y42.1872
G0 Z1.2
G1 Z-0.2
G1 X82.659 Y42.3828
G1 X82.7099 Y42.7282
G1 X82.4342 Y43.3916
G1 X82.1534 Y43.599
G1 X81.9578 Y43.6798
G1 X81.6124 Y43.7307
G1 X80.949 Y43.455
G1 X80.7415 Y43.1743
G1 X80.6608 Y42.9786
G1 X80.6098 Y42.6333
G1 X80.7775 Y42.1519
G1 X80.4383 Y41.3301
G1 X79.9799 Y41.1071
G1 X79.7724 Y40.8264
G1 X79.6917 Y40.6307
G1 X79.6407 Y40.2854
G1 X79.8084 Y39.804
G1 X79.4692 Y38.9823
G1 X79.0108 Y38.7593
G1 X78.8033 Y38.4785
G1 X78.7226 Y38.2829
G1 X78.6716 Y37.9375
G1 X78.8393 Y37.4561
G1 X78.5001 Y36.6344
G1 X78.0417 Y36.4114
G1 X77.8342 Y36.1307
G1 X77.7534 Y35.935
G1 X77.7025 Y35.5897
G1 X77.8702 Y35.1083
G1 X77.531 Y34.2865
G1 X77.0726 Y34.0636
G1 X76.8651 Y33.7828
G1 X76.7843 Y33.5872
G1 X76.7334 Y33.2418
G1 X76.9011 Y32.7604
G1 X76.5619 Y31.9387
G1 X76.1035 Y31.7157
G1 X75.896 Y31.435
G1 X75.8152 Y31.2393
G1 X75.7643 Y30.894
G1 X75.9319 Y30.4126
G1 X75.5928 Y29.5908
G1 X75.1343 Y29.3679
G1 X74.9269 Y29.0871
G1 X74.8461 Y28.8915
G1 X74.7951 Y28.5461
G1 X74.9628 Y28.0647
G1 X74.6236 Y27.243
G1 X74.1652 Y27.02
G1 X73.9577 Y26.7393
G1 X73.877 Y26.5436
G1 X73.826 Y26.1983
G1 X74.1018 Y25.5349
G1 X74.3825 Y25.3274
G1 X74.6956 Y25.1982
G1 X75.7365 Y22.616
G1 X75.9228 Y22.4017
G1 X77.0184 Y21.9495
G1 X78.9325 Y17.2666
G1 X78.4318 Y16.0535
G1 X80.4275 Y15.2298
G1 X81.2512 Y17.2255
G1 X79.9991 Y17.7423
G1 X77.9471 Y22.7569
G1 X77.7608 Y22.9712
G1 X76.6651 Y23.4235
G1 X75.7621 Y25.6739
G1 X75.8752 Y25.9478
G1 X75.9261 Y26.2932
G1 X75.7584 Y26.7746
G1 X76.0976 Y27.5963
G1 X76.556 Y27.8193
G1 X76.7635 Y28.1
G1 X76.8443 Y28.2957
G1 X76.8952 Y28.641
G1 X76.7275 Y29.1224
G1 X77.0667 Y29.9442
G1 X77.5252 Y30.1671
G1 X77.7326 Y30.4479
G1 X77.8134 Y30.6435
G1 X77.8643 Y30.9889
G1 X77.6967 Y31.4703
G1 X78.0359 Y32.292
G1 X78.4943 Y32.515
G1 X78.7017 Y32.7957
G1 X78.7825 Y32.9914
G1 X78.8335 Y33.3367
G1 X78.6658 Y33.8181
G1 X79.005 Y34.6399
G1 X79.4634 Y34.8629
G1 X79.6709 Y35.1436
G1 X79.7516 Y35.3393
G1 X79.8026 Y35.6846
G1 X79.6349 Y36.166
G1 X79.9741 Y36.9877
G1 X80.4325 Y37.2107
G1 X80.64 Y37.4915
G1 X80.7207 Y37.6871
G1 X80.7717 Y38.0325
G1 X80.604 Y38.5138
G1 X80.9432 Y39.3356
G1 X81.4016 Y39.5586
G1 X81.6091 Y39.8393
G1 X81.6898 Y40.035
G1 X81.7408 Y40.3803
G1 X81.5731 Y40.8617
G1 X81.9123 Y41.6835
G1 X82.3707 Y41.9064
G1 X82.5782 Y42.1872
G1 X82.659 Y42.3828
G1 X82.7099 Y42.7282
G1 X82.4342 Y43.3916
G1 X82.1534 Y43.599
G1 X81.9578 Y43.6798
G1 X81.6124 Y43.7307
G1 X80.949 Y43.455
G1 X80.7415 Y43.1743
G1 X80.6608 Y42.9786
G1 X80.6098 Y42.6333
G1 X80.7775 Y42.1519
G1 X80.4383 Y41.3301
G1 X79.9799 Y41.1071
G1 X79.7724 Y40.8264
G1 X79.6917 Y40.6307
G1 X79.6407 Y40.2854
G1 X79.8084 Y39.804
G1 X79.4692 Y38.9823
G1 X79.0108 Y38.7593
G1 X78.8033 Y38.4785
G1 X78.7226 Y38.2829
G1 X78.6716 Y37.9375
G1 X78.8393 Y37.4561
G1 X78.5001 Y36.6344
G1 X78.0417 Y36.4114
G1 X77.8342 Y36.1307
G1 X77.7534 Y35.935
G1 X77.7025 Y35.5897
G1 X77.8702 Y35.1083
G1 X77.531 Y34.2865
G1 X77.0726 Y34.0636
G1 X76.8651 Y33.7828
G1 X76.7843 Y33.5872
G1 X76.7334 Y33.2418
G1 X76.9011 Y32.7604
G1 X76.5619 Y31.9387
G1 X76.1035 Y31.7157
G1 X75.896 Y31.435
G1 X75.8152 Y31.2393
G1 X75.7643 Y30.894
G1 X75.9319 Y30.4126
G1 X75.5928 Y29.5908
G1 X75.1343 Y29.3679
G1 X74.9269 Y29.0871
G1 X74.8461 Y28.8915
G1 X74.7951 Y28.5461
G1 X74.9628 Y28.0647
G1 X74.6236 Y27.243
G1 X74.1652 Y27.02
G1 X73.9577 Y26.7393
G1 X73.877 Y26.5436
G1 X73.826 Y26.1983
G1 X74.1018 Y25.5349
G1 X74.3825 Y25.3274
G1 X74.6956 Y25.1982
G1 X75.7365 Y22.616
G1 X75.9228 Y22.4017
G1 X77.0184 Y21.9495
G1 X78.9325 Y17.2666
G1 X78.4318 Y16.0535
G1 X80.4275 Y15.2298
G1 X81.2512 Y17.2255
G1 X79.9991 Y17.7423
G1 X77.9471 Y22.7569
G1 X77.7608 Y22.9712
G1 X76.6651 Y23.4235
G1 X75.7621 Y25.6739
G1 X75.8752 Y25.9478
G1 X75.9261 Y26.2932
G1 X75.7584 Y26.7746
G1 X76.0976 Y27.5963
G1 X76.556 Y27.8193
G1 X76.7635 Y28.1
G1 X76.8443 Y28.2957
G1 X76.8952 Y28.641
G1 X76.7275 Y29.1224
G1 X77.0667 Y29.9442
G1 X77.5252 Y30.1671
G1 X77.7326 Y30.4479
G1 X77.8134 Y30.6435
G1 X77.8643 Y30.9889
G1 X77.6967 Y31.4703
G1 X78.0359 Y32.292
G1 X78.4943 Y32.515
G1 X78.7017 Y32.7957
G1 X78.7825 Y32.9914
G1 X78.8335 Y33.3367
G1 X78.6658 Y33.8181
G1 X79.005 Y34.6399
G1 X79.4634 Y34.8629
G1 X79.6709 Y35.1436
G1 X79.7516 Y35.3393
G1 X79.8026 Y35.6846
G1 X79.6349 Y36.166
G1 X79.9741 Y36.9877
G1 X80.4325 Y37.2107
G1 X80.64 Y37.4915
G1 X80.7207 Y37.6871
G1 X80.7717 Y38.0325
G1 X80.604 Y38.5138
G1 X80.9432 Y39.3356
G1 X81.4016 Y39.5586
G1 X81.6091 Y39.8393
G1 X81.6898 Y40.035
G1 X81.7408 Y40.3803
G1 X81.5731 Y40.8617
G1 X81.9123 Y41.6835
G1 X82.3707 Y41.9064
G1 X82.5782 Y42.1872
G0 Z3.0
G0 X78.5192 Y45.5571
G0 Z1.2
G1 Z-0.2
G1 X79.343 Y47.5528
G1 X77.3473 Y48.3765
G1 X77.1696 Y47.9461
G1 X76.5827 Y48.1883
G1 X76.3597 Y48.6468
G1 X76.079 Y48.8542
G1 X75.8833 Y48.935
G1 X75.538 Y48.9859
G1 X74.8746 Y48.7102
G1 X74.6671 Y48.4295
G1 X74.5863 Y48.2338
G1 X74.5354 Y47.8884
G1 X74.8111 Y47.2251
G1 X75.0919 Y47.0176
G1 X75.2875 Y46.9368
G1 X75.6329 Y46.8859
G1 X76.1143 Y47.0535
G1 X76.7012 Y46.8113
G1 X76.5236 Y46.3808
G1 X78.5192 Y45.5571
G1 X79.343 Y47.5528
G1 X77.3473 Y48.3765
G1 X77.1696 Y47.9461
G1 X76.5827 Y48.1883
G1 X76.3597 Y48.6468
G1 X76.079 Y48.8542
G1 X75.8833 Y48.935
G1 X75.538 Y48.9859
G1 X74.8746 Y48.7102
G1 X74.6671 Y48.4295
G1 X74.5863 Y48.2338
G1 X74.5354 Y47.8884
G1 X74.8111 Y47.2251
G1 X75.0919 Y47.0176
G1 X75.2875 Y46.9368
G1 X75.6329 Y46.8859
G1 X76.1143 Y47.0535
G1 X76.7012 Y46.8113
G1 X76.5236 Y46.3808
G1 X78.5192 Y45.5571
G0 Z3.0
G0 X79.4884 Y47.9049
G0 Z1.2
G1 Z-0.2
G1 X80.3121 Y49.9006
G1 X78.3164 Y50.7244
G1 X78.1388 Y50.2939
G1 X77.5518 Y50.5362
G1 X77.3288 Y50.9946
G1 X77.0481 Y51.2021
G1 X76.8524 Y51.2828
G1 X76.5071 Y51.3338
G1 X75.8437 Y51.058
G1 X75.6362 Y50.7773
G1 X75.5555 Y50.5817
G1 X75.5045 Y50.2363
G1 X75.7802 Y49.5729
G1 X76.061 Y49.3654
G1 X76.2566 Y49.2847
G1 X76.602 Y49.2337
G1 X77.0834 Y49.4014
G1 X77.6704 Y49.1591
G1 X77.4927 Y48.7287
G1 X79.4884 Y47.9049
G1 X80.3121 Y49.9006
G1 X78.3164 Y50.7244
G1 X78.1388 Y50.2939
G1 X77.5518 Y50.5362
G1 X77.3288 Y50.9946
G1 X77.0481 Y51.2021
G1 X76.8524 Y51.2828
G1 X76.5071 Y51.3338
G1 X75.8437 Y51.058
G1 X75.6362 Y50.7773
G1 X75.5555 Y50.5817
G1 X75.5045 Y50.2363
G1 X75.7802 Y49.5729
G1 X76.061 Y49.3654
G1 X76.2566 Y49.2847
G1 X76.602 Y49.2337
G1 X77.0834 Y49.4014
G1 X77.6704 Y49.1591
G1 X77.4927 Y48.7287
G1 X79.4884 Y47.9049
G0 Z3.0
G0 X80.4575 Y50.2528
G0 Z1.2
G1 Z-0.2
G1 X81.2812 Y52.2485
G1 X79.2855 Y53.0722
G1 X79.1079 Y52.6418
G1 X78.5209 Y52.884
G1 X78.2979 Y53.3425
G1 X78.0172 Y53.5499
G1 X77.8215 Y53.6307
G1 X77.4762 Y53.6817
G1 X76.8128 Y53.4059
G1 X76.6053 Y53.1252
G1 X76.5246 Y52.9295
G1 X76.4736 Y52.5842
G1 X76.7494 Y51.9208
G1 X77.0301 Y51.7133
G1 X77.2258 Y51.6325
G1 X77.5711 Y51.5816
G1 X78.0525 Y51.7493
G1 X78.6395 Y51.507
G1 X78.4618 Y51.0765
G1 X80.4575 Y50.2528
G1 X81.2812 Y52.2485
G1 X79.2855 Y53.0722
G1 X79.1079 Y52.6418
G1 X78.5209 Y52.884
G1 X78.2979 Y53.3425
G1 X78.0172 Y53.5499
G1 X77.8215 Y53.6307
G1 X77.4762 Y53.6817
G1 X76.8128 Y53.4059
G1 X76.6053 Y53.1252
G1 X76.5246 Y52.9295
G1 X76.4736 Y52.5842
G1 X76.7494 Y51.9208
G1 X77.0301 Y51.7133
G1 X77.2258 Y51.6325
G1 X77.5711 Y51.5816
G1 X78.0525 Y51.7493
G1 X78.6395 Y51.507
G1 X78.4618 Y51.0765
G1 X80.4575 Y50.2528
G0 Z3.0
G0 X81.4266 Y52.6006
G0 Z1.2
G1 Z-0.2
G1 X82.2503 Y54.5963
G1 X80.2547 Y55.4201
G1 X80.077 Y54.9896
G1 X79.49 Y55.2319
G1 X79.2671 Y55.6903
G1 X78.9863 Y55.8978
G1 X78.7907 Y55.9786
G1 X78.4453 Y56.0295
G1 X77.7819 Y55.7538
G1 X77.5744 Y55.473
G1 X77.4937 Y55.2774
G1 X77.4427 Y54.932
G1 X77.7185 Y54.2686
G1 X77.9992 Y54.0611
G1 X78.1949 Y53.9804
G1 X78.5402 Y53.9294
G1 X79.0216 Y54.0971
G1 X79.6086 Y53.8548
G1 X79.4309 Y53.4244
G1 X81.4266 Y52.6006
G1 X82.2503 Y54.5963
G1 X80.2547 Y55.4201
G1 X80.077 Y54.9896
G1 X79.49 Y55.2319
G1 X79.2671 Y55.6903
G1 X78.9863 Y55.8978
G1 X78.7907 Y55.9786
G1 X78.4453 Y56.0295
G1 X77.7819 Y55.7538
G1 X77.5744 Y55.473
G1 X77.4937 Y55.2774
G1 X77.4427 Y54.932
G1 X77.7185 Y54.2686
G1 X77.9992 Y54.0611
G1 X78.1949 Y53.9804
G1 X78.5402 Y53.9294
G1 X79.0216 Y54.0971
G1 X79.6086 Y53.8548
G1 X79.4309 Y53.4244
G1 X81.4266 Y52.6006
G0 Z3.0
G0 X82.3957 Y54.9485
G0 Z1.2
G1 Z-0.2
G1 X83.2194 Y56.9442
G1 X81.2238 Y57.7679
G1 X81.0461 Y57.3375
G1 X80.4591 Y57.5798
G1 X80.2362 Y58.0382
G1 X79.9554 Y58.2456
G1 X79.7598 Y58.3264
G1 X79.4144 Y58.3774
G1 X78.751 Y58.1016
G1 X78.5436 Y57.8209
G1 X78.4628 Y57.6252
G1 X78.4118 Y57.2799
G1 X78.6876 Y56.6165
G1 X78.9683 Y56.409
G1 X79.164 Y56.3282
G1 X79.5093 Y56.2773
G1 X79.9907 Y56.445
G1 X80.5777 Y56.2027
G1 X80.4 Y55.7722
G1 X82.3957 Y54.9485
G1 X83.2194 Y56.9442
G1 X81.2238 Y57.7679
G1 X81.0461 Y57.3375
G1 X80.4591 Y57.5798
G1 X80.2362 Y58.0382
G1 X79.9554 Y58.2456
G1 X79.7598 Y58.3264
G1 X79.4144 Y58.3774
G1 X78.751 Y58.1016
G1 X78.5436 Y57.8209
G1 X78.4628 Y57.6252
G1 X78.4118 Y57.2799
G1 X78.6876 Y56.6165
G1 X78.9683 Y56.409
G1 X79.164 Y56.3282
G1 X79.5093 Y56.2773
G1 X79.9907 Y56.445
G1 X80.5777 Y56.2027
G1 X80.4 Y55.7722
G1 X82.3957 Y54.9485
G0 Z3.0
G0 X83.3648 Y57.2963
G0 Z1.2
G1 Z-0.2
G1 X84.1886 Y59.292
G1 X82.1929 Y60.1158
G1 X82.0152 Y59.6853
G1 X81.4283 Y59.9276
G1 X81.2053 Y60.386
G1 X80.9245 Y60.5935
G1 X80.7289 Y60.6743
G1 X80.3835 Y60.7252
G1 X79.7201 Y60.4495
G1 X79.5127 Y60.1687
G1 X79.4319 Y59.9731
G1 X79.381 Y59.6277
G1 X79.6567 Y58.9643
G1 X79.9374 Y58.7568
G1 X80.1331 Y58.6761
G1 X80.4785 Y58.6251
G1 X80.9598 Y58.7928
G1 X81.5468 Y58.5505
G1 X81.3691 Y58.1201
G1 X83.3648 Y57.2963
G1 X84.1886 Y59.292
G1 X82.1929 Y60.1158
G1 X82.0152 Y59.6853
G1 X81.4283 Y59.9276
G1 X81.2053 Y60.386
G1 X80.9245 Y60.5935
G1 X80.7289 Y60.6743
G1 X80.3835 Y60.7252
G1 X79.7201 Y60.4495
G1 X79.5127 Y60.1687
G1 X79.4319 Y59.9731
G1 X79.381 Y59.6277
G1 X79.6567 Y58.9643
G1 X79.9374 Y58.7568
G1 X80.1331 Y58.6761
G1 X80.4785 Y58.6251
G1 X80.9598 Y58.7928
G1 X81.5468 Y58.5505
G1 X81.3691 Y58.1201
G1 X83.3648 Y57.2963
G0 Z3.0
G0 X84.3339 Y59.6442
G0 Z1.2
G1 Z-0.2
G1 X85.1577 Y61.6399
G1 X83.162 Y62.4636
G1 X82.9843 Y62.0332
G1 X82.3974 Y62.2755
G1 X82.1744 Y62.7339
G1 X81.8937 Y62.9414
G1 X81.698 Y63.0221
G1 X81.3527 Y63.0731
G1 X80.6893 Y62.7973
G1 X80.4818 Y62.5166
G1 X80.401 Y62.3209
G1 X80.3501 Y61.9756
G1 X80.6258 Y61.3122
G1 X80.9066 Y61.1047
G1 X81.1022 Y61.0239
G1 X81.4476 Y60.973
G1 X81.929 Y61.1407
G1 X82.5159 Y60.8984
G1 X82.3383 Y60.4679
G1 X84.3339 Y59.6442
G1 X85.1577 Y61.6399
G1 X83.162 Y62.4636
G1 X82.9843 Y62.0332
G1 X82.3974 Y62.2755
G1 X82.1744 Y62.7339
G1 X81.8937 Y62.9414
G1 X81.698 Y63.0221
G1 X81.3527 Y63.0731
G1 X80.6893 Y62.7973
G1 X80.4818 Y62.5166
G1 X80.401 Y62.3209
G1 X80.3501 Y61.9756
G1 X80.6258 Y61.3122
G1 X80.9066 Y61.1047
G1 X81.1022 Y61.0239
G1 X81.4476 Y60.973
G1 X81.929 Y61.1407
G1 X82.5159 Y60.8984
G1 X82.3383 Y60.4679
G1 X84.3339 Y59.6442
G0 Z3.0
G0 X85.303 Y61.9921
G0 Z1.2
G1 Z-0.2
G1 X86.1268 Y63.9877
G1 X84.1311 Y64.8115
G1 X83.9534 Y64.381
G1 X83.3665 Y64.6233
G1 X83.1435 Y65.0817
G1 X82.8628 Y65.2892
G1 X82.6671 Y65.37
G1 X82.3218 Y65.4209
G1 X81.6584 Y65.1452
G1 X81.4509 Y64.8644
G1 X81.3701 Y64.6688
G1 X81.3192 Y64.3234
G1 X81.5949 Y63.66
G1 X81.8757 Y63.4526
G1 X82.0713 Y63.3718
G1 X82.4167 Y63.3208
G1 X82.8981 Y63.4885
G1 X83.485 Y63.2462
G1 X83.3074 Y62.8158
G1 X85.303 Y61.9921
G1 X86.1268 Y63.9877
G1 X84.1311 Y64.8115
G1 X83.9534 Y64.381
G1 X83.3665 Y64.6233
G1 X83.1435 Y65.0817
G1 X82.8628 Y65.2892
G1 X82.6671 Y65.37
G1 X82.3218 Y65.4209
G1 X81.6584 Y65.1452
G1 X81.4509 Y64.8644
G1 X81.3701 Y64.6688
G1 X81.3192 Y64.3234
G1 X81.5949 Y63.66
G1 X81.8757 Y63.4526
G1 X82.0713 Y63.3718
G1 X82.4167 Y63.3208
G1 X82.8981 Y63.4885
G1 X83.485 Y63.2462
G1 X83.3074 Y62.8158
G1 X85.303 Y61.9921
G0 Z3.0
G0 X80.9397 Y64.8464
G0 Z1.2
G1 Z-0.2
G1 X81.0205 Y65.0421
G1 X81.0714 Y65.3875
G1 X80.7957 Y66.0508
G1 X80.5149 Y66.2583
G1 X80.3193 Y66.3391
G1 X79.9739 Y66.39
G1 X79.3105 Y66.1143
G1 X79.103 Y65.8335
G1 X79.0223 Y65.6379
G1 X78.9713 Y65.2925
G1 X79.139 Y64.8111
G1 X78.7998 Y63.9894
G1 X78.3414 Y63.7664
G1 X78.1339 Y63.4857
G1 X78.0532 Y63.29
G1 X78.0022 Y62.9447
G1 X78.1699 Y62.4633
G1 X77.8307 Y61.6415
G1 X77.3723 Y61.4186
G1 X77.1648 Y61.1378
G1 X77.0841 Y60.9422
G1 X77.0331 Y60.5968
G1 X77.2008 Y60.1154
G1 X76.8616 Y59.2937
G1 X76.4032 Y59.0707
G1 X76.1957 Y58.79
G1 X76.1149 Y58.5943
G1 X76.064 Y58.249
G1 X76.2317 Y57.7676
G1 X75.8925 Y56.9458
G1 X75.4341 Y56.7229
G1 X75.2266 Y56.4421
G1 X75.1458 Y56.2465
G1 X75.0949 Y55.9011
G1 X75.2626 Y55.4197
G1 X74.9234 Y54.598
G1 X74.465 Y54.375
G1 X74.2575 Y54.0943
G1 X74.1767 Y53.8986
G1 X74.1258 Y53.5533
G1 X74.2934 Y53.0719
G1 X73.9543 Y52.2501
G1 X73.4958 Y52.0272
G1 X73.2884 Y51.7464
G1 X73.2076 Y51.5508
G1 X73.1566 Y51.2054
G1 X73.3243 Y50.724
G1 X72.9851 Y49.9023
G1 X72.5267 Y49.6793
G1 X72.3192 Y49.3986
G1 X72.2385 Y49.2029
G1 X72.1875 Y48.8576
G1 X72.4633 Y48.1942
G1 X72.744 Y47.9867
G1 X73.0571 Y47.8575
G1 X77.0622 Y38.1439
G1 X72.2651 Y26.522
G1 X72.2788 Y26.3332
G1 X74.078 Y21.9267
G1 X74.2643 Y21.7124
G1 X75.36 Y21.2601
G1 X76.6077 Y18.1804
G1 X76.4946 Y17.9065
G1 X76.4436 Y17.5612
G1 X76.7194 Y16.8978
G1 X77.0001 Y16.6903
G1 X77.1958 Y16.6095
G1 X77.5411 Y16.5586
G1 X78.2045 Y16.8343
G1 X78.412 Y17.1151
G1 X78.5251 Y17.389
G1 X78.5437 Y17.6561
G1 X78.268 Y18.3195
G1 X77.9872 Y18.527
G1 X77.6742 Y18.6562
G1 X76.2886 Y22.0675
G1 X76.1023 Y22.2819
G1 X75.0458 Y22.718
G1 X73.513 Y26.3275
G1 X78.3263 Y37.9885
G1 X78.3058 Y38.2717
G1 X74.1074 Y48.2941
G1 X74.2367 Y48.6071
G1 X74.2876 Y48.9525
G1 X74.1199 Y49.4339
G1 X74.4591 Y50.2556
G1 X74.9175 Y50.4786
G1 X75.125 Y50.7593
G1 X75.2058 Y50.955
G1 X75.2567 Y51.3003
G1 X75.089 Y51.7817
G1 X75.4282 Y52.6035
G1 X75.8867 Y52.8264
G1 X76.0941 Y53.1072
G1 X76.1749 Y53.3028
G1 X76.2258 Y53.6482
G1 X76.0582 Y54.1296
G1 X76.3974 Y54.9513
G1 X76.8558 Y55.1743
G1 X77.0632 Y55.455
G1 X77.144 Y55.6507
G1 X77.195 Y55.996
G1 X77.0273 Y56.4774
G1 X77.3665 Y57.2992
G1 X77.8249 Y57.5221
G1 X78.0324 Y57.8029
G1 X78.1131 Y57.9985
G1 X78.1641 Y58.3439
G1 X77.9964 Y58.8253
G1 X78.3356 Y59.647
G1 X78.794 Y59.87
G1 X79.0015 Y60.1507
G1 X79.0822 Y60.3464
G1 X79.1332 Y60.6917
G1 X78.9655 Y61.1731
G1 X79.3047 Y61.9949
G1 X79.7631 Y62.2178
G1 X79.9706 Y62.4986
G1 X80.0513 Y62.6942
G1 X80.1023 Y63.0396
G1 X79.9346 Y63.521
G1 X80.2738 Y64.3427
G1 X80.7322 Y64.5657
G1 X80.9397 Y64.8464
G1 X81.0205 Y65.0421
G1 X81.0714 Y65.3875
G1 X80.7957 Y66.0508
G1 X80.5149 Y66.2583
G1 X80.3193 Y66.3391
G1 X79.9739 Y66.39
G1 X79.3105 Y66.1143
G1 X79.103 Y65.8335
G1 X79.0223 Y65.6379
G1 X78.9713 Y65.2925
G1 X79.139 Y64.8111
G1 X78.7998 Y63.9894
G1 X78.3414 Y63.7664
G1 X78.1339 Y63.4857
G1 X78.0532 Y63.29
G1 X78.0022 Y62.9447
G1 X78.1699 Y62.4633
G1 X77.8307 Y61.6415
G1 X77.3723 Y61.4186
G1 X77.1648 Y61.1378
G1 X77.0841 Y60.9422
G1 X77.0331 Y60.5968
G1 X77.2008 Y60.1154
G1 X76.8616 Y59.2937
G1 X76.4032 Y59.0707
G1 X76.1957 Y58.79
G1 X76.1149 Y58.5943
G1 X76.064 Y58.249
G1 X76.2317 Y57.7676
G1 X75.8925 Y56.9458
G1 X75.4341 Y56.7229
G1 X75.2266 Y56.4421
G1 X75.1458 Y56.2465
G1 X75.0949 Y55.9011
G1 X75.2626 Y55.4197
G1 X74.9234 Y54.598
G1 X74.465 Y54.375
G1 X74.2575 Y54.0943
G1 X74.1767 Y53.8986
G1 X74.1258 Y53.5533
G1 X74.2934 Y53.0719
G1 X73.9543 Y52.2501
G1 X73.4958 Y52.0272
G1 X73.2884 Y51.7464
G1 X73.2076 Y51.5508
G1 X73.1566 Y51.2054
G1 X73.3243 Y50.724
G1 X72.9851 Y49.9023
G1 X72.5267 Y49.6793
G1 X72.3192 Y49.3986
G1 X72.2385 Y49.2029
G1 X72.1875 Y48.8576
G1 X72.4633 Y48.1942
G1 X72.744 Y47.9867
G1 X73.0571 Y47.8575
G1 X77.0622 Y38.1439
G1 X72.2651 Y26.522
G1 X72.2788 Y26.3332
G1 X74.078 Y21.9267
G1 X74.2643 Y21.7124
G1 X75.36 Y21.2601
G1 X76.6077 Y18.1804
G1 X76.4946 Y17.9065
G1 X76.4436 Y17.5612
G1 X76.7194 Y16.8978
G1 X77.0001 Y16.6903
G1 X77.1958 Y16.6095
G1 X77.5411 Y16.5586
G1 X78.2045 Y16.8343
G1 X78.412 Y17.1151
G1 X78.5251 Y17.389
G1 X78.5437 Y17.6561
G1 X78.268 Y18.3195
G1 X77.9872 Y18.527
G1 X77.6742 Y18.6562
G1 X76.2886 Y22.0675
G1 X76.1023 Y22.2819
G1 X75.0458 Y22.718
G1 X73.513 Y26.3275
G1 X78.3263 Y37.9885
G1 X78.3058 Y38.2717
G1 X74.1074 Y48.2941
G1 X74.2367 Y48.6071
G1 X74.2876 Y48.9525
G1 X74.1199 Y49.4339
G1 X74.4591 Y50.2556
G1 X74.9175 Y50.4786
G1 X75.125 Y50.7593
G1 X75.2058 Y50.955
G1 X75.2567 Y51.3003
G1 X75.089 Y51.7817
G1 X75.4282 Y52.6035
G1 X75.8867 Y52.8264
G1 X76.0941 Y53.1072
G1 X76.1749 Y53.3028
G1 X76.2258 Y53.6482
G1 X76.0582 Y54.1296
G1 X76.3974 Y54.9513
G1 X76.8558 Y55.1743
G1 X77.0632 Y55.455
G1 X77.144 Y55.6507
G1 X77.195 Y55.996
G1 X77.0273 Y56.4774
G1 X77.3665 Y57.2992
G1 X77.8249 Y57.5221
G1 X78.0324 Y57.8029
G1 X78.1131 Y57.9985
G1 X78.1641 Y58.3439
G1 X77.9964 Y58.8253
G1 X78.3356 Y59.647
G1 X78.794 Y59.87
G1 X79.0015 Y60.1507
G1 X79.0822 Y60.3464
G1 X79.1332 Y60.6917
G1 X78.9655 Y61.1731
G1 X79.3047 Y61.9949
G1 X79.7631 Y62.2178
G1 X79.9706 Y62.4986
G1 X80.0513 Y62.6942
G1 X80.1023 Y63.0396
G1 X79.9346 Y63.521
G1 X80.2738 Y64.3427
G1 X80.7322 Y64.5657
G1 X80.9397 Y64.8464
G0 Z3.0
G0 X76.8807 Y68.2164
G0 Z1.2
G1 Z-0.2
G1 X77.7045 Y70.212
G1 X75.7088 Y71.0358
G1 X75.5311 Y70.6053
G1 X74.9442 Y70.8476
G1 X74.7212 Y71.306
G1 X74.4405 Y71.5135
G1 X74.2448 Y71.5943
G1 X73.8995 Y71.6452
G1 X73.2361 Y71.3695
G1 X73.0286 Y71.0887
G1 X72.9478 Y70.8931
G1 X72.8969 Y70.5477
G1 X73.1726 Y69.8843
G1 X73.4534 Y69.6769
G1 X73.649 Y69.5961
G1 X73.9944 Y69.5452
G1 X74.4758 Y69.7128
G1 X75.0627 Y69.4706
G1 X74.8851 Y69.0401
G1 X76.8807 Y68.2164
G1 X77.7045 Y70.212
G1 X75.7088 Y71.0358
G1 X75.5311 Y70.6053
G1 X74.9442 Y70.8476
G1 X74.7212 Y71.306
G1 X74.4405 Y71.5135
G1 X74.2448 Y71.5943
G1 X73.8995 Y71.6452
G1 X73.2361 Y71.3695
G1 X73.0286 Y71.0887
G1 X72.9478 Y70.8931
G1 X72.8969 Y70.5477
G1 X73.1726 Y69.8843
G1 X73.4534 Y69.6769
G1 X73.649 Y69.5961
G1 X73.9944 Y69.5452
G1 X74.4758 Y69.7128
G1 X75.0627 Y69.4706
G1 X74.8851 Y69.0401
G1 X76.8807 Y68.2164
G0 Z3.0
G0 X77.8499 Y70.5642
G0 Z1.2
G1 Z-0.2
G1 X78.6736 Y72.5599
G1 X76.6779 Y73.3836
G1 X76.5003 Y72.9532
G1 X75.9133 Y73.1955
G1 X75.6903 Y73.6539
G1 X75.4096 Y73.8614
G1 X75.2139 Y73.9421
G1 X74.8686 Y73.9931
G1 X74.2052 Y73.7173
G1 X73.9977 Y73.4366
G1 X73.917 Y73.2409
G1 X73.866 Y72.8956
G1 X74.1417 Y72.2322
G1 X74.4225 Y72.0247
G1 X74.6181 Y71.944
G1 X74.9635 Y71.893
G1 X75.4449 Y72.0607
G1 X76.0319 Y71.8184
G1 X75.8542 Y71.388
G1 X77.8499 Y70.5642
G1 X78.6736 Y72.5599
G1 X76.6779 Y73.3836
G1 X76.5003 Y72.9532
G1 X75.9133 Y73.1955
G1 X75.6903 Y73.6539
G1 X75.4096 Y73.8614
G1 X75.2139 Y73.9421
G1 X74.8686 Y73.9931
G1 X74.2052 Y73.7173
G1 X73.9977 Y73.4366
G1 X73.917 Y73.2409
G1 X73.866 Y72.8956
G1 X74.1417 Y72.2322
G1 X74.4225 Y72.0247
G1 X74.6181 Y71.944
G1 X74.9635 Y71.893
G1 X75.4449 Y72.0607
G1 X76.0319 Y71.8184
G1 X75.8542 Y71.388
G1 X77.8499 Y70.5642
G0 Z3.0
G0 X78.819 Y72.9121
G0 Z1.2
G1 Z-0.2
G1 X79.6427 Y74.9077
G1 X77.647 Y75.7315
G1 X77.4694 Y75.3011
G1 X76.8824 Y75.5433
G1 X76.6594 Y76.0017
G1 X76.3787 Y76.2092
G1 X76.183 Y76.29
G1 X75.8377 Y76.3409
G1 X75.1743 Y76.0652
G1 X74.9668 Y75.7844
G1 X74.8861 Y75.5888
G1 X74.8351 Y75.2434
G1 X75.1109 Y74.58
G1 X75.3916 Y74.3726
G1 X75.5873 Y74.2918
G1 X75.9326 Y74.2409
G1 X76.414 Y74.4085
G1 X77.001 Y74.1663
G1 X76.8233 Y73.7358
G1 X78.819 Y72.9121
G1 X79.6427 Y74.9077
G1 X77.647 Y75.7315
G1 X77.4694 Y75.3011
G1 X76.8824 Y75.5433
G1 X76.6594 Y76.0017
G1 X76.3787 Y76.2092
G1 X76.183 Y76.29
G1 X75.8377 Y76.3409
G1 X75.1743 Y76.0652
G1 X74.9668 Y75.7844
G1 X74.8861 Y75.5888
G1 X74.8351 Y75.2434
G1 X75.1109 Y74.58
G1 X75.3916 Y74.3726
G1 X75.5873 Y74.2918
G1 X75.9326 Y74.2409
G1 X76.414 Y74.4085
G1 X77.001 Y74.1663
G1 X76.8233 Y73.7358
G1 X78.819 Y72.9121
G0 Z3.0
G0 X79.7881 Y75.2599
G0 Z1.2
G1 Z-0.2
G1 X80.6118 Y77.2556
G1 X78.6162 Y78.0794
G1 X78.4385 Y77.6489
G1 X77.8515 Y77.8912
G1 X77.6286 Y78.3496
G1 X77.3478 Y78.5571
G1 X77.1522 Y78.6378
G1 X76.8068 Y78.6888
G1 X76.1434 Y78.413
G1 X75.9359 Y78.1323
G1 X75.8552 Y77.9366
G1 X75.8042 Y77.5913
G1 X76.08 Y76.9279
G1 X76.3607 Y76.7204
G1 X76.5564 Y76.6397
G1 X76.9017 Y76.5887
G1 X77.3831 Y76.7564
G1 X77.9701 Y76.5141
G1 X77.7924 Y76.0837
G1 X79.7881 Y75.2599
G1 X80.6118 Y77.2556
G1 X78.6162 Y78.0794
G1 X78.4385 Y77.6489
G1 X77.8515 Y77.8912
G1 X77.6286 Y78.3496
G1 X77.3478 Y78.5571
G1 X77.1522 Y78.6378
G1 X76.8068 Y78.6888
G1 X76.1434 Y78.413
G1 X75.9359 Y78.1323
G1 X75.8552 Y77.9366
G1 X75.8042 Y77.5913
G1 X76.08 Y76.9279
G1 X76.3607 Y76.7204
G1 X76.5564 Y76.6397
G1 X76.9017 Y76.5887
G1 X77.3831 Y76.7564
G1 X77.9701 Y76.5141
G1 X77.7924 Y76.0837
G1 X79.7881 Y75.2599
G0 Z3.0
G0 X80.7572 Y77.6078
G0 Z1.2
G1 Z-0.2
G1 X81.5809 Y79.6035
G1 X79.5853 Y80.4272
G1 X79.4076 Y79.9968
G1 X78.8206 Y80.239
G1 X78.5977 Y80.6975
G1 X78.3169 Y80.9049
G1 X78.1213 Y80.9857
G1 X77.7759 Y81.0366
G1 X77.1125 Y80.7609
G1 X76.9051 Y80.4802
G1 X76.8243 Y80.2845
G1 X76.7733 Y79.9392
G1 X77.0491 Y79.2758
G1 X77.3298 Y79.0683
G1 X77.5255 Y78.9875
G1 X77.8708 Y78.9366
G1 X78.3522 Y79.1042
G1 X78.9392 Y78.862
G1 X78.7615 Y78.4315
G1 X80.7572 Y77.6078
G1 X81.5809 Y79.6035
G1 X79.5853 Y80.4272
G1 X79.4076 Y79.9968
G1 X78.8206 Y80.239
G1 X78.5977 Y80.6975
G1 X78.3169 Y80.9049
G1 X78.1213 Y80.9857
G1 X77.7759 Y81.0366
G1 X77.1125 Y80.7609
G1 X76.9051 Y80.4802
G1 X76.8243 Y80.2845
G1 X76.7733 Y79.9392
G1 X77.0491 Y79.2758
G1 X77.3298 Y79.0683
G1 X77.5255 Y78.9875
G1 X77.8708 Y78.9366
G1 X78.3522 Y79.1042
G1 X78.9392 Y78.862
G1 X78.7615 Y78.4315
G1 X80.7572 Y77.6078
G0 Z3.0
G0 X81.7263 Y79.9556
G0 Z1.2
G1 Z-0.2
G1 X82.5501 Y81.9513
G1 X80.5544 Y82.7751
G1 X80.3767 Y82.3446
G1 X79.7897 Y82.5869
G1 X79.5668 Y83.0453
G1 X79.286 Y83.2528
G1 X79.0904 Y83.3335
G1 X78.745 Y83.3845
G1 X78.0816 Y83.1088
G1 X77.8742 Y82.828
G1 X77.7934 Y82.6324
G1 X77.7425 Y82.287
G1 X78.0182 Y81.6236
G1 X78.2989 Y81.4161
G1 X78.4946 Y81.3354
G1 X78.84 Y81.2844
G1 X79.3213 Y81.4521
G1 X79.9083 Y81.2098
G1 X79.7306 Y80.7794
G1 X81.7263 Y79.9556
G1 X82.5501 Y81.9513
G1 X80.5544 Y82.7751
G1 X80.3767 Y82.3446
G1 X79.7897 Y82.5869
G1 X79.5668 Y83.0453
G1 X79.286 Y83.2528
G1 X79.0904 Y83.3335
G1 X78.745 Y83.3845
G1 X78.0816 Y83.1088
G1 X77.8742 Y82.828
G1 X77.7934 Y82.6324
G1 X77.7425 Y82.287
G1 X78.0182 Y81.6236
G1 X78.2989 Y81.4161
G1 X78.4946 Y81.3354
G1 X78.84 Y81.2844
G1 X79.3213 Y81.4521
G1 X79.9083 Y81.2098
G1 X79.7306 Y80.7794
G1 X81.7263 Y79.9556
G0 Z3.0
G0 X82.6954 Y82.3035
G0 Z1.2
G1 Z-0.2
G1 X83.5192 Y84.2992
G1 X81.5235 Y85.1229
G1 X81.3458 Y84.6925
G1 X80.7589 Y84.9348
G1 X80.5359 Y85.3932
G1 X80.2552 Y85.6006
G1 X80.0595 Y85.6814
G1 X79.7142 Y85.7324
G1 X79.0508 Y85.4566
G1 X78.8433 Y85.1759
G1 X78.7625 Y84.9802
G1 X78.7116 Y84.6349
G1 X78.9873 Y83.9715
G1 X79.2681 Y83.764
G1 X79.4637 Y83.6832
G1 X79.8091 Y83.6323
G1 X80.2905 Y83.8
G1 X80.8774 Y83.5577
G1 X80.6998 Y83.1272
G1 X82.6954 Y82.3035
G1 X83.5192 Y84.2992
G1 X81.5235 Y85.1229
G1 X81.3458 Y84.6925
G1 X80.7589 Y84.9348
G1 X80.5359 Y85.3932
G1 X80.2552 Y85.6006
G1 X80.0595 Y85.6814
G1 X79.7142 Y85.7324
G1 X79.0508 Y85.4566
G1 X78.8433 Y85.1759
G1 X78.7625 Y84.9802
G1 X78.7116 Y84.6349
G1 X78.9873 Y83.9715
G1 X79.2681 Y83.764
G1 X79.4637 Y83.6832
G1 X79.8091 Y83.6323
G1 X80.2905 Y83.8
G1 X80.8774 Y83.5577
G1 X80.6998 Y83.1272
G1 X82.6954 Y82.3035
G0 Z3.0
G0 X83.6645 Y84.6513
G0 Z1.2
G1 Z-0.2
G1 X84.4883 Y86.647
G1 X82.4926 Y87.4708
G1 X82.3149 Y87.0403
G1 X81.728 Y87.2826
G1 X81.505 Y87.741
G1 X81.2243 Y87.9485
G1 X81.0286 Y88.0293
G1 X80.6833 Y88.0802
G1 X80.0199 Y87.8045
G1 X79.8124 Y87.5237
G1 X79.7316 Y87.3281
G1 X79.6807 Y86.9827
G1 X79.9564 Y86.3193
G1 X80.2372 Y86.1118
G1 X80.4328 Y86.0311
G1 X80.7782 Y85.9801
G1 X81.2596 Y86.1478
G1 X81.8465 Y85.9055
G1 X81.6689 Y85.4751
G1 X83.6645 Y84.6513
G1 X84.4883 Y86.647
G1 X82.4926 Y87.4708
G1 X82.3149 Y87.0403
G1 X81.728 Y87.2826
G1 X81.505 Y87.741
G1 X81.2243 Y87.9485
G1 X81.0286 Y88.0293
G1 X80.6833 Y88.0802
G1 X80.0199 Y87.8045
G1 X79.8124 Y87.5237
G1 X79.7316 Y87.3281
G1 X79.6807 Y86.9827
G1 X79.9564 Y86.3193
G1 X80.2372 Y86.1118
G1 X80.4328 Y86.0311
G1 X80.7782 Y85.9801
G1 X81.2596 Y86.1478
G1 X81.8465 Y85.9055
G1 X81.6689 Y85.4751
G1 X83.6645 Y84.6513
G0 Z3.0
G0 X79.3012 Y87.5057
G0 Z1.2
G1 Z-0.2
G1 X79.382 Y87.7014
G1 X79.4329 Y88.0467
G1 X79.1572 Y88.7101
G1 X78.8764 Y88.9176
G1 X78.6808 Y88.9984
G1 X78.3354 Y89.0493
G1 X77.672 Y88.7736
G1 X77.4645 Y88.4928
G1 X77.3838 Y88.2972
G1 X77.3328 Y87.9518
G1 X77.5005 Y87.4704
G1 X77.1613 Y86.6487
G1 X76.7029 Y86.4257
G1 X76.4954 Y86.145
G1 X76.4147 Y85.9493
G1 X76.3637 Y85.604
G1 X76.5314 Y85.1226
G1 X76.1922 Y84.3008
G1 X75.7338 Y84.0779
G1 X75.5263 Y83.7971
G1 X75.4456 Y83.6015
G1 X75.3946 Y83.2561
G1 X75.5623 Y82.7747
G1 X75.2231 Y81.953
G1 X74.7647 Y81.73
G1 X74.5572 Y81.4493
G1 X74.4764 Y81.2536
G1 X74.4255 Y80.9083
G1 X74.5932 Y80.4269
G1 X74.254 Y79.6051
G1 X73.7956 Y79.3822
G1 X73.5881 Y79.1014
G1 X73.5073 Y78.9058
G1 X73.4564 Y78.5604
G1 X73.6241 Y78.079
G1 X73.2849 Y77.2573
G1 X72.8264 Y77.0343
G1 X72.619 Y76.7536
G1 X72.5382 Y76.5579
G1 X72.4873 Y76.2126
G1 X72.6549 Y75.7312
G1 X72.3157 Y74.9094
G1 X71.8573 Y74.6865
G1 X71.6499 Y74.4057
G1 X71.5691 Y74.2101
G1 X71.5181 Y73.8647
G1 X71.6858 Y73.3833
G1 X71.3466 Y72.5616
G1 X70.8882 Y72.3386
G1 X70.6807 Y72.0579
G1 X70.6 Y71.8622
G1 X70.549 Y71.5168
G1 X70.8248 Y70.8535
G1 X71.1055 Y70.646
G1 X71.4186 Y70.5168
G1 X75.4237 Y60.8031
G1 X70.6266 Y49.1813
G1 X70.6471 Y48.898
G1 X75.4199 Y37.4936
G1 X70.8489 Y26.4196
G1 X70.8626 Y26.2307
G1 X73.0065 Y20.995
G1 X73.1928 Y20.7807
G1 X73.7015 Y20.5708
G1 X74.2598 Y19.1496
G1 X74.1467 Y18.8756
G1 X74.0958 Y18.5303
G1 X74.3715 Y17.8669
G1 X74.6523 Y17.6594
G1 X74.8479 Y17.5787
G1 X75.1933 Y17.5277
G1 X75.8567 Y17.8034
G1 X76.0642 Y18.0842
G1 X76.1772 Y18.3581
G1 X76.1959 Y18.6252
G1 X75.9201 Y19.2886
G1 X75.6394 Y19.4961
G1 X75.3263 Y19.6253
G1 X74.6301 Y21.3782
G1 X74.4438 Y21.5925
G1 X73.9351 Y21.8025
G1 X72.1129 Y26.2642
G1 X76.6678 Y37.2991
G1 X76.6473 Y37.5824
G1 X71.8745 Y48.9868
G1 X76.6878 Y60.6478
G1 X76.6673 Y60.931
G1 X72.4689 Y70.9534
G1 X72.5982 Y71.2664
G1 X72.6491 Y71.6118
G1 X72.4814 Y72.0932
G1 X72.8206 Y72.9149
G1 X73.279 Y73.1379
G1 X73.4865 Y73.4186
G1 X73.5673 Y73.6143
G1 X73.6182 Y73.9596
G1 X73.4505 Y74.441
G1 X73.7897 Y75.2628
G1 X74.2481 Y75.4857
G1 X74.4556 Y75.7665
G1 X74.5364 Y75.9621
G1 X74.5873 Y76.3075
G1 X74.4197 Y76.7889
G1 X74.7588 Y77.6106
G1 X75.2173 Y77.8336
G1 X75.4247 Y78.1143
G1 X75.5055 Y78.31
G1 X75.5565 Y78.6553
G1 X75.3888 Y79.1367
G1 X75.728 Y79.9585
G1 X76.1864 Y80.1814
G1 X76.3939 Y80.4622
G1 X76.4746 Y80.6578
G1 X76.5256 Y81.0032
G1 X76.3579 Y81.4846
G1 X76.6971 Y82.3063
G1 X77.1555 Y82.5293
G1 X77.363 Y82.81
G1 X77.4437 Y83.0057
G1 X77.4947 Y83.351
G1 X77.327 Y83.8324
G1 X77.6662 Y84.6542
G1 X78.1246 Y84.8771
G1 X78.3321 Y85.1579
G1 X78.4128 Y85.3535
G1 X78.4638 Y85.6989
G1 X78.2961 Y86.1803
G1 X78.6353 Y87.002
G1 X79.0937 Y87.225
G1 X79.3012 Y87.5057
G1 X79.382 Y87.7014
G1 X79.4329 Y88.0467
G1 X79.1572 Y88.7101
G1 X78.8764 Y88.9176
G1 X78.6808 Y88.9984
G1 X78.3354 Y89.0493
G1 X77.672 Y88.7736
G1 X77.4645 Y88.4928
G1 X77.3838 Y88.2972
G1 X77.3328 Y87.9518
G1 X77.5005 Y87.4704
G1 X77.1613 Y86.6487
G1 X76.7029 Y86.4257
G1 X76.4954 Y86.145
G1 X76.4147 Y85.9493
G1 X76.3637 Y85.604
G1 X76.5314 Y85.1226
G1 X76.1922 Y84.3008
G1 X75.7338 Y84.0779
G1 X75.5263 Y83.7971
G1 X75.4456 Y83.6015
G1 X75.3946 Y83.2561
G1 X75.5623 Y82.7747
G1 X75.2231 Y81.953
G1 X74.7647 Y81.73
G1 X74.5572 Y81.4493
G1 X74.4764 Y81.2536
G1 X74.4255 Y80.9083
G1 X74.5932 Y80.4269
G1 X74.254 Y79.6051
G1 X73.7956 Y79.3822
G1 X73.5881 Y79.1014
G1 X73.5073 Y78.9058
G1 X73.4564 Y78.5604
G1 X73.6241 Y78.079
G1 X73.2849 Y77.2573
G1 X72.8264 Y77.0343
G1 X72.619 Y76.7536
G1 X72.5382 Y76.5579
G1 X72.4873 Y76.2126
G1 X72.6549 Y75.7312
G1 X72.3157 Y74.9094
G1 X71.8573 Y74.6865
G1 X71.6499 Y74.4057
G1 X71.5691 Y74.2101
G1 X71.5181 Y73.8647
G1 X71.6858 Y73.3833
G1 X71.3466 Y72.5616
G1 X70.8882 Y72.3386
G1 X70.6807 Y72.0579
G1 X70.6 Y71.8622
G1 X70.549 Y71.5168
G1 X70.8248 Y70.8535
G1 X71.1055 Y70.646
G1 X71.4186 Y70.5168
G1 X75.4237 Y60.8031
G1 X70.6266 Y49.1813
G1 X70.6471 Y48.898
G1 X75.4199 Y37.4936
G1 X70.8489 Y26.4196
G1 X70.8626 Y26.2307
G1 X73.0065 Y20.995
G1 X73.1928 Y20.7807
G1 X73.7015 Y20.5708
G1 X74.2598 Y19.1496
G1 X74.1467 Y18.8756
G1 X74.0958 Y18.5303
G1 X74.3715 Y17.8669
G1 X74.6523 Y17.6594
G1 X74.8479 Y17.5787
G1 X75.1933 Y17.5277
G1 X75.8567 Y17.8034
G1 X76.0642 Y18.0842
G1 X76.1772 Y18.3581
G1 X76.1959 Y18.6252
G1 X75.9201 Y19.2886
G1 X75.6394 Y19.4961
G1 X75.3263 Y19.6253
G1 X74.6301 Y21.3782
G1 X74.4438 Y21.5925
G1 X73.9351 Y21.8025
G1 X72.1129 Y26.2642
G1 X76.6678 Y37.2991
G1 X76.6473 Y37.5824
G1 X71.8745 Y48.9868
G1 X76.6878 Y60.6478
G1 X76.6673 Y60.931
G1 X72.4689 Y70.9534
G1 X72.5982 Y71.2664
G1 X72.6491 Y71.6118
G1 X72.4814 Y72.0932
G1 X72.8206 Y72.9149
G1 X73.279 Y73.1379
G1 X73.4865 Y73.4186
G1 X73.5673 Y73.6143
G1 X73.6182 Y73.9596
G1 X73.4505 Y74.441
G1 X73.7897 Y75.2628
G1 X74.2481 Y75.4857
G1 X74.4556 Y75.7665
G1 X74.5364 Y75.9621
G1 X74.5873 Y76.3075
G1 X74.4197 Y76.7889
G1 X74.7588 Y77.6106
G1 X75.2173 Y77.8336
G1 X75.4247 Y78.1143
G1 X75.5055 Y78.31
G1 X75.5565 Y78.6553
G1 X75.3888 Y79.1367
G1 X75.728 Y79.9585
G1 X76.1864 Y80.1814
G1 X76.3939 Y80.4622
G1 X76.4746 Y80.6578
G1 X76.5256 Y81.0032
G1 X76.3579 Y81.4846
G1 X76.6971 Y82.3063
G1 X77.1555 Y82.5293
G1 X77.363 Y82.81
G1 X77.4437 Y83.0057
G1 X77.4947 Y83.351
G1 X77.327 Y83.8324
G1 X77.6662 Y84.6542
G1 X78.1246 Y84.8771
G1 X78.3321 Y85.1579
G1 X78.4128 Y85.3535
G1 X78.4638 Y85.6989
G1 X78.2961 Y86.1803
G1 X78.6353 Y87.002
G1 X79.0937 Y87.225
G1 X79.3012 Y87.5057
G0 Z3.0
G0 X75.2422 Y90.8757
G0 Z1.2
G1 Z-0.2
G1 X76.066 Y92.8713
G1 X74.0703 Y93.6951
G1 X73.8926 Y93.2646
G1 X73.3057 Y93.5069
G1 X73.0827 Y93.9653
G1 X72.802 Y94.1728
G1 X72.6063 Y94.2536
G1 X72.261 Y94.3045
G1 X71.5976 Y94.0288
G1 X71.3901 Y93.748
G1 X71.3093 Y93.5524
G1 X71.2584 Y93.207
G1 X71.5341 Y92.5436
G1 X71.8149 Y92.3362
G1 X72.0105 Y92.2554
G1 X72.3559 Y92.2044
G1 X72.8373 Y92.3721
G1 X73.4242 Y92.1298
G1 X73.2466 Y91.6994
G1 X75.2422 Y90.8757
G1 X76.066 Y92.8713
G1 X74.0703 Y93.6951
G1 X73.8926 Y93.2646
G1 X73.3057 Y93.5069
G1 X73.0827 Y93.9653
G1 X72.802 Y94.1728
G1 X72.6063 Y94.2536
G1 X72.261 Y94.3045
G1 X71.5976 Y94.0288
G1 X71.3901 Y93.748
G1 X71.3093 Y93.5524
G1 X71.2584 Y93.207
G1 X71.5341 Y92.5436
G1 X71.8149 Y92.3362
G1 X72.0105 Y92.2554
G1 X72.3559 Y92.2044
G1 X72.8373 Y92.3721
G1 X73.4242 Y92.1298
G1 X73.2466 Y91.6994
G1 X75.2422 Y90.8757
G0 Z3.0
G0 X76.2114 Y93.2235
G0 Z1.2
G1 Z-0.2
G1 X77.0351 Y95.2192
G1 X75.0394 Y96.0429
G1 X74.8618 Y95.6125
G1 X74.2748 Y95.8548
G1 X74.0518 Y96.3132
G1 X73.7711 Y96.5207
G1 X73.5754 Y96.6014
G1 X73.2301 Y96.6524
G1 X72.5667 Y96.3766
G1 X72.3592 Y96.0959
G1 X72.2784 Y95.9002
G1 X72.2275 Y95.5549
G1 X72.5032 Y94.8915
G1 X72.784 Y94.684
G1 X72.9796 Y94.6032
G1 X73.325 Y94.5523
G1 X73.8064 Y94.72
G1 X74.3933 Y94.4777
G1 X74.2157 Y94.0473
G1 X76.2114 Y93.2235
G1 X77.0351 Y95.2192
G1 X75.0394 Y96.0429
G1 X74.8618 Y95.6125
G1 X74.2748 Y95.8548
G1 X74.0518 Y96.3132
G1 X73.7711 Y96.5207
G1 X73.5754 Y96.6014
G1 X73.2301 Y96.6524
G1 X72.5667 Y96.3766
G1 X72.3592 Y96.0959
G1 X72.2784 Y95.9002
G1 X72.2275 Y95.5549
G1 X72.5032 Y94.8915
G1 X72.784 Y94.684
G1 X72.9796 Y94.6032
G1 X73.325 Y94.5523
G1 X73.8064 Y94.72
G1 X74.3933 Y94.4777
G1 X74.2157 Y94.0473
G1 X76.2114 Y93.2235
G0 Z3.0
G0 X77.1805 Y95.5714
G0 Z1.2
G1 Z-0.2
G1 X78.0042 Y97.567
