( Made using CamBam - http://www.cambam.co.uk )
( matrica.gcode.complete 8/21/2014 3:03:48 PM )
( T0 : 0.0 )
G21 G90 G64 G40
G0 Z3.0
( T0 : 0.0 )
T0 M6
( final_cut )
G17
M3 S1000
G0 X11.0 Y11.0
G0 Z1.0
G1 F300.0 Z-0.6
G1 F1000.0 Y205.0
G1 X56.0
G1 Y11.0
G1 X11.0
G1 F300.0 Z-1.2
G1 F1000.0 Y205.0
G1 X56.0
G1 Y11.0
G1 X11.0
G1 F300.0 Z-1.8
G1 F1000.0 Y205.0
G1 X56.0
G1 Y11.0
G1 X11.0
G1 F300.0 Z-2.35
G1 F1000.0 Y205.0
G1 X56.0
G1 Y11.0
G1 X11.0
G0 Z3.0
M5
M30
