( Made using CamBam - http://www.cambam.co.uk )
( matrica.gcode.complete-double 8/21/2014 7:57:43 PM )
( T0 : 0.0 )
G21 G90 G64 G40
G0 Z3.0
( T0 : 0.0 )
T0 M6
( bottom )
G17
M3 S1000
G0 X46.0686 Y19.0788
G0 Z1.2
G1 F400.0 Z-0.2
G1 X44.073 Y19.9026
G1 X43.8468 Y19.3547
G1 X43.3381 Y19.5647
G1 X43.0854 Y20.1728
G1 X42.7655 Y20.3964
G1 X42.3972 Y20.5027
G1 X37.6473 Y31.8518
G1 X41.5076 Y41.2041
G1 X41.471 Y41.4482
G1 X41.6555 Y41.7842
G1 X41.7226 Y42.1687
G1 X41.4469 Y42.8321
G1 X41.127 Y43.0557
G1 X40.7587 Y43.162
G1 X36.0088 Y54.5111
G1 X39.8691 Y63.8634
G1 X39.8325 Y64.1075
G1 X40.017 Y64.4435
G1 X40.0841 Y64.828
G1 X39.8084 Y65.4914
G1 X39.4885 Y65.715
G1 X39.1202 Y65.8213
G1 X34.3703 Y77.1704
G1 X38.2306 Y86.5227
G1 X38.194 Y86.7668
G1 X38.3785 Y87.1028
G1 X38.4456 Y87.4873
G1 X38.1699 Y88.1507
G1 X37.85 Y88.3743
G1 X37.4817 Y88.4805
G1 X32.7318 Y99.8297
G1 X36.5921 Y109.1819
G1 X36.5555 Y109.4261
G1 X36.74 Y109.7621
G1 X36.8071 Y110.1466
G1 X36.5314 Y110.81
G1 X36.2115 Y111.0336
G1 X35.8432 Y111.1398
G1 X31.0933 Y122.489
G1 X34.9536 Y131.8412
G1 X34.917 Y132.0853
G1 X35.1015 Y132.4214
G1 X35.1686 Y132.8059
G1 X34.8929 Y133.4692
G1 X34.573 Y133.6929
G1 X34.2047 Y133.7991
G1 X29.4548 Y145.1482
G1 X33.3151 Y154.5005
G1 X33.2785 Y154.7446
G1 X33.463 Y155.0807
G1 X33.5301 Y155.4651
G1 X33.2544 Y156.1285
G1 X32.9345 Y156.3522
G1 X32.5662 Y156.4584
G1 X27.8163 Y167.8075
G1 X31.6766 Y177.1598
G1 X31.64 Y177.4039
G1 X31.8245 Y177.7399
G1 X31.8916 Y178.1244
G1 X31.6159 Y178.7878
G1 X31.3351 Y178.9953
G1 X31.1395 Y179.0761
G1 X30.7941 Y179.127
G1 X30.1307 Y178.8513
G1 X29.9232 Y178.5705
G1 X29.8425 Y178.3749
G1 X29.7915 Y178.0295
G1 X30.0673 Y177.3661
G1 X30.348 Y177.1586
G1 X30.5828 Y177.0617
G1 X26.8262 Y167.8498
G1 X31.6816 Y156.0907
G1 X31.4971 Y155.7547
G1 X31.43 Y155.3702
G1 X31.7058 Y154.7068
G1 X31.9865 Y154.4994
G1 X32.2213 Y154.4024
G1 X28.4647 Y145.1905
G1 X33.3201 Y133.4315
G1 X33.1356 Y133.0954
G1 X33.0685 Y132.7109
G1 X33.3443 Y132.0475
G1 X33.625 Y131.8401
G1 X33.8598 Y131.7432
G1 X30.1032 Y122.5312
G1 X34.9586 Y110.7722
G1 X34.7741 Y110.4361
G1 X34.707 Y110.0517
G1 X34.9828 Y109.3883
G1 X35.2635 Y109.1808
G1 X35.4983 Y109.0839
G1 X31.7417 Y99.872
G1 X36.5971 Y88.1129
G1 X36.4126 Y87.7768
G1 X36.3455 Y87.3924
G1 X36.6213 Y86.729
G1 X36.902 Y86.5215
G1 X37.1368 Y86.4246
G1 X33.3802 Y77.2127
G1 X38.2356 Y65.4536
G1 X38.0511 Y65.1176
G1 X37.984 Y64.7331
G1 X38.2598 Y64.0697
G1 X38.5405 Y63.8622
G1 X38.7753 Y63.7653
G1 X35.0187 Y54.5534
G1 X39.8741 Y42.7943
G1 X39.6896 Y42.4583
G1 X39.6225 Y42.0738
G1 X39.8983 Y41.4104
G1 X40.179 Y41.2029
G1 X40.4138 Y41.106
G1 X36.6572 Y31.8941
G1 X41.5126 Y20.135
G1 X41.3281 Y19.799
G1 X41.261 Y19.4145
G1 X41.5368 Y18.7511
G1 X41.8175 Y18.5436
G1 X42.0132 Y18.4629
G1 X42.3585 Y18.4119
G1 X42.9666 Y18.6647
G1 X43.4753 Y18.4547
G1 X43.2492 Y17.9069
G1 X45.2449 Y17.0831
G1 X46.0686 Y19.0788
G0 Z3.0
G0 X45.7584 Y19.8251
G0 Z1.2
G1 Z-0.2
G1 X46.3389 Y20.0664
G1 X46.5464 Y20.3472
G1 X46.6594 Y20.6211
G1 X46.6781 Y20.8882
G1 X46.4023 Y21.5516
G1 X46.1216 Y21.759
G1 X45.9259 Y21.8398
G1 X45.5806 Y21.8907
G1 X44.9725 Y21.638
G1 X44.3073 Y21.9126
G1 X44.0545 Y22.5207
G1 X43.7346 Y22.7443
G1 X43.3271 Y22.8667
G1 X39.322 Y32.5803
G1 X43.1593 Y41.9879
G1 X42.4401 Y43.7961
G1 X42.6246 Y44.1321
G1 X42.6917 Y44.5166
G1 X42.416 Y45.18
G1 X42.0961 Y45.4036
G1 X41.6886 Y45.526
G1 X37.6835 Y55.2396
G1 X41.5208 Y64.6472
G1 X40.8016 Y66.4553
G1 X40.9861 Y66.7914
G1 X41.0532 Y67.1758
G1 X40.7775 Y67.8392
G1 X40.4576 Y68.0629
G1 X40.0501 Y68.1853
G1 X36.045 Y77.8989
G1 X39.8823 Y87.3064
G1 X39.1631 Y89.1146
G1 X39.3476 Y89.4507
G1 X39.4147 Y89.8351
G1 X39.139 Y90.4985
G1 X38.8191 Y90.7222
G1 X38.4116 Y90.8445
G1 X34.4065 Y100.5582
G1 X38.2438 Y109.9657
G1 X37.5246 Y111.7739
G1 X37.7091 Y112.1099
G1 X37.7762 Y112.4944
G1 X37.5005 Y113.1578
G1 X37.1806 Y113.3814
G1 X36.7731 Y113.5038
G1 X32.768 Y123.2175
G1 X36.6053 Y132.625
G1 X35.8861 Y134.4332
G1 X36.0706 Y134.7692
G1 X36.1377 Y135.1537
G1 X35.862 Y135.8171
G1 X35.5421 Y136.0407
G1 X35.1346 Y136.1631
G1 X31.1295 Y145.8767
G1 X34.9668 Y155.2843
G1 X34.2476 Y157.0925
G1 X34.4321 Y157.4285
G1 X34.4992 Y157.813
G1 X34.2235 Y158.4764
G1 X33.9036 Y158.7
G1 X33.4961 Y158.8224
G1 X29.491 Y168.536
G1 X33.3283 Y177.9436
G1 X32.6091 Y179.7518
G1 X32.7936 Y180.0878
G1 X32.8607 Y180.4723
G1 X32.585 Y181.1357
G1 X32.3042 Y181.3432
G1 X32.1086 Y181.4239
G1 X31.7632 Y181.4749
G1 X31.0998 Y181.1991
G1 X30.8923 Y180.9184
G1 X30.8116 Y180.7227
G1 X30.7606 Y180.3774
G1 X31.0364 Y179.714
G1 X31.3563 Y179.4903
G1 X31.7637 Y179.368
G1 X32.322 Y177.9468
G1 X28.4847 Y168.5392
G1 X32.6507 Y158.4386
G1 X32.4662 Y158.1026
G1 X32.3991 Y157.7181
G1 X32.6749 Y157.0547
G1 X32.9948 Y156.8311
G1 X33.4022 Y156.7087
G1 X33.9605 Y155.2875
G1 X30.1232 Y145.8799
G1 X34.2892 Y135.7793
G1 X34.1047 Y135.4433
G1 X34.0376 Y135.0588
G1 X34.3134 Y134.3954
G1 X34.6333 Y134.1718
G1 X35.0407 Y134.0494
G1 X35.599 Y132.6282
G1 X31.7617 Y123.2206
G1 X35.9277 Y113.12
G1 X35.7432 Y112.784
G1 X35.6761 Y112.3995
G1 X35.9519 Y111.7361
G1 X36.2718 Y111.5125
G1 X36.6792 Y111.3901
G1 X37.2375 Y109.9689
G1 X33.4002 Y100.5613
G1 X37.5662 Y90.4607
G1 X37.3817 Y90.1247
G1 X37.3146 Y89.7402
G1 X37.5904 Y89.0768
G1 X37.9103 Y88.8532
G1 X38.3177 Y88.7308
G1 X38.8761 Y87.3096
G1 X35.0387 Y77.902
G1 X39.2048 Y67.8014
G1 X39.0203 Y67.4654
G1 X38.9531 Y67.0809
G1 X39.2289 Y66.4175
G1 X39.5488 Y66.1939
G1 X39.9562 Y66.0715
G1 X40.5146 Y64.6503
G1 X36.6772 Y55.2428
G1 X40.8433 Y45.1422
G1 X40.6588 Y44.8061
G1 X40.5916 Y44.4216
G1 X40.8674 Y43.7583
G1 X41.1873 Y43.5346
G1 X41.5947 Y43.4122
G1 X42.1531 Y41.991
G1 X38.3157 Y32.5835
G1 X42.4818 Y22.4829
G1 X42.2973 Y22.1468
G1 X42.2302 Y21.7624
G1 X42.5059 Y21.099
G1 X42.7866 Y20.8915
G1 X42.9823 Y20.8107
G1 X43.3276 Y20.7598
G1 X43.9358 Y21.0125
G1 X44.601 Y20.738
G1 X44.8538 Y20.1299
G1 X45.1345 Y19.9224
G1 X45.3301 Y19.8416
G1 X45.6755 Y19.7907
G1 X45.7584 Y19.8251
G0 Z3.0
G0 X46.2993 Y22.1895
G0 Z1.2
G1 Z-0.2
G1 X46.6446 Y22.1385
G1 X47.308 Y22.4143
G1 X47.5155 Y22.695
G1 X47.6285 Y22.9689
G1 X47.6472 Y23.236
G1 X47.3715 Y23.8994
G1 X47.0907 Y24.1069
G1 X46.8951 Y24.1876
G1 X46.5497 Y24.2386
G1 X45.9416 Y23.9858
G1 X45.2764 Y24.2604
G1 X45.0236 Y24.8685
G1 X44.7037 Y25.0921
G1 X44.2963 Y25.2145
G1 X40.9805 Y33.2697
G1 X44.8178 Y42.6772
G1 X43.4092 Y46.1439
G1 X43.5937 Y46.4799
G1 X43.6608 Y46.8644
G1 X43.3851 Y47.5278
G1 X43.0652 Y47.7514
G1 X42.6578 Y47.8738
G1 X39.342 Y55.929
G1 X43.1793 Y65.3365
G1 X41.7707 Y68.8032
G1 X41.9552 Y69.1392
G1 X42.0223 Y69.5237
G1 X41.7466 Y70.1871
G1 X41.4267 Y70.4107
G1 X41.0193 Y70.5331
G1 X37.7035 Y78.5882
G1 X41.5408 Y87.9958
G1 X40.1322 Y91.4625
G1 X40.3167 Y91.7985
G1 X40.3838 Y92.183
G1 X40.1081 Y92.8464
G1 X39.7882 Y93.07
G1 X39.3808 Y93.1924
G1 X36.065 Y101.2475
G1 X39.9023 Y110.6551
G1 X38.4937 Y114.1218
G1 X38.6782 Y114.4578
G1 X38.7453 Y114.8423
G1 X38.4696 Y115.5057
G1 X38.1497 Y115.7293
G1 X37.7423 Y115.8517
G1 X34.4265 Y123.9068
G1 X38.2638 Y133.3144
G1 X36.8552 Y136.7811
G1 X37.0397 Y137.1171
G1 X37.1068 Y137.5016
G1 X36.8311 Y138.165
G1 X36.5112 Y138.3886
G1 X36.1038 Y138.511
G1 X32.7879 Y146.5661
G1 X36.6253 Y155.9737
G1 X35.2167 Y159.4403
G1 X35.4012 Y159.7764
G1 X35.4683 Y160.1609
G1 X35.1926 Y160.8242
G1 X34.8727 Y161.0479
G1 X34.4652 Y161.1703
G1 X31.1494 Y169.2254
G1 X34.9868 Y178.633
G1 X33.5782 Y182.0996
G1 X33.7627 Y182.4357
G1 X33.8298 Y182.8201
G1 X33.5541 Y183.4835
G1 X33.2733 Y183.691
G1 X33.0777 Y183.7718
G1 X32.7323 Y183.8227
G1 X32.0689 Y183.547
G1 X31.8615 Y183.2662
G1 X31.7807 Y183.0706
G1 X31.7297 Y182.7252
G1 X32.0055 Y182.0618
G1 X32.3254 Y181.8382
G1 X32.7328 Y181.7158
G1 X33.9805 Y178.6361
G1 X30.1432 Y169.2286
G1 X33.6199 Y160.7864
G1 X33.4354 Y160.4504
G1 X33.3683 Y160.0659
G1 X33.644 Y159.4025
G1 X33.9639 Y159.1789
G1 X34.3713 Y159.0565
G1 X35.619 Y155.9768
G1 X31.7817 Y146.5693
G1 X35.2584 Y138.1272
G1 X35.0739 Y137.7911
G1 X35.0068 Y137.4067
G1 X35.2825 Y136.7433
G1 X35.6024 Y136.5196
G1 X36.0098 Y136.3972
G1 X37.2575 Y133.3176
G1 X33.4202 Y123.91
G1 X36.8969 Y115.4679
G1 X36.7124 Y115.1318
G1 X36.6453 Y114.7474
G1 X36.921 Y114.084
G1 X37.2409 Y113.8603
G1 X37.6483 Y113.738
G1 X38.896 Y110.6583
G1 X35.0587 Y101.2507
G1 X38.5354 Y92.8086
G1 X38.3509 Y92.4726
G1 X38.2838 Y92.0881
G1 X38.5595 Y91.4247
G1 X38.8794 Y91.2011
G1 X39.2868 Y91.0787
G1 X40.5345 Y87.999
G1 X36.6972 Y78.5914
G1 X40.1739 Y70.1493
G1 X39.9894 Y69.8133
G1 X39.9223 Y69.4288
G1 X40.198 Y68.7654
G1 X40.5179 Y68.5418
G1 X40.9253 Y68.4194
G1 X42.173 Y65.3397
G1 X38.3357 Y55.9321
G1 X41.8124 Y47.49
G1 X41.6279 Y47.154
G1 X41.5608 Y46.7695
G1 X41.8365 Y46.1061
G1 X42.1564 Y45.8825
G1 X42.5638 Y45.7601
G1 X43.8115 Y42.6804
G1 X39.9742 Y33.2728
G1 X43.4509 Y24.8307
G1 X43.2664 Y24.4947
G1 X43.1993 Y24.1102
G1 X43.475 Y23.4468
G1 X43.7558 Y23.2393
G1 X43.9514 Y23.1586
G1 X44.2968 Y23.1076
G1 X44.9049 Y23.3604
G1 X45.5701 Y23.0858
G1 X45.8229 Y22.4777
G1 X46.1036 Y22.2702
G1 X46.2993 Y22.1895
G0 Z3.0
G0 X47.2684 Y24.5373
G0 Z1.2
G1 Z-0.2
G1 X47.6137 Y24.4864
G1 X48.2771 Y24.7621
G1 X48.4846 Y25.0429
G1 X48.5977 Y25.3168
G1 X48.6163 Y25.5839
G1 X48.3406 Y26.2473
G1 X48.0598 Y26.4547
G1 X47.8642 Y26.5355
G1 X47.5188 Y26.5864
G1 X46.9107 Y26.3337
G1 X46.2455 Y26.6083
G1 X45.9927 Y27.2164
G1 X45.6728 Y27.44
G1 X45.2654 Y27.5624
G1 X42.6389 Y33.959
G1 X46.4763 Y43.3666
G1 X44.3784 Y48.4918
G1 X44.5629 Y48.8278
G1 X44.63 Y49.2123
G1 X44.3542 Y49.8757
G1 X44.0343 Y50.0993
G1 X43.6269 Y50.2217
G1 X41.0004 Y56.6183
G1 X44.8378 Y66.0259
G1 X42.7399 Y71.151
G1 X42.9244 Y71.4871
G1 X42.9915 Y71.8716
G1 X42.7157 Y72.5349
G1 X42.3958 Y72.7586
G1 X41.9884 Y72.881
G1 X39.3619 Y79.2776
G1 X43.1993 Y88.6852
G1 X41.1013 Y93.8103
G1 X41.2858 Y94.1464
G1 X41.353 Y94.5308
G1 X41.0772 Y95.1942
G1 X40.7573 Y95.4179
G1 X40.3499 Y95.5403
G1 X37.7234 Y101.9369
G1 X41.5608 Y111.3445
G1 X39.4628 Y116.4696
G1 X39.6473 Y116.8056
G1 X39.7145 Y117.1901
G1 X39.4387 Y117.8535
G1 X39.1188 Y118.0772
G1 X38.7114 Y118.1995
G1 X36.0849 Y124.5962
G1 X39.9223 Y134.0038
G1 X37.8243 Y139.1289
G1 X38.0088 Y139.4649
G1 X38.0759 Y139.8494
G1 X37.8002 Y140.5128
G1 X37.4803 Y140.7364
G1 X37.0729 Y140.8588
G1 X34.4464 Y147.2555
G1 X38.2838 Y156.663
G1 X36.1858 Y161.7882
G1 X36.3703 Y162.1242
G1 X36.4374 Y162.5087
G1 X36.1617 Y163.1721
G1 X35.8418 Y163.3957
G1 X35.4344 Y163.5181
G1 X32.8079 Y169.9148
G1 X36.6453 Y179.3223
G1 X34.5473 Y184.4475
G1 X34.7318 Y184.7835
G1 X34.7989 Y185.168
G1 X34.5232 Y185.8314
G1 X34.2425 Y186.0389
G1 X34.0468 Y186.1196
G1 X33.7014 Y186.1706
G1 X33.0381 Y185.8948
G1 X32.8306 Y185.6141
G1 X32.7498 Y185.4184
G1 X32.6989 Y185.0731
G1 X32.9746 Y184.4097
G1 X33.2945 Y184.1861
G1 X33.7019 Y184.0637
G1 X35.639 Y179.3255
G1 X31.8017 Y169.9179
G1 X34.589 Y163.1343
G1 X34.4045 Y162.7983
G1 X34.3374 Y162.4138
G1 X34.6131 Y161.7504
G1 X34.933 Y161.5268
G1 X35.3404 Y161.4044
G1 X37.2775 Y156.6662
G1 X33.4402 Y147.2586
G1 X36.2275 Y140.475
G1 X36.043 Y140.139
G1 X35.9759 Y139.7545
G1 X36.2516 Y139.0911
G1 X36.5715 Y138.8675
G1 X36.979 Y138.7451
G1 X38.916 Y134.0069
G1 X35.0787 Y124.5994
G1 X37.866 Y117.8157
G1 X37.6815 Y117.4797
G1 X37.6144 Y117.0952
G1 X37.8901 Y116.4318
G1 X38.21 Y116.2082
G1 X38.6175 Y116.0858
G1 X40.5545 Y111.3476
G1 X36.7172 Y101.9401
G1 X39.5045 Y95.1564
G1 X39.32 Y94.8204
G1 X39.2529 Y94.4359
G1 X39.5286 Y93.7725
G1 X39.8485 Y93.5489
G1 X40.256 Y93.4265
G1 X42.193 Y88.6883
G1 X38.3557 Y79.2808
G1 X41.143 Y72.4971
G1 X40.9585 Y72.1611
G1 X40.8914 Y71.7766
G1 X41.1671 Y71.1132
G1 X41.487 Y70.8896
G1 X41.8945 Y70.7672
G1 X43.8315 Y66.0291
G1 X39.9942 Y56.6215
G1 X42.7815 Y49.8379
G1 X42.597 Y49.5018
G1 X42.5299 Y49.1174
G1 X42.8056 Y48.454
G1 X43.1255 Y48.2303
G1 X43.533 Y48.1079
G1 X45.47 Y43.3698
G1 X41.6327 Y33.9622
G1 X44.42 Y27.1786
G1 X44.2355 Y26.8425
G1 X44.1684 Y26.4581
G1 X44.4441 Y25.7947
G1 X44.7249 Y25.5872
G1 X44.9205 Y25.5064
G1 X45.2659 Y25.4555
G1 X45.874 Y25.7083
G1 X46.5392 Y25.4337
G1 X46.792 Y24.8256
G1 X47.0727 Y24.6181
G1 X47.2684 Y24.5373
G0 Z3.0
G0 X48.2367 Y26.8855
G0 Z1.2
G1 Z-0.2
G1 X48.2375 Y26.8852
G1 X48.5828 Y26.8342
G1 X49.2462 Y27.11
G1 X49.4537 Y27.3907
G1 X49.5668 Y27.6646
G1 X49.5854 Y27.9317
G1 X49.3097 Y28.5951
G1 X49.0289 Y28.8026
G1 X48.8333 Y28.8833
G1 X48.4879 Y28.9343
G1 X47.8798 Y28.6815
G1 X47.2146 Y28.9561
G1 X46.9618 Y29.5642
G1 X46.642 Y29.7879
G1 X46.2345 Y29.9102
G1 X44.2974 Y34.6484
G1 X48.1348 Y44.056
G1 X45.3475 Y50.8396
G1 X45.532 Y51.1756
G1 X45.5991 Y51.5601
G1 X45.3233 Y52.2235
G1 X45.0034 Y52.4471
G1 X44.596 Y52.5695
G1 X42.6589 Y57.3077
G1 X46.4963 Y66.7153
G1 X43.709 Y73.4989
G1 X43.8935 Y73.8349
G1 X43.9606 Y74.2194
G1 X43.6848 Y74.8828
G1 X43.3649 Y75.1064
G1 X42.9575 Y75.2288
G1 X41.0204 Y79.967
G1 X44.8577 Y89.3746
G1 X42.0705 Y96.1582
G1 X42.255 Y96.4942
G1 X42.3221 Y96.8787
G1 X42.0463 Y97.5421
G1 X41.7264 Y97.7657
G1 X41.319 Y97.8881
G1 X39.3819 Y102.6263
G1 X43.2192 Y112.0338
G1 X40.432 Y118.8175
G1 X40.6165 Y119.1535
G1 X40.6836 Y119.538
G1 X40.4078 Y120.2014
G1 X40.0879 Y120.425
G1 X39.6805 Y120.5474
G1 X37.7434 Y125.2856
G1 X41.5807 Y134.6931
G1 X38.7935 Y141.4768
G1 X38.978 Y141.8128
G1 X39.0451 Y142.1973
G1 X38.7693 Y142.8607
G1 X38.4494 Y143.0843
G1 X38.042 Y143.2067
G1 X36.1049 Y147.9449
G1 X39.9422 Y157.3524
G1 X37.155 Y164.1361
G1 X37.3395 Y164.4721
G1 X37.4066 Y164.8566
G1 X37.1308 Y165.52
G1 X36.8109 Y165.7436
G1 X36.4035 Y165.866
G1 X34.4664 Y170.6041
G1 X38.3037 Y180.0117
G1 X35.5165 Y186.7953
G1 X35.701 Y187.1314
G1 X35.7681 Y187.5158
G1 X35.4923 Y188.1792
G1 X35.2116 Y188.3867
G1 X35.0159 Y188.4675
G1 X34.6706 Y188.5184
G1 X34.0072 Y188.2427
G1 X33.7997 Y187.9619
G1 X33.7189 Y187.7663
G1 X33.668 Y187.4209
G1 X33.9437 Y186.7575
G1 X34.2636 Y186.5339
G1 X34.6711 Y186.4115
G1 X37.2975 Y180.0149
G1 X33.4602 Y170.6073
G1 X35.5581 Y165.4822
G1 X35.3736 Y165.1461
G1 X35.3065 Y164.7616
G1 X35.5822 Y164.0983
G1 X35.9021 Y163.8746
G1 X36.3096 Y163.7522
G1 X38.936 Y157.3556
G1 X35.0987 Y147.948
G1 X37.1966 Y142.8229
G1 X37.0121 Y142.4868
G1 X36.945 Y142.1024
G1 X37.2207 Y141.439
G1 X37.5406 Y141.2153
G1 X37.9481 Y141.0929
G1 X40.5745 Y134.6963
G1 X36.7372 Y125.2887
G1 X38.8351 Y120.1636
G1 X38.6506 Y119.8276
G1 X38.5835 Y119.4431
G1 X38.8592 Y118.7797
G1 X39.1791 Y118.556
G1 X39.5866 Y118.4337
G1 X42.213 Y112.037
G1 X38.3757 Y102.6294
G1 X40.4736 Y97.5043
G1 X40.2891 Y97.1683
G1 X40.222 Y96.7838
G1 X40.4977 Y96.1204
G1 X40.8176 Y95.8968
G1 X41.2251 Y95.7744
G1 X43.8515 Y89.3777
G1 X40.0142 Y79.9702
G1 X42.1121 Y74.845
G1 X41.9276 Y74.509
G1 X41.8605 Y74.1245
G1 X42.1362 Y73.4611
G1 X42.4561 Y73.2375
G1 X42.8636 Y73.1151
G1 X45.49 Y66.7184
G1 X41.6527 Y57.3109
G1 X43.7506 Y52.1857
G1 X43.5661 Y51.8497
G1 X43.499 Y51.4652
G1 X43.7747 Y50.8018
G1 X44.0946 Y50.5782
G1 X44.5021 Y50.4558
G1 X47.1285 Y44.0591
G1 X43.2912 Y34.6516
G1 X45.3891 Y29.5264
G1 X45.2046 Y29.1904
G1 X45.1375 Y28.8059
G1 X45.4132 Y28.1425
G1 X45.694 Y27.935
G1 X45.8896 Y27.8543
G1 X46.235 Y27.8033
G1 X46.8431 Y28.0561
G1 X47.5083 Y27.7815
G1 X47.7611 Y27.1734
G1 X48.0418 Y26.9659
G1 X48.2367 Y26.8855
G0 Z3.0
G0 X49.2065 Y29.2331
G0 Z1.2
G1 Z-0.2
G1 X49.2066 Y29.233
G1 X49.552 Y29.1821
G1 X50.2154 Y29.4578
G1 X50.4228 Y29.7386
G1 X50.5359 Y30.0125
G1 X50.5545 Y30.2796
G1 X50.2788 Y30.943
G1 X49.998 Y31.1504
G1 X49.8024 Y31.2312
G1 X49.457 Y31.2822
G1 X48.8489 Y31.0294
G1 X48.1837 Y31.304
G1 X47.9309 Y31.9121
G1 X47.6111 Y32.1357
G1 X47.2036 Y32.2581
G1 X45.9559 Y35.3378
G1 X49.7932 Y44.7454
G1 X46.3166 Y53.1875
G1 X46.5011 Y53.5235
G1 X46.5682 Y53.908
G1 X46.2924 Y54.5714
G1 X45.9726 Y54.795
G1 X45.5651 Y54.9174
G1 X44.3174 Y57.9971
G1 X48.1547 Y67.4046
G1 X44.6781 Y75.8468
G1 X44.8626 Y76.1828
G1 X44.9297 Y76.5673
G1 X44.6539 Y77.2307
G1 X44.3341 Y77.4543
G1 X43.9266 Y77.5767
G1 X42.6789 Y80.6564
G1 X46.5162 Y90.0639
G1 X43.0396 Y98.506
G1 X43.2241 Y98.8421
G1 X43.2912 Y99.2266
G1 X43.0154 Y99.8899
G1 X42.6956 Y100.1136
G1 X42.2881 Y100.236
G1 X41.0404 Y103.3156
G1 X44.8777 Y112.7232
G1 X41.4011 Y121.1653
G1 X41.5856 Y121.5014
G1 X41.6527 Y121.8858
G1 X41.3769 Y122.5492
G1 X41.0571 Y122.7729
G1 X40.6496 Y122.8952
G1 X39.4019 Y125.9749
G1 X43.2392 Y135.3825
G1 X39.7626 Y143.8246
G1 X39.9471 Y144.1606
G1 X40.0142 Y144.5451
G1 X39.7384 Y145.2085
G1 X39.4186 Y145.4321
G1 X39.0111 Y145.5545
G1 X37.7634 Y148.6342
G1 X41.6007 Y158.0418
G1 X38.1241 Y166.4839
G1 X38.3086 Y166.8199
G1 X38.3757 Y167.2044
G1 X38.0999 Y167.8678
G1 X37.7801 Y168.0914
G1 X37.3726 Y168.2138
G1 X36.1249 Y171.2935
G1 X39.9622 Y180.7011
G1 X36.4856 Y189.1432
G1 X36.6701 Y189.4792
G1 X36.7372 Y189.8637
G1 X36.4614 Y190.5271
G1 X36.1807 Y190.7346
G1 X35.985 Y190.8153
G1 X35.6397 Y190.8663
G1 X34.9763 Y190.5905
G1 X34.7688 Y190.3098
G1 X34.688 Y190.1141
G1 X34.6371 Y189.7688
G1 X34.9128 Y189.1054
G1 X35.2327 Y188.8818
G1 X35.6402 Y188.7594
G1 X38.956 Y180.7042
G1 X35.1187 Y171.2967
G1 X36.5272 Y167.83
G1 X36.3427 Y167.494
G1 X36.2756 Y167.1095
G1 X36.5513 Y166.4461
G1 X36.8712 Y166.2225
G1 X37.2787 Y166.1001
G1 X40.5945 Y158.045
G1 X36.7572 Y148.6374
G1 X38.1657 Y145.1707
G1 X37.9812 Y144.8347
G1 X37.9141 Y144.4502
G1 X38.1898 Y143.7868
G1 X38.5097 Y143.5632
G1 X38.9172 Y143.4408
G1 X42.233 Y135.3857
G1 X38.3957 Y125.9781
G1 X39.8042 Y122.5114
G1 X39.6197 Y122.1754
G1 X39.5526 Y121.7909
G1 X39.8283 Y121.1275
G1 X40.1482 Y120.9039
G1 X40.5557 Y120.7815
G1 X43.8715 Y112.7264
G1 X40.0342 Y103.3188
G1 X41.4427 Y99.8521
G1 X41.2582 Y99.5161
G1 X41.1911 Y99.1316
G1 X41.4668 Y98.4682
G1 X41.7867 Y98.2446
G1 X42.1942 Y98.1222
G1 X45.51 Y90.0671
G1 X41.6727 Y80.6595
G1 X43.0812 Y77.1929
G1 X42.8967 Y76.8568
G1 X42.8296 Y76.4723
G1 X43.1054 Y75.809
G1 X43.4252 Y75.5853
G1 X43.8327 Y75.4629
G1 X47.1485 Y67.4078
G1 X43.3112 Y58.0002
G1 X44.7197 Y54.5336
G1 X44.5352 Y54.1975
G1 X44.4681 Y53.8131
G1 X44.7439 Y53.1497
G1 X45.0637 Y52.926
G1 X45.4712 Y52.8037
G1 X48.787 Y44.7485
G1 X44.9497 Y35.3409
G1 X46.3582 Y31.8743
G1 X46.1737 Y31.5383
G1 X46.1066 Y31.1538
G1 X46.3824 Y30.4904
G1 X46.6631 Y30.2829
G1 X46.8588 Y30.2021
G1 X47.2041 Y30.1512
G1 X47.8122 Y30.404
G1 X48.4774 Y30.1294
G1 X48.7302 Y29.5213
G1 X49.011 Y29.3138
G1 X49.2065 Y29.2331
G0 Z3.0
G0 X50.1752 Y31.5811
G0 Z1.2
G1 Z-0.2
G1 X50.1757 Y31.5809
G1 X50.5211 Y31.5299
G1 X51.1845 Y31.8057
G1 X51.3919 Y32.0864
G1 X51.505 Y32.3603
G1 X51.5237 Y32.6274
G1 X51.2479 Y33.2908
G1 X50.9672 Y33.4983
G1 X50.7715 Y33.5791
G1 X50.4262 Y33.63
G1 X49.818 Y33.3772
G1 X49.1528 Y33.6518
G1 X48.9001 Y34.2599
G1 X48.5802 Y34.4836
G1 X48.1727 Y34.606
G1 X47.6144 Y36.0272
G1 X51.4517 Y45.4347
G1 X47.2857 Y55.5353
G1 X47.4702 Y55.8713
G1 X47.5373 Y56.2558
G1 X47.2616 Y56.9192
G1 X46.9417 Y57.1429
G1 X46.5342 Y57.2652
G1 X45.9759 Y58.6864
G1 X49.8132 Y68.094
G1 X45.6472 Y78.1946
G1 X45.8317 Y78.5306
G1 X45.8988 Y78.9151
G1 X45.623 Y79.5785
G1 X45.3032 Y79.8021
G1 X44.8957 Y79.9245
G1 X44.3374 Y81.3457
G1 X48.1747 Y90.7533
G1 X44.0087 Y100.8539
G1 X44.1932 Y101.1899
G1 X44.2603 Y101.5744
G1 X43.9845 Y102.2378
G1 X43.6647 Y102.4614
G1 X43.2572 Y102.5838
G1 X42.6989 Y104.005
G1 X46.5362 Y113.4126
G1 X42.3702 Y123.5132
G1 X42.5547 Y123.8492
G1 X42.6218 Y124.2337
G1 X42.346 Y124.8971
G1 X42.0262 Y125.1207
G1 X41.6187 Y125.2431
G1 X41.0604 Y126.6643
G1 X44.8977 Y136.0719
G1 X40.7317 Y146.1725
G1 X40.9162 Y146.5085
G1 X40.9833 Y146.893
G1 X40.7075 Y147.5564
G1 X40.3877 Y147.78
G1 X39.9802 Y147.9024
G1 X39.4219 Y149.3236
G1 X43.2592 Y158.7312
G1 X39.0932 Y168.8318
G1 X39.2777 Y169.1678
G1 X39.3448 Y169.5523
G1 X39.069 Y170.2157
G1 X38.7492 Y170.4393
G1 X38.3417 Y170.5617
G1 X37.7834 Y171.9829
G1 X41.6207 Y181.3904
G1 X37.4547 Y191.491
G1 X37.6392 Y191.8271
G1 X37.7063 Y192.2116
G1 X37.4305 Y192.8749
G1 X37.1498 Y193.0824
G1 X36.9541 Y193.1632
G1 X36.6088 Y193.2141
G1 X35.9454 Y192.9384
G1 X35.7379 Y192.6576
G1 X35.6572 Y192.462
G1 X35.6062 Y192.1166
G1 X35.882 Y191.4532
G1 X36.2018 Y191.2296
G1 X36.6093 Y191.1072
G1 X40.6145 Y181.3936
G1 X36.7771 Y171.986
G1 X37.4963 Y170.1779
G1 X37.3118 Y169.8418
G1 X37.2447 Y169.4574
G1 X37.5205 Y168.794
G1 X37.8403 Y168.5703
G1 X38.2478 Y168.4479
G1 X42.253 Y158.7343
G1 X38.4156 Y149.3268
G1 X39.1348 Y147.5186
G1 X38.9503 Y147.1825
G1 X38.8832 Y146.7981
G1 X39.159 Y146.1347
G1 X39.4788 Y145.911
G1 X39.8863 Y145.7887
G1 X43.8915 Y136.075
G1 X40.0541 Y126.6675
G1 X40.7733 Y124.8593
G1 X40.5888 Y124.5233
G1 X40.5217 Y124.1388
G1 X40.7975 Y123.4754
G1 X41.1173 Y123.2518
G1 X41.5248 Y123.1294
G1 X45.53 Y113.4157
G1 X41.6926 Y104.0082
G1 X42.4118 Y102.2
G1 X42.2273 Y101.864
G1 X42.1602 Y101.4795
G1 X42.436 Y100.8161
G1 X42.7558 Y100.5925
G1 X43.1633 Y100.4701
G1 X47.1685 Y90.7565
G1 X43.3311 Y81.3489
G1 X44.0503 Y79.5407
G1 X43.8658 Y79.2047
G1 X43.7987 Y78.8202
G1 X44.0745 Y78.1568
G1 X44.3943 Y77.9332
G1 X44.8018 Y77.8108
G1 X48.807 Y68.0972
G1 X44.9696 Y58.6896
G1 X45.6888 Y56.8814
G1 X45.5043 Y56.5454
G1 X45.4372 Y56.1609
G1 X45.713 Y55.4975
G1 X46.0328 Y55.2739
G1 X46.4403 Y55.1515
G1 X50.4455 Y45.4379
G1 X46.6081 Y36.0303
G1 X47.3273 Y34.2221
G1 X47.1428 Y33.8861
G1 X47.0757 Y33.5016
G1 X47.3515 Y32.8382
G1 X47.6322 Y32.6308
G1 X47.8279 Y32.55
G1 X48.1732 Y32.499
G1 X48.7813 Y32.7518
G1 X49.4466 Y32.4772
G1 X49.6993 Y31.8691
G1 X49.9801 Y31.6616
G1 X50.1752 Y31.5811
G0 Z3.0
G0 X51.1448 Y33.9287
G0 Z1.2
G1 Z-0.2
G1 X51.4902 Y33.8778
G1 X52.1536 Y34.1535
G1 X52.3611 Y34.4343
G1 X52.4741 Y34.7082
G1 X52.4928 Y34.9753
G1 X52.217 Y35.6387
G1 X51.9363 Y35.8462
G1 X51.7406 Y35.9269
G1 X51.3953 Y35.9779
G1 X50.7872 Y35.7251
G1 X50.1219 Y35.9997
G1 X49.8921 Y36.5525
G1 X53.4549 Y45.2948
G1 X48.2548 Y57.8832
G1 X48.4393 Y58.2192
G1 X48.5064 Y58.6037
G1 X48.2536 Y59.2118
G1 X51.8164 Y67.9541
G1 X46.6163 Y80.5425
G1 X46.8008 Y80.8785
G1 X46.8679 Y81.263
G1 X46.6151 Y81.8711
G1 X50.1779 Y90.6134
G1 X44.9778 Y103.2017
G1 X45.1623 Y103.5378
G1 X45.2294 Y103.9223
G1 X44.9766 Y104.5304
G1 X48.5394 Y113.2727
G1 X43.3393 Y125.861
G1 X43.5238 Y126.1971
G1 X43.5909 Y126.5815
G1 X43.3381 Y127.1897
G1 X46.9009 Y135.932
G1 X41.7008 Y148.5203
G1 X41.8853 Y148.8564
G1 X41.9524 Y149.2408
G1 X41.6996 Y149.8489
G1 X45.2624 Y158.5913
G1 X40.0623 Y171.1796
G1 X40.2468 Y171.5156
G1 X40.3139 Y171.9001
G1 X40.0611 Y172.5082
G1 X43.6239 Y181.2506
G1 X38.4238 Y193.8389
G1 X38.6083 Y194.1749
G1 X38.6754 Y194.5594
G1 X38.3997 Y195.2228
G1 X38.1189 Y195.4303
G1 X37.9233 Y195.511
G1 X37.5779 Y195.562
G1 X36.9145 Y195.2862
G1 X36.707 Y195.0055
G1 X36.6263 Y194.8098
G1 X36.5753 Y194.4645
G1 X36.8511 Y193.8011
G1 X37.1709 Y193.5775
G1 X37.5393 Y193.4712
G1 X42.6338 Y181.2929
G1 X39.1611 Y172.8797
G1 X38.553 Y172.627
G1 X38.3455 Y172.3462
G1 X38.2648 Y172.1506
G1 X38.2138 Y171.8052
G1 X38.4896 Y171.1418
G1 X38.8094 Y170.9182
G1 X39.1778 Y170.8119
G1 X44.2723 Y158.6336
G1 X40.7996 Y150.2204
G1 X40.1915 Y149.9677
G1 X39.984 Y149.6869
G1 X39.9033 Y149.4913
G1 X39.8523 Y149.1459
G1 X40.1281 Y148.4825
G1 X40.4479 Y148.2589
G1 X40.8163 Y148.1527
G1 X45.9108 Y135.9743
G1 X42.4381 Y127.5611
G1 X41.83 Y127.3084
G1 X41.6225 Y127.0276
G1 X41.5418 Y126.832
G1 X41.4908 Y126.4866
G1 X41.7666 Y125.8232
G1 X42.0864 Y125.5996
G1 X42.4548 Y125.4934
G1 X47.5493 Y113.315
G1 X44.0766 Y104.9019
G1 X43.4685 Y104.6491
G1 X43.261 Y104.3683
G1 X43.1803 Y104.1727
G1 X43.1293 Y103.8273
G1 X43.4051 Y103.164
G1 X43.725 Y102.9403
G1 X44.0933 Y102.8341
G1 X49.1878 Y90.6557
G1 X45.7151 Y82.2426
G1 X45.107 Y81.9898
G1 X44.8995 Y81.7091
G1 X44.8188 Y81.5134
G1 X44.7678 Y81.1681
G1 X45.0436 Y80.5047
G1 X45.3635 Y80.281
G1 X45.7318 Y80.1748
G1 X50.8263 Y67.9964
G1 X47.3536 Y59.5833
G1 X46.7455 Y59.3305
G1 X46.538 Y59.0498
G1 X46.4573 Y58.8541
G1 X46.4063 Y58.5088
G1 X46.6821 Y57.8454
G1 X47.002 Y57.6217
G1 X47.3703 Y57.5155
G1 X52.4648 Y45.3371
G1 X48.9921 Y36.924
G1 X48.384 Y36.6712
G1 X48.1765 Y36.3905
G1 X48.0958 Y36.1948
G1 X48.0448 Y35.8495
G1 X48.3206 Y35.1861
G1 X48.6013 Y34.9786
G1 X48.797 Y34.8979
G1 X49.1423 Y34.8469
G1 X49.7504 Y35.0997
G1 X50.4157 Y34.8251
G1 X50.6684 Y34.217
G1 X50.9492 Y34.0095
G1 X51.1448 Y33.9287
G0 Z3.0
G0 X51.6553 Y27.3319
G0 Z1.2
G1 Z-0.2
G1 X52.1577 Y27.1246
G1 X52.2589 Y27.3697
G1 X52.4484 Y27.2914
G1 X52.3473 Y27.0463
G1 X53.1881 Y26.6993
G3 X53.2562 Y26.6731 I0.4926 J1.1787
G3 X53.3272 Y26.6561 I0.0995 J0.2589
G3 X53.3919 Y26.6785 I-0.0037 J0.1153
G3 X53.4442 Y26.7552 I-0.1214 J0.1389
G3 X53.4788 Y26.8661 I-0.8251 J0.3183
G1 X53.7087 Y26.8124
G2 X53.6543 Y26.6194 I-0.9715 J0.1697
G2 X53.6026 Y26.5172 I-0.6238 J0.2514
G2 X53.5274 Y26.4309 I-0.2856 J0.173
G2 X53.3752 Y26.3732 I-0.162 J0.1978
G2 X53.2972 Y26.3846 I0.0088 J0.3331
G2 X53.0745 Y26.4625 I0.4543 J1.6559
G1 X52.2472 Y26.804
G1 X52.1734 Y26.6252
G1 X51.9839 Y26.7035
G1 X52.0576 Y26.8822
G1 X51.7015 Y27.0292
G1 X51.6553 Y27.3319
G0 Z3.0
G0 X51.8911 Y25.9643
G0 Z1.2
G1 Z-0.2
G2 X51.9255 Y25.9691 I0.0898 J-0.5206
G2 X52.1376 Y25.9571 I0.0677 J-0.6835
G1 X52.0763 Y25.7051
G3 X51.94 Y25.7114 I-0.0932 J-0.5385
G3 X51.8086 Y25.6745 I0.0274 J-0.3501
G3 X51.65 Y25.4976 I0.1523 J-0.2961
G3 X51.6142 Y25.3195 I0.4067 J-0.1744
G3 X51.6592 Y25.1435 I0.4066 J0.0102
G3 X51.8191 Y24.9681 I0.4287 J0.2302
G3 X52.0287 Y24.8563 I0.6096 J0.8905
G3 X52.2569 Y24.7861 I0.4495 J1.0551
G3 X52.3767 Y24.7753 I0.1159 J0.6162
G3 X52.4956 Y24.7935 I-0.0014 J0.4067
G3 X52.7466 Y25.0291 I-0.1148 J0.3738
G3 X52.7787 Y25.166 I-0.3802 J0.1614
G3 X52.7575 Y25.3051 I-0.3501 J0.0178
G3 X52.6673 Y25.4409 I-0.3476 J-0.133
G3 X52.537 Y25.5387 I-0.4574 J-0.4737
G1 X52.667 Y25.7655
G2 X52.8524 Y25.612 I-0.4048 J-0.6777
G2 X52.9724 Y25.4034 I-0.4582 J-0.4024
G2 X53.0024 Y25.174 I-0.5664 J-0.1907
G2 X52.9481 Y24.9491 I-0.706 J0.0515
G2 X52.7966 Y24.7092 I-0.7152 J0.2839
G2 X52.5596 Y24.5532 I-0.4562 J0.4351
G2 X52.2411 Y24.5189 I-0.2308 J0.6471
G2 X51.9321 Y24.603 I0.1472 J1.1504
G2 X51.8611 Y24.6345 I0.4844 J1.1875
G2 X51.7314 Y24.7062 I0.5546 J1.1564
G2 X51.5564 Y24.8484 I0.5027 J0.7974
G2 X51.3917 Y25.1905 I0.4111 J0.4086
G2 X51.4457 Y25.5708 I0.7485 J0.0877
G2 X51.5555 Y25.7618 I0.7296 J-0.2924
G2 X51.723 Y25.9048 I0.4398 J-0.3456
G2 X51.8911 Y25.9643 I0.2579 J-0.4611
G0 Z3.0
G0 X51.4183 Y24.0087
G0 Z1.2
G1 Z-0.2
G2 X51.5953 Y23.9499 I-0.2631 J-1.0881
G2 X51.6598 Y23.9217 I-1.022 J-2.4253
G1 X51.2171 Y22.8493
G3 X51.4248 Y22.8042 I0.2734 J0.7581
G3 X51.6353 Y22.8336 I0.04 J0.4817
G3 X51.8853 Y23.0822 I-0.1529 J0.4037
G3 X51.9094 Y23.3401 I-0.3694 J0.1646
G3 X51.8457 Y23.4734 I-0.3897 J-0.1044
G3 X51.7466 Y23.5831 I-0.5525 J-0.3995
G1 X51.8817 Y23.8221
G2 X52.0383 Y23.6625 I-0.4544 J-0.6024
G2 X52.1332 Y23.46 I-0.5001 J-0.3579
G2 X52.1473 Y23.2251 I-0.6003 J-0.1539
G2 X52.0852 Y22.9981 I-0.8741 J0.1171
G2 X51.9294 Y22.7453 I-0.7957 J0.316
G2 X51.6847 Y22.577 I-0.4783 J0.4334
G2 X51.3699 Y22.5374 I-0.2409 J0.6436
G2 X51.0631 Y22.6181 I0.1187 J1.075
G2 X50.9611 Y22.6646 I0.4204 J1.0573
G2 X50.7799 Y22.7813 I0.5227 J1.0106
G2 X50.5769 Y23.0375 I0.4391 J0.5564
G2 X50.5152 Y23.3212 I0.5973 J0.2785
G2 X50.5766 Y23.6049 I0.7629 J-0.0166
G2 X50.7296 Y23.8425 I0.6824 J-0.2714
G2 X50.9674 Y23.9951 I0.4597 J-0.4548
G2 X51.2857 Y24.0324 I0.2378 J-0.6526
G2 X51.4183 Y24.0087 I-0.1305 J-1.1119
G0 Z3.0
G0 X50.614 Y22.0601
G0 Z1.2
G1 Z-0.2
G1 X51.5454 Y21.6756
G1 X51.4448 Y21.4319
G1 X50.5877 Y21.7857
G1 X49.4597 Y22.2513
G1 X49.5603 Y22.495
G1 X50.614 Y22.0601
G0 Z3.0
G0 X50.3244 Y21.15
G0 Z1.2
G1 Z-0.2
G2 X50.4254 Y21.1124 I-0.3394 J-1.0668
G2 X50.4899 Y21.0843 I-1.0188 J-2.4267
G1 X50.0472 Y20.0119
G3 X50.2549 Y19.9668 I0.2734 J0.7581
G3 X50.4654 Y19.9961 I0.0402 J0.4817
G3 X50.7154 Y20.2447 I-0.1529 J0.4037
G3 X50.7395 Y20.5026 I-0.3694 J0.1646
G3 X50.6758 Y20.636 I-0.3898 J-0.1042
G3 X50.5767 Y20.7457 I-0.5525 J-0.3995
G1 X50.7118 Y20.9847
G2 X50.8684 Y20.8251 I-0.4544 J-0.6024
G2 X50.9633 Y20.6226 I-0.5001 J-0.3579
G2 X50.9774 Y20.3877 I-0.6003 J-0.1539
G2 X50.9153 Y20.1607 I-0.8741 J0.1171
G2 X50.7595 Y19.9078 I-0.7958 J0.3158
G2 X50.5149 Y19.7396 I-0.4782 J0.4335
G2 X50.2 Y19.7 I-0.2409 J0.6436
G2 X50.018 Y19.7361 I0.1186 J1.075
G2 X49.8932 Y19.7807 I0.3009 J1.0388
G2 X49.61 Y19.9439 I0.4206 J1.0572
G2 X49.407 Y20.2001 I0.4391 J0.5564
G2 X49.3453 Y20.4837 I0.5973 J0.2785
G2 X49.4067 Y20.7675 I0.7629 J-0.0165
G2 X49.5598 Y21.005 I0.6822 J-0.2717
G2 X49.7975 Y21.1577 I0.4599 J-0.4546
G2 X50.1158 Y21.195 I0.2378 J-0.6526
G2 X50.3244 Y21.15 I-0.1308 J-1.1118
G0 Z3.0
G0 X49.9004 Y19.0356
G0 Z1.2
G1 Z-0.2
G2 X49.9844 Y19.0085 I-0.0764 J-0.381
G2 X50.185 Y18.8417 I-0.1707 J-0.4093
G2 X50.2672 Y18.5685 I-0.4178 J-0.2747
G2 X50.2002 Y18.2412 I-0.8183 J-0.003
G2 X50.0848 Y18.0273 I-0.9914 J0.3968
G2 X49.9071 Y17.8614 I-0.4618 J0.3166
G2 X49.7 Y17.8 I-0.2443 J0.4441
G2 X49.4847 Y17.817 I-0.0508 J0.7287
G1 X49.5463 Y18.0737
G3 X49.6825 Y18.0586 I0.1168 J0.4319
G3 X49.8147 Y18.0944 I-0.0158 J0.3204
G3 X49.9268 Y18.1925 I-0.1659 J0.3026
G3 X49.9992 Y18.3226 I-0.4684 J0.3459
G3 X50.0401 Y18.4581 I-0.591 J0.2523
G3 X50.0344 Y18.5996 I-0.2989 J0.0588
G3 X49.9875 Y18.6881 I-0.254 J-0.0779
G3 X49.9068 Y18.7474 I-0.1578 J-0.1302
G3 X49.7472 Y18.7293 I-0.0642 J-0.1468
G3 X49.6951 Y18.6807 I0.2186 J-0.2866
G3 X49.5617 Y18.5142 I1.6932 J-1.4933
G2 X49.4328 Y18.347 I-4.2038 J3.1075
G2 X49.2916 Y18.1899 I-1.2488 J0.9804
G2 X49.09 Y18.0893 I-0.2732 J0.2951
G2 X48.8746 Y18.1164 I-0.0597 J0.3951
G2 X48.7151 Y18.233 I0.1499 J0.3725
G2 X48.6281 Y18.4099 I0.3339 J0.274
G2 X48.6214 Y18.5934 I0.5306 J0.1112
G2 X48.6788 Y18.8169 I0.7846 J-0.0824
G2 X48.8499 Y19.0933 I0.838 J-0.3276
G2 X48.9456 Y19.176 I0.4131 J-0.3813
G2 X49.0609 Y19.2281 I0.2027 J-0.295
G2 X49.1897 Y19.2392 I0.1021 J-0.4316
G2 X49.3176 Y19.2204 I-0.0417 J-0.7282
G1 X49.2517 Y18.9687
G3 X49.0393 Y18.9454 I-0.0778 J-0.2703
G3 X48.9465 Y18.8615 I0.1426 J-0.251
G3 X48.8864 Y18.7518 I0.422 J-0.3025
G3 X48.845 Y18.6237 I0.7 J-0.297
G3 X48.843 Y18.4892 I0.2832 J-0.0715
G3 X48.8781 Y18.4144 I0.2132 J0.0544
G3 X48.9434 Y18.3638 I0.1235 J0.092
G3 X49.041 Y18.3584 I0.0564 J0.1342
G3 X49.1445 Y18.425 I-0.0715 J0.2249
G3 X49.2957 Y18.6145 I-4.0035 J3.3494
G2 X49.4221 Y18.7752 I5.0454 J-3.8384
G2 X49.5581 Y18.9278 I1.487 J-1.1884
G2 X49.7519 Y19.0364 I0.2802 J-0.2728
G2 X49.9004 Y19.0356 I0.0721 J-0.3818
G0 Z3.0
G0 X40.6706 Y20.0704
G0 Z1.2
G1 Z-0.2
G1 X32.0846 Y23.6144
G0 Z3.0
G0 X31.5454 Y23.8369
G0 Z1.2
G1 Z-0.2
G1 X31.9815 Y24.8935
G1 X29.9858 Y25.7172
G1 X29.7597 Y25.1694
G1 X29.251 Y25.3794
G1 X28.9982 Y25.9875
G1 X28.7175 Y26.195
G1 X28.5218 Y26.2757
G1 X28.1765 Y26.3267
G1 X27.5131 Y26.0509
G1 X27.3056 Y25.7702
G1 X27.2249 Y25.5745
G1 X27.1739 Y25.2292
G1 X27.4497 Y24.5658
G1 X27.7304 Y24.3583
G1 X27.9261 Y24.2776
G1 X28.2714 Y24.2266
G1 X28.8795 Y24.4794
G1 X29.3882 Y24.2694
G1 X29.1621 Y23.7216
G1 X31.1578 Y22.8978
G1 X31.5454 Y23.8369
G0 Z3.0
G0 X32.1269 Y25.2457
G0 Z1.2
G1 Z-0.2
G1 X32.9506 Y27.2414
G1 X30.955 Y28.0651
G1 X30.7288 Y27.5173
G1 X30.2201 Y27.7272
G1 X29.9674 Y28.3354
G1 X29.6866 Y28.5428
G1 X29.491 Y28.6236
G1 X29.1456 Y28.6745
G1 X28.4822 Y28.3988
G1 X28.2747 Y28.118
G1 X28.194 Y27.9224
G1 X28.143 Y27.577
G1 X28.4188 Y26.9137
G1 X28.6995 Y26.7062
G1 X28.8952 Y26.6254
G1 X29.2405 Y26.5745
G1 X29.8486 Y26.8272
G1 X30.3573 Y26.6173
G1 X30.1312 Y26.0694
G1 X32.1269 Y25.2457
G0 Z3.0
G0 X33.096 Y27.5935
G0 Z1.2
G1 Z-0.2
G1 X33.9197 Y29.5892
G1 X31.9241 Y30.413
G1 X31.6979 Y29.8651
G1 X31.1892 Y30.0751
G1 X30.9365 Y30.6832
G1 X30.6557 Y30.8907
G1 X30.4601 Y30.9714
G1 X30.1147 Y31.0224
G1 X29.4513 Y30.7466
G1 X29.2439 Y30.4659
G1 X29.1631 Y30.2702
G1 X29.1121 Y29.9249
G1 X29.3879 Y29.2615
G1 X29.6686 Y29.054
G1 X29.8643 Y28.9733
G1 X30.2096 Y28.9223
G1 X30.8177 Y29.1751
G1 X31.3265 Y28.9651
G1 X31.1003 Y28.4173
G1 X33.096 Y27.5935
G0 Z3.0
G0 X34.0651 Y29.9414
G0 Z1.2
G1 Z-0.2
G1 X34.8889 Y31.9371
G1 X32.8932 Y32.7608
G1 X32.6671 Y32.213
G1 X32.1584 Y32.4229
G1 X31.9056 Y33.0311
G1 X31.6248 Y33.2385
G1 X31.4292 Y33.3193
G1 X31.0838 Y33.3702
G1 X30.4204 Y33.0945
G1 X30.213 Y32.8138
G1 X30.1322 Y32.6181
G1 X30.0813 Y32.2728
G1 X30.357 Y31.6094
G1 X30.6377 Y31.4019
G1 X30.8334 Y31.3211
G1 X31.1788 Y31.2702
G1 X31.7869 Y31.5229
G1 X32.2956 Y31.313
G1 X32.0694 Y30.7651
G1 X34.0651 Y29.9414
G0 Z3.0
G0 X35.0342 Y32.2892
G0 Z1.2
G1 Z-0.2
G1 X35.858 Y34.2849
G1 X33.8623 Y35.1087
G1 X33.6362 Y34.5608
G1 X33.1275 Y34.7708
G1 X32.8747 Y35.3789
G1 X32.594 Y35.5864
G1 X32.3983 Y35.6671
G1 X32.053 Y35.7181
G1 X31.3896 Y35.4424
G1 X31.1821 Y35.1616
G1 X31.1013 Y34.966
G1 X31.0504 Y34.6206
G1 X31.3261 Y33.9572
G1 X31.6069 Y33.7497
G1 X31.8025 Y33.669
G1 X32.1479 Y33.618
G1 X32.756 Y33.8708
G1 X33.2647 Y33.6608
G1 X33.0386 Y33.113
G1 X35.0342 Y32.2892
G0 Z3.0
G0 X36.0033 Y34.6371
G0 Z1.2
G1 Z-0.2
G1 X36.8271 Y36.6328
G1 X34.8314 Y37.4565
G1 X34.6053 Y36.9087
G1 X34.0966 Y37.1187
G1 X33.8438 Y37.7268
G1 X33.5631 Y37.9342
G1 X33.3674 Y38.015
G1 X33.0221 Y38.066
G1 X32.3587 Y37.7902
G1 X32.1512 Y37.5095
G1 X32.0704 Y37.3138
G1 X32.0195 Y36.9685
G1 X32.2952 Y36.3051
G1 X32.576 Y36.0976
G1 X32.7716 Y36.0168
G1 X33.117 Y35.9659
G1 X33.7251 Y36.2186
G1 X34.2338 Y36.0087
G1 X34.0077 Y35.4608
G1 X36.0033 Y34.6371
G0 Z3.0
G0 X36.9725 Y36.9849
G0 Z1.2
G1 Z-0.2
G1 X37.7962 Y38.9806
G1 X35.8005 Y39.8044
G1 X35.5744 Y39.2565
G1 X35.0657 Y39.4665
G1 X34.8129 Y40.0746
G1 X34.5322 Y40.2821
G1 X34.3365 Y40.3629
G1 X33.9912 Y40.4138
G1 X33.3278 Y40.1381
G1 X33.1203 Y39.8573
G1 X33.0396 Y39.6617
G1 X32.9886 Y39.3163
G1 X33.2643 Y38.6529
G1 X33.5451 Y38.4454
G1 X33.7407 Y38.3647
G1 X34.0861 Y38.3137
G1 X34.6942 Y38.5665
G1 X35.2029 Y38.3565
G1 X34.9768 Y37.8087
G1 X36.9725 Y36.9849
G0 Z3.0
G0 X37.9415 Y39.3328
G0 Z1.2
G1 Z-0.2
G1 X37.9416
G1 X37.9577 Y39.3719
G1 X38.7653 Y41.3285
G1 X36.7696 Y42.1522
G1 X36.5435 Y41.6044
G1 X36.0348 Y41.8144
G1 X35.782 Y42.4225
G1 X35.5013 Y42.63
G1 X35.3056 Y42.7107
G1 X34.9603 Y42.7617
G1 X34.2969 Y42.4859
G1 X34.0894 Y42.2052
G1 X34.0087 Y42.0095
G1 X33.9577 Y41.6642
G1 X34.2335 Y41.0008
G1 X34.5142 Y40.7933
G1 X34.7099 Y40.7125
G1 X35.0552 Y40.6616
G1 X35.6633 Y40.9144
G1 X36.172 Y40.7044
G1 X35.9459 Y40.1565
G1 X37.9415 Y39.3328
G0 Z3.0
G0 X33.5782 Y42.1872
G0 Z1.2
G1 Z-0.2
G1 X33.659 Y42.3828
G1 X33.7099 Y42.7282
G1 X33.4342 Y43.3916
G1 X33.1534 Y43.5991
G1 X32.9578 Y43.6798
G1 X32.6124 Y43.7308
G1 X31.949 Y43.455
G1 X31.7416 Y43.1743
G1 X31.6608 Y42.9786
G1 X31.6099 Y42.6333
G1 X31.8626 Y42.0252
G1 X31.588 Y41.3599
G1 X30.9799 Y41.1072
G1 X30.7725 Y40.8264
G1 X30.6917 Y40.6308
G1 X30.6407 Y40.2854
G1 X30.8935 Y39.6773
G1 X30.6189 Y39.0121
G1 X30.0108 Y38.7593
G1 X29.8033 Y38.4786
G1 X29.7226 Y38.2829
G1 X29.6716 Y37.9376
G1 X29.9244 Y37.3295
G1 X29.6498 Y36.6642
G1 X29.0417 Y36.4115
G1 X28.8342 Y36.1307
G1 X28.7535 Y35.9351
G1 X28.7025 Y35.5897
G1 X28.9553 Y34.9816
G1 X28.6807 Y34.3164
G1 X28.0726 Y34.0636
G1 X27.8651 Y33.7829
G1 X27.7844 Y33.5872
G1 X27.7334 Y33.2419
G1 X27.9862 Y32.6338
G1 X27.7116 Y31.9685
G1 X27.1035 Y31.7158
G1 X26.896 Y31.435
G1 X26.8152 Y31.2394
G1 X26.7643 Y30.894
G1 X27.0171 Y30.2859
G1 X26.7425 Y29.6207
G1 X26.1344 Y29.3679
G1 X25.9269 Y29.0872
G1 X25.8461 Y28.8915
G1 X25.7952 Y28.5462
G1 X26.0479 Y27.938
G1 X25.7734 Y27.2728
G1 X25.1652 Y27.0201
G1 X24.9578 Y26.7393
G1 X24.877 Y26.5437
G1 X24.8261 Y26.1983
G1 X25.1018 Y25.5349
G1 X25.4217 Y25.3113
G1 X25.79 Y25.205
G1 X26.9092 Y22.5906
G1 X28.0669 Y22.0669
G1 X30.0133 Y17.4623
G1 X29.4318 Y16.0536
G1 X31.4275 Y15.2298
G1 X32.2513 Y17.2255
G1 X30.8817 Y17.7908
G1 X28.7745 Y22.7824
G1 X27.6167 Y23.3061
G1 X26.6584 Y25.5336
G1 X26.859 Y25.9087
G1 X26.9261 Y26.2932
G1 X26.6734 Y26.9013
G1 X26.948 Y27.5666
G1 X27.5561 Y27.8193
G1 X27.7635 Y28.1001
G1 X27.8443 Y28.2957
G1 X27.8953 Y28.6411
G1 X27.6425 Y29.2492
G1 X27.9171 Y29.9144
G1 X28.5252 Y30.1672
G1 X28.7327 Y30.4479
G1 X28.8134 Y30.6436
G1 X28.8644 Y30.9889
G1 X28.6116 Y31.597
G1 X28.8862 Y32.2623
G1 X29.4943 Y32.515
G1 X29.7018 Y32.7958
G1 X29.7825 Y32.9914
G1 X29.8335 Y33.3368
G1 X29.5807 Y33.9449
G1 X29.8553 Y34.6101
G1 X30.4634 Y34.8629
G1 X30.6709 Y35.1436
G1 X30.7516 Y35.3393
G1 X30.8026 Y35.6846
G1 X30.5498 Y36.2927
G1 X30.8244 Y36.958
G1 X31.4325 Y37.2107
G1 X31.64 Y37.4915
G1 X31.7208 Y37.6871
G1 X31.7717 Y38.0325
G1 X31.5189 Y38.6406
G1 X31.7935 Y39.3058
G1 X32.4016 Y39.5586
G1 X32.6091 Y39.8393
G1 X32.6899 Y40.035
G1 X32.7408 Y40.3803
G1 X32.4881 Y40.9885
G1 X32.7626 Y41.6537
G1 X33.3707 Y41.9064
G1 X33.5782 Y42.1872
G0 Z3.0
G0 X29.5193 Y45.5571
G0 Z1.2
G1 Z-0.2
G1 X30.343 Y47.5528
G1 X28.3473 Y48.3765
G1 X28.1212 Y47.8287
G1 X27.6125 Y48.0387
G1 X27.3597 Y48.6468
G1 X27.079 Y48.8543
G1 X26.8833 Y48.935
G1 X26.538 Y48.986
G1 X25.8746 Y48.7102
G1 X25.6671 Y48.4295
G1 X25.5864 Y48.2338
G1 X25.5354 Y47.8885
G1 X25.8112 Y47.2251
G1 X26.0919 Y47.0176
G1 X26.2876 Y46.9368
G1 X26.6329 Y46.8859
G1 X27.241 Y47.1387
G1 X27.7497 Y46.9287
G1 X27.5236 Y46.3809
G1 X29.5193 Y45.5571
G0 Z3.0
G0 X30.4884 Y47.905
G0 Z1.2
G1 Z-0.2
G1 X31.3121 Y49.9006
G1 X29.3165 Y50.7244
G1 X29.0903 Y50.1766
G1 X28.5816 Y50.3865
G1 X28.3289 Y50.9946
G1 X28.0481 Y51.2021
G1 X27.8525 Y51.2829
G1 X27.5071 Y51.3338
G1 X26.8437 Y51.0581
G1 X26.6362 Y50.7773
G1 X26.5555 Y50.5817
G1 X26.5045 Y50.2363
G1 X26.7803 Y49.5729
G1 X27.061 Y49.3655
G1 X27.2567 Y49.2847
G1 X27.602 Y49.2337
G1 X28.2101 Y49.4865
G1 X28.7188 Y49.2765
G1 X28.4927 Y48.7287
G1 X30.4884 Y47.905
G0 Z3.0
G0 X31.4575 Y50.2528
G0 Z1.2
G1 Z-0.2
G1 X32.2812 Y52.2485
G1 X30.2856 Y53.0722
G1 X30.0594 Y52.5244
G1 X29.5507 Y52.7344
G1 X29.298 Y53.3425
G1 X29.0172 Y53.55
G1 X28.8216 Y53.6307
G1 X28.4762 Y53.6817
G1 X27.8128 Y53.4059
G1 X27.6054 Y53.1252
G1 X27.5246 Y52.9295
G1 X27.4736 Y52.5842
G1 X27.7494 Y51.9208
G1 X28.0301 Y51.7133
G1 X28.2258 Y51.6326
G1 X28.5711 Y51.5816
G1 X29.1792 Y51.8344
G1 X29.6879 Y51.6244
G1 X29.4618 Y51.0766
G1 X31.4575 Y50.2528
G0 Z3.0
G0 X32.4266 Y52.6007
G0 Z1.2
G1 Z-0.2
G1 X33.2504 Y54.5963
G1 X31.2547 Y55.4201
G1 X31.0286 Y54.8723
G1 X30.5199 Y55.0822
G1 X30.2671 Y55.6903
G1 X29.9863 Y55.8978
G1 X29.7907 Y55.9786
G1 X29.4453 Y56.0295
G1 X28.7819 Y55.7538
G1 X28.5745 Y55.473
G1 X28.4937 Y55.2774
G1 X28.4428 Y54.932
G1 X28.7185 Y54.2686
G1 X28.9992 Y54.0612
G1 X29.1949 Y53.9804
G1 X29.5403 Y53.9295
G1 X30.1484 Y54.1822
G1 X30.6571 Y53.9722
G1 X30.4309 Y53.4244
G1 X32.4266 Y52.6007
G0 Z3.0
G0 X33.3957 Y54.9485
G0 Z1.2
G1 Z-0.2
G1 X34.2195 Y56.9442
G1 X32.2238 Y57.7679
G1 X31.9977 Y57.2201
G1 X31.489 Y57.4301
G1 X31.2362 Y58.0382
G1 X30.9555 Y58.2457
G1 X30.7598 Y58.3264
G1 X30.4145 Y58.3774
G1 X29.7511 Y58.1016
G1 X29.5436 Y57.8209
G1 X29.4628 Y57.6252
G1 X29.4119 Y57.2799
G1 X29.6876 Y56.6165
G1 X29.9684 Y56.409
G1 X30.164 Y56.3283
G1 X30.5094 Y56.2773
G1 X31.1175 Y56.5301
G1 X31.6262 Y56.3201
G1 X31.4001 Y55.7723
G1 X33.3957 Y54.9485
G0 Z3.0
G0 X34.3648 Y57.2964
G0 Z1.2
G1 Z-0.2
G1 X35.1886 Y59.2921
G1 X33.1929 Y60.1158
G1 X32.9668 Y59.568
G1 X32.4581 Y59.7779
G1 X32.2053 Y60.3861
G1 X31.9246 Y60.5935
G1 X31.7289 Y60.6743
G1 X31.3836 Y60.7252
G1 X30.7202 Y60.4495
G1 X30.5127 Y60.1688
G1 X30.4319 Y59.9731
G1 X30.381 Y59.6277
G1 X30.6567 Y58.9644
G1 X30.9375 Y58.7569
G1 X31.1331 Y58.6761
G1 X31.4785 Y58.6252
G1 X32.0866 Y58.8779
G1 X32.5953 Y58.668
G1 X32.3692 Y58.1201
G1 X34.3648 Y57.2964
G0 Z3.0
G0 X35.334 Y59.6442
G0 Z1.2
G1 Z-0.2
G1 X36.1577 Y61.6399
G1 X34.162 Y62.4637
G1 X33.9359 Y61.9158
G1 X33.4272 Y62.1258
G1 X33.1744 Y62.7339
G1 X32.8937 Y62.9414
G1 X32.698 Y63.0221
G1 X32.3527 Y63.0731
G1 X31.6893 Y62.7973
G1 X31.4818 Y62.5166
G1 X31.401 Y62.321
G1 X31.3501 Y61.9756
G1 X31.6258 Y61.3122
G1 X31.9066 Y61.1047
G1 X32.1022 Y61.024
G1 X32.4476 Y60.973
G1 X33.0557 Y61.2258
G1 X33.5644 Y61.0158
G1 X33.3383 Y60.468
G1 X35.334 Y59.6442
G0 Z3.0
G0 X36.303 Y61.9921
G0 Z1.2
G1 Z-0.2
G1 X36.3031
G1 X37.1268 Y63.9878
G1 X35.1311 Y64.8115
G1 X34.905 Y64.2637
G1 X34.3963 Y64.4737
G1 X34.1435 Y65.0818
G1 X33.8628 Y65.2892
G1 X33.6671 Y65.37
G1 X33.3218 Y65.421
G1 X32.6584 Y65.1452
G1 X32.4509 Y64.8645
G1 X32.3702 Y64.6688
G1 X32.3192 Y64.3235
G1 X32.595 Y63.6601
G1 X32.8757 Y63.4526
G1 X33.0714 Y63.3718
G1 X33.4167 Y63.3209
G1 X34.0248 Y63.5736
G1 X34.5335 Y63.3637
G1 X34.3074 Y62.8158
G1 X36.303 Y61.9921
G0 Z3.0
G0 X31.9397 Y64.8465
G0 Z1.2
G1 Z-0.2
G1 X32.0205 Y65.0421
G1 X32.0714 Y65.3875
G1 X31.7957 Y66.0509
G1 X31.5149 Y66.2584
G1 X31.3193 Y66.3391
G1 X30.9739 Y66.3901
G1 X30.3105 Y66.1143
G1 X30.1031 Y65.8336
G1 X30.0223 Y65.6379
G1 X29.9714 Y65.2926
G1 X30.2241 Y64.6845
G1 X29.9495 Y64.0192
G1 X29.3414 Y63.7665
G1 X29.134 Y63.4857
G1 X29.0532 Y63.2901
G1 X29.0022 Y62.9447
G1 X29.255 Y62.3366
G1 X28.9804 Y61.6714
G1 X28.3723 Y61.4186
G1 X28.1648 Y61.1379
G1 X28.0841 Y60.9422
G1 X28.0331 Y60.5969
G1 X28.2859 Y59.9887
G1 X28.0113 Y59.3235
G1 X27.4032 Y59.0708
G1 X27.1957 Y58.79
G1 X27.115 Y58.5944
G1 X27.064 Y58.249
G1 X27.3168 Y57.6409
G1 X27.0422 Y56.9757
G1 X26.4341 Y56.7229
G1 X26.2266 Y56.4422
G1 X26.1459 Y56.2465
G1 X26.0949 Y55.9012
G1 X26.3477 Y55.293
G1 X26.0731 Y54.6278
G1 X25.465 Y54.375
G1 X25.2575 Y54.0943
G1 X25.1767 Y53.8986
G1 X25.1258 Y53.5533
G1 X25.3786 Y52.9452
G1 X25.104 Y52.28
G1 X24.4959 Y52.0272
G1 X24.2884 Y51.7465
G1 X24.2076 Y51.5508
G1 X24.1567 Y51.2054
G1 X24.4094 Y50.5973
G1 X24.1349 Y49.9321
G1 X23.5267 Y49.6793
G1 X23.3193 Y49.3986
G1 X23.2385 Y49.2029
G1 X23.1876 Y48.8576
G1 X23.4633 Y48.1942
G1 X23.7832 Y47.9706
G1 X24.1906 Y47.8482
G1 X28.1958 Y38.1346
G1 X23.3894 Y26.3791
G1 X25.2507 Y21.9012
G1 X26.4084 Y21.3775
G1 X27.7114 Y18.3208
G1 X27.5108 Y17.9457
G1 X27.4437 Y17.5612
G1 X27.7194 Y16.8978
G1 X28.0002 Y16.6903
G1 X28.1958 Y16.6096
G1 X28.5412 Y16.5586
G1 X29.2046 Y16.8344
G1 X29.412 Y17.1151
G1 X29.5251 Y17.389
G1 X29.5437 Y17.6561
G1 X29.268 Y18.3195
G1 X28.9481 Y18.5431
G1 X28.5798 Y18.6494
G1 X27.1216 Y22.0798
G1 X27.116 Y22.0931
G1 X25.9191 Y22.6329
G1 X24.3956 Y26.376
G1 X29.2021 Y38.1314
G1 X25.036 Y48.232
G1 X25.2205 Y48.568
G1 X25.2876 Y48.9525
G1 X25.0349 Y49.5606
G1 X25.3095 Y50.2258
G1 X25.9176 Y50.4786
G1 X26.125 Y50.7594
G1 X26.2058 Y50.955
G1 X26.2568 Y51.3004
G1 X26.004 Y51.9085
G1 X26.2786 Y52.5737
G1 X26.8867 Y52.8265
G1 X27.0942 Y53.1072
G1 X27.1749 Y53.3029
G1 X27.2259 Y53.6482
G1 X26.9731 Y54.2563
G1 X27.2477 Y54.9215
G1 X27.8558 Y55.1743
G1 X28.0633 Y55.4551
G1 X28.144 Y55.6507
G1 X28.195 Y55.9961
G1 X27.9422 Y56.6042
G1 X28.2168 Y57.2694
G1 X28.8249 Y57.5222
G1 X29.0324 Y57.8029
G1 X29.1131 Y57.9986
G1 X29.1641 Y58.3439
G1 X28.9113 Y58.952
G1 X29.1859 Y59.6173
G1 X29.794 Y59.87
G1 X30.0015 Y60.1508
G1 X30.0823 Y60.3464
G1 X30.1332 Y60.6918
G1 X29.8804 Y61.2999
G1 X30.155 Y61.9651
G1 X30.7631 Y62.2179
G1 X30.9706 Y62.4986
G1 X31.0514 Y62.6943
G1 X31.1023 Y63.0396
G1 X30.8496 Y63.6477
G1 X31.1241 Y64.313
G1 X31.7322 Y64.5657
G1 X31.9397 Y64.8465
G0 Z3.0
G0 X27.8808 Y68.2164
G0 Z1.2
G1 Z-0.2
G1 X28.7045 Y70.2121
G1 X26.7088 Y71.0358
G1 X26.4827 Y70.488
G1 X25.974 Y70.698
G1 X25.7212 Y71.3061
G1 X25.4405 Y71.5135
G1 X25.2448 Y71.5943
G1 X24.8995 Y71.6453
G1 X24.2361 Y71.3695
G1 X24.0286 Y71.0888
G1 X23.9479 Y70.8931
G1 X23.8969 Y70.5478
G1 X24.1727 Y69.8844
G1 X24.4534 Y69.6769
G1 X24.6491 Y69.5961
G1 X24.9944 Y69.5452
G1 X25.6025 Y69.7979
G1 X26.1112 Y69.588
G1 X25.8851 Y69.0401
G1 X27.8808 Y68.2164
G0 Z3.0
G0 X28.8499 Y70.5642
G0 Z1.2
G1 Z-0.2
G1 X29.6736 Y72.5599
G1 X27.678 Y73.3837
G1 X27.4518 Y72.8358
G1 X26.9431 Y73.0458
G1 X26.6904 Y73.6539
G1 X26.4096 Y73.8614
G1 X26.214 Y73.9422
G1 X25.8686 Y73.9931
G1 X25.2052 Y73.7174
G1 X24.9977 Y73.4366
G1 X24.917 Y73.241
G1 X24.866 Y72.8956
G1 X25.1418 Y72.2322
G1 X25.4225 Y72.0247
G1 X25.6182 Y71.944
G1 X25.9635 Y71.893
G1 X26.5716 Y72.1458
G1 X27.0803 Y71.9358
G1 X26.8542 Y71.388
G1 X28.8499 Y70.5642
G0 Z3.0
G0 X29.819 Y72.9121
G0 Z1.2
G1 Z-0.2
G1 X30.6427 Y74.9078
G1 X28.6471 Y75.7315
G1 X28.4209 Y75.1837
G1 X27.9122 Y75.3937
G1 X27.6595 Y76.0018
G1 X27.3787 Y76.2093
G1 X27.1831 Y76.29
G1 X26.8377 Y76.341
G1 X26.1743 Y76.0652
G1 X25.9668 Y75.7845
G1 X25.8861 Y75.5888
G1 X25.8351 Y75.2435
G1 X26.1109 Y74.5801
G1 X26.3916 Y74.3726
G1 X26.5873 Y74.2918
G1 X26.9326 Y74.2409
G1 X27.5407 Y74.4937
G1 X28.0494 Y74.2837
G1 X27.8233 Y73.7359
G1 X29.819 Y72.9121
G0 Z3.0
G0 X30.7881 Y75.26
G0 Z1.2
G1 Z-0.2
G1 X31.6119 Y77.2556
G1 X29.6162 Y78.0794
G1 X29.3901 Y77.5315
G1 X28.8814 Y77.7415
G1 X28.6286 Y78.3496
G1 X28.3478 Y78.5571
G1 X28.1522 Y78.6379
G1 X27.8068 Y78.6888
G1 X27.1434 Y78.4131
G1 X26.936 Y78.1323
G1 X26.8552 Y77.9367
G1 X26.8043 Y77.5913
G1 X27.08 Y76.9279
G1 X27.3607 Y76.7205
G1 X27.5564 Y76.6397
G1 X27.9017 Y76.5887
G1 X28.5099 Y76.8415
G1 X29.0186 Y76.6315
G1 X28.7924 Y76.0837
G1 X30.7881 Y75.26
G0 Z3.0
G0 X31.7572 Y77.6078
G0 Z1.2
G1 Z-0.2
G1 X32.581 Y79.6035
G1 X30.5853 Y80.4272
G1 X30.3592 Y79.8794
G1 X29.8505 Y80.0894
G1 X29.5977 Y80.6975
G1 X29.317 Y80.905
G1 X29.1213 Y80.9857
G1 X28.7759 Y81.0367
G1 X28.1126 Y80.7609
G1 X27.9051 Y80.4802
G1 X27.8243 Y80.2845
G1 X27.7734 Y79.9392
G1 X28.0491 Y79.2758
G1 X28.3299 Y79.0683
G1 X28.5255 Y78.9876
G1 X28.8709 Y78.9366
G1 X29.479 Y79.1894
G1 X29.9877 Y78.9794
G1 X29.7615 Y78.4316
G1 X31.7572 Y77.6078
G0 Z3.0
G0 X32.7263 Y79.9557
G0 Z1.2
G1 Z-0.2
G1 X33.5501 Y81.9513
G1 X31.5544 Y82.7751
G1 X31.3283 Y82.2273
G1 X30.8196 Y82.4372
G1 X30.5668 Y83.0453
G1 X30.2861 Y83.2528
G1 X30.0904 Y83.3336
G1 X29.7451 Y83.3845
G1 X29.0817 Y83.1088
G1 X28.8742 Y82.828
G1 X28.7934 Y82.6324
G1 X28.7425 Y82.287
G1 X29.0182 Y81.6236
G1 X29.299 Y81.4162
G1 X29.4946 Y81.3354
G1 X29.84 Y81.2845
G1 X30.4481 Y81.5372
G1 X30.9568 Y81.3272
G1 X30.7307 Y80.7794
G1 X32.7263 Y79.9557
G0 Z3.0
G0 X33.6955 Y82.3035
G0 Z1.2
G1 Z-0.2
G1 X34.5192 Y84.2992
G1 X32.5235 Y85.1229
G1 X32.2974 Y84.5751
G1 X31.7887 Y84.7851
G1 X31.5359 Y85.3932
G1 X31.2552 Y85.6007
G1 X31.0595 Y85.6814
G1 X30.7142 Y85.7324
G1 X30.0508 Y85.4566
G1 X29.8433 Y85.1759
G1 X29.7625 Y84.9802
G1 X29.7116 Y84.6349
G1 X29.9873 Y83.9715
G1 X30.2681 Y83.764
G1 X30.4637 Y83.6833
G1 X30.8091 Y83.6323
G1 X31.4172 Y83.8851
G1 X31.9259 Y83.6751
G1 X31.6998 Y83.1273
G1 X33.6955 Y82.3035
G0 Z3.0
G0 X34.6645 Y84.6514
G0 Z1.2
G1 Z-0.2
G1 X34.6646
G1 X35.4883 Y86.647
G1 X33.4926 Y87.4708
G1 X33.2665 Y86.923
G1 X32.7578 Y87.1329
G1 X32.505 Y87.741
G1 X32.2243 Y87.9485
G1 X32.0286 Y88.0293
G1 X31.6833 Y88.0802
G1 X31.0199 Y87.8045
G1 X30.8124 Y87.5237
G1 X30.7317 Y87.3281
G1 X30.6807 Y86.9827
G1 X30.9565 Y86.3193
G1 X31.2372 Y86.1119
G1 X31.4329 Y86.0311
G1 X31.7782 Y85.9802
G1 X32.3863 Y86.2329
G1 X32.895 Y86.023
G1 X32.6689 Y85.4751
G1 X34.6645 Y84.6514
G0 Z3.0
G0 X30.3012 Y87.5058
G0 Z1.2
G1 Z-0.2
G1 X30.382 Y87.7014
G1 X30.4329 Y88.0468
G1 X30.1572 Y88.7102
G1 X29.8764 Y88.9176
G1 X29.6808 Y88.9984
G1 X29.3354 Y89.0494
G1 X28.672 Y88.7736
G1 X28.4646 Y88.4929
G1 X28.3838 Y88.2972
G1 X28.3329 Y87.9519
G1 X28.5856 Y87.3437
G1 X28.311 Y86.6785
G1 X27.7029 Y86.4258
G1 X27.4955 Y86.145
G1 X27.4147 Y85.9494
G1 X27.3637 Y85.604
G1 X27.6165 Y84.9959
G1 X27.3419 Y84.3307
G1 X26.7338 Y84.0779
G1 X26.5263 Y83.7972
G1 X26.4456 Y83.6015
G1 X26.3946 Y83.2561
G1 X26.6474 Y82.648
G1 X26.3728 Y81.9828
G1 X25.7647 Y81.73
G1 X25.5572 Y81.4493
G1 X25.4765 Y81.2536
G1 X25.4255 Y80.9083
G1 X25.6783 Y80.3002
G1 X25.4037 Y79.635
G1 X24.7956 Y79.3822
G1 X24.5881 Y79.1014
G1 X24.5074 Y78.9058
G1 X24.4564 Y78.5604
G1 X24.7092 Y77.9523
G1 X24.4346 Y77.2871
G1 X23.8265 Y77.0343
G1 X23.619 Y76.7536
G1 X23.5382 Y76.5579
G1 X23.4873 Y76.2126
G1 X23.7401 Y75.6045
G1 X23.4655 Y74.9393
G1 X22.8574 Y74.6865
G1 X22.6499 Y74.4057
G1 X22.5691 Y74.2101
G1 X22.5182 Y73.8647
G1 X22.7709 Y73.2566
G1 X22.4964 Y72.5914
G1 X21.8882 Y72.3386
G1 X21.6808 Y72.0579
G1 X21.6 Y71.8622
G1 X21.5491 Y71.5169
G1 X21.8248 Y70.8535
G1 X22.1447 Y70.6299
G1 X22.5521 Y70.5075
G1 X26.5573 Y60.7938
G1 X21.7509 Y49.0384
G1 X26.5373 Y37.4452
G1 X21.9732 Y26.2767
G1 X24.1792 Y20.9696
G1 X24.75 Y20.6882
G1 X25.3636 Y19.29
G1 X25.1629 Y18.9148
G1 X25.0958 Y18.5303
G1 X25.3716 Y17.8669
G1 X25.6523 Y17.6594
G1 X25.848 Y17.5787
G1 X26.1933 Y17.5277
G1 X26.8567 Y17.8035
G1 X27.0642 Y18.0842
G1 X27.1772 Y18.3581
G1 X27.1959 Y18.6252
G1 X26.9201 Y19.2886
G1 X26.6003 Y19.5122
G1 X26.2319 Y19.6185
G1 X25.4742 Y21.3652
G1 X25.4575 Y21.4037
G1 X24.8475 Y21.7012
G1 X22.9794 Y26.2736
G1 X27.5436 Y37.442
G1 X22.7571 Y49.0353
G1 X27.5636 Y60.7907
G1 X23.3975 Y70.8913
G1 X23.582 Y71.2273
G1 X23.6491 Y71.6118
G1 X23.3964 Y72.2199
G1 X23.6709 Y72.8851
G1 X24.2791 Y73.1379
G1 X24.4865 Y73.4186
G1 X24.5673 Y73.6143
G1 X24.6182 Y73.9596
G1 X24.3655 Y74.5678
G1 X24.6401 Y75.233
G1 X25.2482 Y75.4858
G1 X25.4557 Y75.7665
G1 X25.5364 Y75.9621
G1 X25.5874 Y76.3075
G1 X25.3346 Y76.9156
G1 X25.6092 Y77.5808
G1 X26.2173 Y77.8336
G1 X26.4248 Y78.1143
G1 X26.5055 Y78.31
G1 X26.5565 Y78.6554
G1 X26.3037 Y79.2635
G1 X26.5783 Y79.9287
G1 X27.1864 Y80.1815
G1 X27.3939 Y80.4622
G1 X27.4746 Y80.6579
G1 X27.5256 Y81.0032
G1 X27.2728 Y81.6113
G1 X27.5474 Y82.2765
G1 X28.1555 Y82.5293
G1 X28.363 Y82.8101
G1 X28.4438 Y83.0057
G1 X28.4947 Y83.3511
G1 X28.2419 Y83.9592
G1 X28.5165 Y84.6244
G1 X29.1246 Y84.8772
G1 X29.3321 Y85.1579
G1 X29.4129 Y85.3536
G1 X29.4638 Y85.6989
G1 X29.2111 Y86.307
G1 X29.4856 Y86.9723
G1 X30.0937 Y87.225
G1 X30.3012 Y87.5058
G0 Z3.0
G0 X26.2423 Y90.8757
G0 Z1.2
G1 Z-0.2
G1 X27.066 Y92.8714
G1 X25.0703 Y93.6951
G1 X24.8442 Y93.1473
G1 X24.3355 Y93.3572
G1 X24.0827 Y93.9654
G1 X23.802 Y94.1728
G1 X23.6063 Y94.2536
G1 X23.261 Y94.3045
G1 X22.5976 Y94.0288
G1 X22.3901 Y93.7481
G1 X22.3094 Y93.5524
G1 X22.2584 Y93.2071
G1 X22.5342 Y92.5437
G1 X22.8149 Y92.3362
G1 X23.0106 Y92.2554
G1 X23.3559 Y92.2045
G1 X23.964 Y92.4572
G1 X24.4727 Y92.2473
G1 X24.2466 Y91.6994
G1 X26.2423 Y90.8757
G0 Z3.0
G0 X27.2114 Y93.2235
G0 Z1.2
G1 Z-0.2
G1 X28.0351 Y95.2192
G1 X26.0395 Y96.043
G1 X25.8133 Y95.4951
G1 X25.3046 Y95.7051
G1 X25.0519 Y96.3132
G1 X24.7711 Y96.5207
G1 X24.5755 Y96.6014
G1 X24.2301 Y96.6524
G1 X23.5667 Y96.3767
G1 X23.3592 Y96.0959
G1 X23.2785 Y95.9003
G1 X23.2275 Y95.5549
G1 X23.5033 Y94.8915
G1 X23.784 Y94.684
G1 X23.9797 Y94.6033
G1 X24.325 Y94.5523
G1 X24.9331 Y94.8051
G1 X25.4418 Y94.5951
G1 X25.2157 Y94.0473
G1 X27.2114 Y93.2235
G0 Z3.0
G0 X28.1805 Y95.5714
G0 Z1.2
G1 Z-0.2
G1 X29.0042 Y97.5671
G1 X27.0086 Y98.3908
G1 X26.7824 Y97.843
G1 X26.2737 Y98.053
G1 X26.021 Y98.6611
G1 X25.7402 Y98.8685
G1 X25.5446 Y98.9493
G1 X25.1992 Y99.0003
G1 X24.5358 Y98.7245
G1 X24.3283 Y98.4438
G1 X24.2476 Y98.2481
G1 X24.1966 Y97.9028
G1 X24.4724 Y97.2394
G1 X24.7531 Y97.0319
G1 X24.9488 Y96.9511
G1 X25.2941 Y96.9002
G1 X25.9022 Y97.1529
G1 X26.4109 Y96.943
G1 X26.1848 Y96.3951
G1 X28.1805 Y95.5714
G0 Z3.0
G0 X29.1496 Y97.9192
G0 Z1.2
G1 Z-0.2
G1 X29.9734 Y99.9149
G1 X27.9777 Y100.7387
G1 X27.7516 Y100.1908
G1 X27.2429 Y100.4008
G1 X26.9901 Y101.0089
G1 X26.7093 Y101.2164
G1 X26.5137 Y101.2972
G1 X26.1683 Y101.3481
G1 X25.5049 Y101.0724
G1 X25.2975 Y100.7916
G1 X25.2167 Y100.596
G1 X25.1657 Y100.2506
G1 X25.4415 Y99.5872
G1 X25.7222 Y99.3797
G1 X25.9179 Y99.299
G1 X26.2632 Y99.248
G1 X26.8714 Y99.5008
G1 X27.3801 Y99.2908
G1 X27.1539 Y98.743
G1 X29.1496 Y97.9192
G0 Z3.0
G0 X30.1187 Y100.2671
G0 Z1.2
G1 Z-0.2
G1 X30.9425 Y102.2628
G1 X28.9468 Y103.0865
G1 X28.7207 Y102.5387
G1 X28.212 Y102.7487
G1 X27.9592 Y103.3568
G1 X27.6785 Y103.5643
G1 X27.4828 Y103.645
G1 X27.1374 Y103.696
G1 X26.4741 Y103.4202
G1 X26.2666 Y103.1395
G1 X26.1858 Y102.9438
G1 X26.1349 Y102.5985
G1 X26.4106 Y101.9351
G1 X26.6914 Y101.7276
G1 X26.887 Y101.6468
G1 X27.2324 Y101.5959
G1 X27.8405 Y101.8487
G1 X28.3492 Y101.6387
G1 X28.123 Y101.0908
G1 X30.1187 Y100.2671
G0 Z3.0
G0 X31.0878 Y102.615
G0 Z1.2
G1 Z-0.2
G1 X31.9116 Y104.6106
G1 X29.9159 Y105.4344
G1 X29.6898 Y104.8865
G1 X29.1811 Y105.0965
G1 X28.9283 Y105.7046
G1 X28.6476 Y105.9121
G1 X28.4519 Y105.9929
G1 X28.1066 Y106.0438
G1 X27.4432 Y105.7681
G1 X27.2357 Y105.4873
G1 X27.1549 Y105.2917
G1 X27.104 Y104.9463
G1 X27.3797 Y104.2829
G1 X27.6605 Y104.0755
G1 X27.8561 Y103.9947
G1 X28.2015 Y103.9437
G1 X28.8096 Y104.1965
G1 X29.3183 Y103.9865
G1 X29.0922 Y103.4387
G1 X31.0878 Y102.615
G0 Z3.0
G0 X32.0569 Y104.9628
G0 Z1.2
G1 Z-0.2
G1 X32.057
G1 X32.8807 Y106.9585
G1 X30.885 Y107.7822
G1 X30.6589 Y107.2344
G1 X30.1502 Y107.4444
G1 X29.8974 Y108.0525
G1 X29.6167 Y108.26
G1 X29.421 Y108.3407
G1 X29.0757 Y108.3917
G1 X28.4123 Y108.1159
G1 X28.2048 Y107.8352
G1 X28.124 Y107.6395
G1 X28.0731 Y107.2942
G1 X28.3488 Y106.6308
G1 X28.6296 Y106.4233
G1 X28.8252 Y106.3425
G1 X29.1706 Y106.2916
G1 X29.7787 Y106.5444
G1 X30.2874 Y106.3344
G1 X30.0613 Y105.7866
G1 X32.0569 Y104.9628
G0 Z3.0
G0 X33.026 Y107.3107
G0 Z1.2
G1 Z-0.2
G1 X33.0261
G1 X33.8498 Y109.3063
G1 X31.8541 Y110.1301
G1 X31.628 Y109.5823
G1 X31.1193 Y109.7922
G1 X30.8665 Y110.4003
G1 X30.5858 Y110.6078
G1 X30.3901 Y110.6886
G1 X30.0448 Y110.7395
G1 X29.3814 Y110.4638
G1 X29.1739 Y110.183
G1 X29.0932 Y109.9874
G1 X29.0422 Y109.642
G1 X29.318 Y108.9786
G1 X29.5987 Y108.7712
G1 X29.7944 Y108.6904
G1 X30.1397 Y108.6394
G1 X30.7478 Y108.8922
G1 X31.2565 Y108.6822
G1 X31.0304 Y108.1344
G1 X33.026 Y107.3107
G0 Z3.0
G0 X28.6627 Y110.1651
G0 Z1.2
G1 Z-0.2
G1 X28.7435 Y110.3607
G1 X28.7944 Y110.7061
G1 X28.5187 Y111.3695
G1 X28.2379 Y111.5769
G1 X28.0423 Y111.6577
G1 X27.6969 Y111.7086
G1 X27.0335 Y111.4329
G1 X26.8261 Y111.1521
G1 X26.7453 Y110.9565
G1 X26.6944 Y110.6111
G1 X26.9471 Y110.003
G1 X26.6725 Y109.3378
G1 X26.0644 Y109.085
G1 X25.857 Y108.8043
G1 X25.7762 Y108.6086
G1 X25.7252 Y108.2633
G1 X25.978 Y107.6552
G1 X25.7034 Y106.99
G1 X25.0953 Y106.7372
G1 X24.8878 Y106.4564
G1 X24.8071 Y106.2608
G1 X24.7561 Y105.9154
G1 X25.0089 Y105.3073
G1 X24.7343 Y104.6421
G1 X24.1262 Y104.3893
G1 X23.9187 Y104.1086
G1 X23.838 Y103.9129
G1 X23.787 Y103.5676
G1 X24.0398 Y102.9595
G1 X23.7652 Y102.2942
G1 X23.1571 Y102.0415
G1 X22.9496 Y101.7607
G1 X22.8688 Y101.5651
G1 X22.8179 Y101.2197
G1 X23.0707 Y100.6116
G1 X22.7961 Y99.9464
G1 X22.188 Y99.6936
G1 X21.9805 Y99.4129
G1 X21.8997 Y99.2172
G1 X21.8488 Y98.8719
G1 X22.1016 Y98.2638
G1 X21.827 Y97.5985
G1 X21.2189 Y97.3458
G1 X21.0114 Y97.065
G1 X20.9306 Y96.8694
G1 X20.8797 Y96.524
G1 X21.1324 Y95.9159
G1 X20.8579 Y95.2507
G1 X20.2497 Y94.9979
G1 X20.0423 Y94.7172
G1 X19.9615 Y94.5215
G1 X19.9106 Y94.1762
G1 X20.1863 Y93.5128
G1 X20.5062 Y93.2891
G1 X20.9136 Y93.1668
G1 X24.9188 Y83.4531
G1 X20.1124 Y71.6977
G1 X24.8988 Y60.1045
G1 X20.0924 Y48.3491
G1 X24.8788 Y36.7558
G1 X20.557 Y26.1743
G1 X22.9996 Y20.2199
G1 X22.8151 Y19.8839
G1 X22.748 Y19.4994
G1 X23.0237 Y18.836
G1 X23.3045 Y18.6286
G1 X23.5001 Y18.5478
G1 X23.8455 Y18.4968
G1 X24.5088 Y18.7726
G1 X24.7163 Y19.0533
G1 X24.8294 Y19.3273
G1 X24.848 Y19.5943
G1 X24.5723 Y20.2577
G1 X24.2524 Y20.4814
G1 X23.845 Y20.6038
G1 X21.5632 Y26.1712
G1 X25.8851 Y36.7527
G1 X21.0986 Y48.3459
G1 X25.9051 Y60.1013
G1 X21.1186 Y71.6946
G1 X25.9251 Y83.45
G1 X21.759 Y93.5506
G1 X21.9435 Y93.8866
G1 X22.0106 Y94.2711
G1 X21.7579 Y94.8792
G1 X22.0324 Y95.5444
G1 X22.6406 Y95.7972
G1 X22.848 Y96.0779
G1 X22.9288 Y96.2736
G1 X22.9797 Y96.6189
G1 X22.727 Y97.227
G1 X23.0016 Y97.8923
G1 X23.6097 Y98.145
G1 X23.8171 Y98.4258
G1 X23.8979 Y98.6214
G1 X23.9489 Y98.9668
G1 X23.6961 Y99.5749
G1 X23.9707 Y100.2401
G1 X24.5788 Y100.4929
G1 X24.7863 Y100.7736
G1 X24.867 Y100.9693
G1 X24.918 Y101.3146
G1 X24.6652 Y101.9228
G1 X24.9398 Y102.588
G1 X25.5479 Y102.8407
G1 X25.7554 Y103.1215
G1 X25.8361 Y103.3171
G1 X25.8871 Y103.6625
G1 X25.6343 Y104.2706
G1 X25.9089 Y104.9358
G1 X26.517 Y105.1886
G1 X26.7245 Y105.4693
G1 X26.8053 Y105.665
G1 X26.8562 Y106.0103
G1 X26.6034 Y106.6185
G1 X26.878 Y107.2837
G1 X27.4861 Y107.5365
G1 X27.6936 Y107.8172
G1 X27.7744 Y108.0129
G1 X27.8253 Y108.3582
G1 X27.5725 Y108.9663
G1 X27.8471 Y109.6315
G1 X28.4552 Y109.8843
G1 X28.6627 Y110.1651
G0 Z3.0
G0 X24.6038 Y113.535
G0 Z1.2
G1 Z-0.2
G1 X25.4275 Y115.5306
G1 X23.4318 Y116.3544
G1 X23.2057 Y115.8066
G1 X22.697 Y116.0165
G1 X22.4442 Y116.6246
G1 X22.1635 Y116.8321
G1 X21.9678 Y116.9129
G1 X21.6225 Y116.9638
G1 X20.9591 Y116.6881
G1 X20.7516 Y116.4073
G1 X20.6709 Y116.2117
G1 X20.6199 Y115.8663
G1 X20.8957 Y115.2029
G1 X21.1764 Y114.9955
G1 X21.3721 Y114.9147
G1 X21.7174 Y114.8638
G1 X22.3255 Y115.1165
G1 X22.8342 Y114.9066
G1 X22.6081 Y114.3587
G1 X24.6038 Y113.535
G0 Z3.0
G0 X25.5729 Y115.8828
G0 Z1.2
G1 Z-0.2
G1 X26.3966 Y117.8785
G1 X24.4009 Y118.7022
G1 X24.1748 Y118.1544
G1 X23.6661 Y118.3644
G1 X23.4134 Y118.9725
G1 X23.1326 Y119.18
G1 X22.937 Y119.2607
G1 X22.5916 Y119.3117
G1 X21.9282 Y119.0359
G1 X21.7207 Y118.7552
G1 X21.64 Y118.5595
G1 X21.589 Y118.2142
G1 X21.8648 Y117.5508
G1 X22.1455 Y117.3433
G1 X22.3412 Y117.2626
G1 X22.6865 Y117.2116
G1 X23.2946 Y117.4644
G1 X23.8033 Y117.2544
G1 X23.5772 Y116.7066
G1 X25.5729 Y115.8828
G0 Z3.0
G0 X26.542 Y118.2307
G0 Z1.2
G1 Z-0.2
G1 X27.3657 Y120.2264
G1 X25.3701 Y121.0501
G1 X25.1439 Y120.5023
G1 X24.6352 Y120.7122
G1 X24.3825 Y121.3204
G1 X24.1017 Y121.5278
G1 X23.9061 Y121.6086
G1 X23.5607 Y121.6595
G1 X22.8973 Y121.3838
G1 X22.6898 Y121.1031
G1 X22.6091 Y120.9074
G1 X22.5581 Y120.562
G1 X22.8339 Y119.8987
G1 X23.1146 Y119.6912
G1 X23.3103 Y119.6104
G1 X23.6556 Y119.5595
G1 X24.2637 Y119.8122
G1 X24.7724 Y119.6023
G1 X24.5463 Y119.0544
G1 X26.542 Y118.2307
G0 Z3.0
G0 X27.5111 Y120.5785
G0 Z1.2
G1 Z-0.2
G1 X28.3349 Y122.5742
G1 X26.3392 Y123.398
G1 X26.1131 Y122.8501
G1 X25.6043 Y123.0601
G1 X25.3516 Y123.6682
G1 X25.0708 Y123.8757
G1 X24.8752 Y123.9564
G1 X24.5298 Y124.0074
G1 X23.8664 Y123.7317
G1 X23.659 Y123.4509
G1 X23.5782 Y123.2553
G1 X23.5272 Y122.9099
G1 X23.803 Y122.2465
G1 X24.0837 Y122.039
G1 X24.2794 Y121.9583
G1 X24.6247 Y121.9073
G1 X25.2329 Y122.1601
G1 X25.7416 Y121.9501
G1 X25.5154 Y121.4023
G1 X27.5111 Y120.5785
G0 Z3.0
G0 X28.4802 Y122.9264
G0 Z1.2
G1 Z-0.2
G1 X29.304 Y124.9221
G1 X27.3083 Y125.7458
G1 X27.0822 Y125.198
G1 X26.5735 Y125.408
G1 X26.3207 Y126.0161
G1 X26.0399 Y126.2235
G1 X25.8443 Y126.3043
G1 X25.4989 Y126.3553
G1 X24.8356 Y126.0795
G1 X24.6281 Y125.7988
G1 X24.5473 Y125.6031
G1 X24.4964 Y125.2578
G1 X24.7721 Y124.5944
G1 X25.0529 Y124.3869
G1 X25.2485 Y124.3061
G1 X25.5939 Y124.2552
G1 X26.202 Y124.5079
G1 X26.7107 Y124.298
G1 X26.4845 Y123.7501
G1 X28.4802 Y122.9264
G0 Z3.0
G0 X29.4493 Y125.2742
G0 Z1.2
G1 Z-0.2
G1 X30.2731 Y127.2699
G1 X28.2774 Y128.0937
G1 X28.0513 Y127.5458
G1 X27.5426 Y127.7558
G1 X27.2898 Y128.3639
G1 X27.0091 Y128.5714
G1 X26.8134 Y128.6522
G1 X26.4681 Y128.7031
G1 X25.8047 Y128.4274
G1 X25.5972 Y128.1466
G1 X25.5164 Y127.951
G1 X25.4655 Y127.6056
G1 X25.7412 Y126.9422
G1 X26.022 Y126.7347
G1 X26.2176 Y126.654
G1 X26.563 Y126.603
G1 X27.1711 Y126.8558
G1 X27.6798 Y126.6458
G1 X27.4537 Y126.098
G1 X29.4493 Y125.2742
G0 Z3.0
G0 X30.4184 Y127.6221
G0 Z1.2
G1 Z-0.2
G1 X31.2422 Y129.6178
G1 X29.2465 Y130.4415
G1 X29.0204 Y129.8937
G1 X28.5117 Y130.1037
G1 X28.2589 Y130.7118
G1 X27.9782 Y130.9192
G1 X27.7825 Y131.0
G1 X27.4372 Y131.051
G1 X26.7738 Y130.7752
G1 X26.5663 Y130.4945
G1 X26.4855 Y130.2988
G1 X26.4346 Y129.9535
G1 X26.7103 Y129.2901
G1 X26.9911 Y129.0826
G1 X27.1867 Y129.0018
G1 X27.5321 Y128.9509
G1 X28.1402 Y129.2036
G1 X28.6489 Y128.9937
G1 X28.4228 Y128.4458
G1 X30.4184 Y127.6221
G0 Z3.0
G0 X31.3876 Y129.9699
G0 Z1.2
G1 Z-0.2
G1 X32.2113 Y131.9656
G1 X30.2156 Y132.7894
G1 X29.9895 Y132.2415
G1 X29.4808 Y132.4515
G1 X29.228 Y133.0596
G1 X28.9473 Y133.2671
G1 X28.7516 Y133.3479
G1 X28.4063 Y133.3988
G1 X27.7429 Y133.1231
G1 X27.5354 Y132.8423
G1 X27.4547 Y132.6467
G1 X27.4037 Y132.3013
G1 X27.6795 Y131.6379
G1 X27.9602 Y131.4304
G1 X28.1558 Y131.3497
G1 X28.5012 Y131.2987
G1 X29.1093 Y131.5515
G1 X29.618 Y131.3415
G1 X29.3919 Y130.7937
G1 X31.3876 Y129.9699
G0 Z3.0
G0 X27.0242 Y132.8243
G0 Z1.2
G1 Z-0.2
G1 X27.105 Y133.02
G1 X27.1559 Y133.3653
G1 X26.8802 Y134.0287
G1 X26.5994 Y134.2362
G1 X26.4038 Y134.317
G1 X26.0584 Y134.3679
G1 X25.395 Y134.0922
G1 X25.1876 Y133.8114
G1 X25.1068 Y133.6158
G1 X25.0559 Y133.2704
G1 X25.3086 Y132.6623
G1 X25.034 Y131.9971
G1 X24.4259 Y131.7443
G1 X24.2184 Y131.4636
G1 X24.1377 Y131.2679
G1 X24.0867 Y130.9226
G1 X24.3395 Y130.3145
G1 X24.0649 Y129.6492
G1 X23.4568 Y129.3965
G1 X23.2493 Y129.1157
G1 X23.1686 Y128.9201
G1 X23.1176 Y128.5747
G1 X23.3704 Y127.9666
G1 X23.0958 Y127.3014
G1 X22.4877 Y127.0486
G1 X22.2802 Y126.7679
G1 X22.1995 Y126.5722
G1 X22.1485 Y126.2269
G1 X22.4013 Y125.6188
G1 X22.1267 Y124.9535
G1 X21.5186 Y124.7008
G1 X21.3111 Y124.42
G1 X21.2303 Y124.2244
G1 X21.1794 Y123.879
G1 X21.4322 Y123.2709
G1 X21.1576 Y122.6057
G1 X20.5495 Y122.3529
G1 X20.342 Y122.0722
G1 X20.2612 Y121.8765
G1 X20.2103 Y121.5312
G1 X20.463 Y120.9231
G1 X20.1885 Y120.2578
G1 X19.5804 Y120.0051
G1 X19.3729 Y119.7243
G1 X19.2921 Y119.5287
G1 X19.2412 Y119.1833
G1 X19.4939 Y118.5752
G1 X19.2194 Y117.91
G1 X18.6112 Y117.6572
G1 X18.4038 Y117.3765
G1 X18.323 Y117.1808
G1 X18.2721 Y116.8355
G1 X18.5478 Y116.1721
G1 X18.8677 Y115.9484
G1 X19.2751 Y115.826
G1 X23.2803 Y106.1124
G1 X18.4739 Y94.357
G1 X23.2603 Y82.7638
G1 X18.4539 Y71.0083
G1 X23.2403 Y59.4151
G1 X18.4339 Y47.6597
G1 X23.2204 Y36.0665
G1 X18.8985 Y25.485
G1 X20.6517 Y21.189
G1 X20.4672 Y20.853
G1 X20.4001 Y20.4685
G1 X20.6759 Y19.8051
G1 X20.9566 Y19.5977
G1 X21.1523 Y19.5169
G1 X21.4976 Y19.466
G1 X22.161 Y19.7417
G1 X22.3685 Y20.0224
G1 X22.4815 Y20.2964
G1 X22.489 Y20.4032
G1 X22.5002 Y20.5635
G1 X22.2244 Y21.2268
G1 X21.9046 Y21.4505
G1 X21.4971 Y21.5729
G1 X19.9047 Y25.4818
G1 X24.2266 Y36.0633
G1 X19.4401 Y47.6565
G1 X24.2466 Y59.4119
G1 X19.4601 Y71.0052
G1 X24.2666 Y82.7606
G1 X19.4801 Y94.3538
G1 X24.2866 Y106.1093
G1 X20.1205 Y116.2099
G1 X20.305 Y116.5459
G1 X20.3721 Y116.9304
G1 X20.1194 Y117.5385
G1 X20.3939 Y118.2037
G1 X21.0021 Y118.4565
G1 X21.2095 Y118.7372
G1 X21.2903 Y118.9329
G1 X21.3412 Y119.2782
G1 X21.0885 Y119.8863
G1 X21.3631 Y120.5516
G1 X21.9712 Y120.8043
G1 X22.1786 Y121.0851
G1 X22.2594 Y121.2807
G1 X22.3104 Y121.6261
G1 X22.0576 Y122.2342
G1 X22.3322 Y122.8994
G1 X22.9403 Y123.1522
G1 X23.1478 Y123.4329
G1 X23.2285 Y123.6286
G1 X23.2795 Y123.9739
G1 X23.0267 Y124.582
G1 X23.3013 Y125.2473
G1 X23.9094 Y125.5
G1 X24.1169 Y125.7808
G1 X24.1976 Y125.9764
G1 X24.2486 Y126.3218
G1 X23.9958 Y126.9299
G1 X24.2704 Y127.5951
G1 X24.8785 Y127.8479
G1 X25.086 Y128.1286
G1 X25.1667 Y128.3243
G1 X25.2177 Y128.6696
G1 X24.9649 Y129.2777
G1 X25.2395 Y129.943
G1 X25.8476 Y130.1957
G1 X26.0551 Y130.4765
G1 X26.1359 Y130.6721
G1 X26.1868 Y131.0175
G1 X25.934 Y131.6256
G1 X26.2086 Y132.2908
G1 X26.8167 Y132.5436
G1 X27.0242 Y132.8243
G0 Z3.0
G0 X22.9653 Y136.1943
G0 Z1.2
G1 Z-0.2
G1 X23.789 Y138.1899
G1 X21.7933 Y139.0137
G1 X21.5672 Y138.4658
G1 X21.0585 Y138.6758
G1 X20.8057 Y139.2839
G1 X20.525 Y139.4914
G1 X20.3293 Y139.5722
G1 X19.984 Y139.6231
G1 X19.3206 Y139.3474
G1 X19.1131 Y139.0666
G1 X19.0324 Y138.871
G1 X18.9814 Y138.5256
G1 X19.2572 Y137.8622
G1 X19.5379 Y137.6548
G1 X19.7335 Y137.574
G1 X20.0789 Y137.523
G1 X20.687 Y137.7758
G1 X21.1957 Y137.5658
G1 X20.9696 Y137.018
G1 X22.9653 Y136.1943
G0 Z3.0
G0 X23.9344 Y138.5421
G0 Z1.2
G1 Z-0.2
G1 X24.7581 Y140.5378
G1 X22.7624 Y141.3615
G1 X22.5363 Y140.8137
G1 X22.0276 Y141.0237
G1 X21.7748 Y141.6318
G1 X21.4941 Y141.8393
G1 X21.2985 Y141.92
G1 X20.9531 Y141.971
G1 X20.2897 Y141.6952
G1 X20.0822 Y141.4145
G1 X20.0015 Y141.2188
G1 X19.9505 Y140.8735
G1 X20.2263 Y140.2101
G1 X20.507 Y140.0026
G1 X20.7027 Y139.9219
G1 X21.048 Y139.8709
G1 X21.6561 Y140.1237
G1 X22.1648 Y139.9137
G1 X21.9387 Y139.3659
G1 X23.9344 Y138.5421
G0 Z3.0
G0 X24.9035 Y140.89
G0 Z1.2
G1 Z-0.2
G1 X25.7272 Y142.8856
G1 X23.7316 Y143.7094
G1 X23.5054 Y143.1616
G1 X22.9967 Y143.3715
G1 X22.744 Y143.9796
G1 X22.4632 Y144.1871
G1 X22.2676 Y144.2679
G1 X21.9222 Y144.3188
G1 X21.2588 Y144.0431
G1 X21.0513 Y143.7623
G1 X20.9706 Y143.5667
G1 X20.9196 Y143.2213
G1 X21.1954 Y142.5579
G1 X21.4761 Y142.3505
G1 X21.6718 Y142.2697
G1 X22.0171 Y142.2188
G1 X22.6252 Y142.4715
G1 X23.1339 Y142.2615
G1 X22.9078 Y141.7137
G1 X24.9035 Y140.89
G0 Z3.0
G0 X25.8726 Y143.2378
G0 Z1.2
G1 Z-0.2
G1 X26.6964 Y145.2335
G1 X24.7007 Y146.0572
G1 X24.4745 Y145.5094
G1 X23.9658 Y145.7194
G1 X23.7131 Y146.3275
G1 X23.4323 Y146.535
G1 X23.2367 Y146.6157
G1 X22.8913 Y146.6667
G1 X22.2279 Y146.3909
G1 X22.0205 Y146.1102
G1 X21.9397 Y145.9145
G1 X21.8887 Y145.5692
G1 X22.1645 Y144.9058
G1 X22.4452 Y144.6983
G1 X22.6409 Y144.6176
G1 X22.9862 Y144.5666
G1 X23.5944 Y144.8194
G1 X24.1031 Y144.6094
G1 X23.8769 Y144.0616
G1 X25.8726 Y143.2378
G0 Z3.0
G0 X26.8417 Y145.5857
G0 Z1.2
G1 Z-0.2
G1 X27.6655 Y147.5813
G1 X25.6698 Y148.4051
G1 X25.4437 Y147.8573
G1 X24.935 Y148.0672
G1 X24.6822 Y148.6753
G1 X24.4014 Y148.8828
G1 X24.2058 Y148.9636
G1 X23.8604 Y149.0145
G1 X23.197 Y148.7388
G1 X22.9896 Y148.458
G1 X22.9088 Y148.2624
G1 X22.8579 Y147.917
G1 X23.1336 Y147.2536
G1 X23.4144 Y147.0462
G1 X23.61 Y146.9654
G1 X23.9554 Y146.9145
G1 X24.5635 Y147.1672
G1 X25.0722 Y146.9573
G1 X24.846 Y146.4094
G1 X26.8417 Y145.5857
G0 Z3.0
G0 X27.8108 Y147.9335
G0 Z1.2
G1 Z-0.2
G1 X28.6346 Y149.9292
G1 X26.6389 Y150.753
G1 X26.4128 Y150.2051
G1 X25.9041 Y150.4151
G1 X25.6513 Y151.0232
G1 X25.3706 Y151.2307
G1 X25.1749 Y151.3114
G1 X24.8296 Y151.3624
G1 X24.1662 Y151.0866
G1 X23.9587 Y150.8059
G1 X23.8779 Y150.6102
G1 X23.827 Y150.2649
G1 X24.1027 Y149.6015
G1 X24.3835 Y149.394
G1 X24.5791 Y149.3133
G1 X24.9245 Y149.2623
G1 X25.5326 Y149.5151
G1 X26.0413 Y149.3051
G1 X25.8152 Y148.7573
G1 X27.8108 Y147.9335
G0 Z3.0
G0 X28.7799 Y150.2814
G0 Z1.2
G1 Z-0.2
G1 X29.6037 Y152.2771
G1 X27.608 Y153.1008
G1 X27.3819 Y152.553
G1 X26.8732 Y152.7629
G1 X26.6204 Y153.3711
G1 X26.3397 Y153.5785
G1 X26.144 Y153.6593
G1 X25.7987 Y153.7102
G1 X25.1353 Y153.4345
G1 X24.9278 Y153.1538
G1 X24.847 Y152.9581
G1 X24.7961 Y152.6128
G1 X25.0718 Y151.9494
G1 X25.3526 Y151.7419
G1 X25.5482 Y151.6611
G1 X25.8936 Y151.6102
G1 X26.5017 Y151.8629
G1 X27.0104 Y151.653
G1 X26.7843 Y151.1051
G1 X28.7799 Y150.2814
G0 Z3.0
G0 X29.7491 Y152.6292
G0 Z1.2
G1 Z-0.2
G1 X30.5728 Y154.6249
G1 X28.5771 Y155.4487
G1 X28.351 Y154.9008
G1 X27.8423 Y155.1108
G1 X27.5895 Y155.7189
G1 X27.3088 Y155.9264
G1 X27.1131 Y156.0071
G1 X26.7678 Y156.0581
G1 X26.1044 Y155.7824
G1 X25.8969 Y155.5016
G1 X25.8162 Y155.306
G1 X25.7652 Y154.9606
G1 X26.0409 Y154.2972
G1 X26.3217 Y154.0897
G1 X26.5173 Y154.009
G1 X26.8627 Y153.958
G1 X27.4708 Y154.2108
G1 X27.9795 Y154.0008
G1 X27.7534 Y153.453
G1 X29.7491 Y152.6292
G0 Z3.0
G0 X25.3857 Y155.4836
G0 Z1.2
G1 Z-0.2
G1 X25.4665 Y155.6793
G1 X25.5174 Y156.0246
G1 X25.2417 Y156.688
G1 X24.9609 Y156.8955
G1 X24.7653 Y156.9763
G1 X24.4199 Y157.0272
G1 X23.7565 Y156.7515
G1 X23.5491 Y156.4707
G1 X23.4683 Y156.2751
G1 X23.4173 Y155.9297
G1 X23.6701 Y155.3216
G1 X23.3955 Y154.6564
G1 X22.7874 Y154.4036
G1 X22.5799 Y154.1229
G1 X22.4992 Y153.9272
G1 X22.4482 Y153.5819
G1 X22.701 Y152.9738
G1 X22.4264 Y152.3085
G1 X21.8183 Y152.0558
G1 X21.6108 Y151.775
G1 X21.5301 Y151.5794
G1 X21.4791 Y151.234
G1 X21.7319 Y150.6259
G1 X21.4573 Y149.9607
G1 X20.8492 Y149.7079
G1 X20.6417 Y149.4272
G1 X20.561 Y149.2315
G1 X20.51 Y148.8862
G1 X20.7628 Y148.278
G1 X20.4882 Y147.6128
G1 X19.8801 Y147.3601
G1 X19.6726 Y147.0793
G1 X19.5918 Y146.8837
G1 X19.5409 Y146.5383
G1 X19.7937 Y145.9302
G1 X19.5191 Y145.265
G1 X18.911 Y145.0122
G1 X18.7035 Y144.7315
G1 X18.6227 Y144.5358
G1 X18.5718 Y144.1904
G1 X18.8245 Y143.5823
G1 X18.55 Y142.9171
G1 X17.9419 Y142.6643
G1 X17.7344 Y142.3836
G1 X17.6536 Y142.1879
G1 X17.6027 Y141.8426
G1 X17.8554 Y141.2345
G1 X17.5808 Y140.5693
G1 X16.9727 Y140.3165
G1 X16.7653 Y140.0357
G1 X16.6845 Y139.8401
G1 X16.6335 Y139.4947
G1 X16.9093 Y138.8313
G1 X17.2292 Y138.6077
G1 X17.6366 Y138.4853
G1 X21.6418 Y128.7717
G1 X16.8354 Y117.0163
G1 X21.6218 Y105.4231
G1 X16.8154 Y93.6676
G1 X21.6018 Y82.0744
G1 X16.7954 Y70.319
G1 X21.5819 Y58.7257
G1 X16.7754 Y46.9703
G1 X21.5619 Y35.3771
G1 X17.24 Y24.7956
G1 X18.3039 Y22.1582
G1 X18.1194 Y21.8221
G1 X18.0523 Y21.4377
G1 X18.328 Y20.7743
G1 X18.6087 Y20.5668
G1 X18.8044 Y20.486
G1 X19.1497 Y20.4351
G1 X19.8131 Y20.7108
G1 X20.0206 Y20.9916
G1 X20.1337 Y21.2655
G1 X20.1523 Y21.5326
G1 X19.8766 Y22.196
G1 X19.5567 Y22.4196
G1 X19.1492 Y22.542
G1 X18.2462 Y24.7924
G1 X22.5681 Y35.3739
G1 X17.7817 Y46.9672
G1 X22.5881 Y58.7226
G1 X17.8016 Y70.3158
G1 X22.6081 Y82.0712
G1 X17.8216 Y93.6645
G1 X22.6281 Y105.4199
G1 X17.8416 Y117.0131
G1 X22.6481 Y128.7685
G1 X18.482 Y138.8691
G1 X18.6665 Y139.2052
G1 X18.7336 Y139.5897
G1 X18.4809 Y140.1978
G1 X18.7554 Y140.863
G1 X19.3636 Y141.1158
G1 X19.571 Y141.3965
G1 X19.6518 Y141.5922
G1 X19.7027 Y141.9375
G1 X19.45 Y142.5456
G1 X19.7246 Y143.2108
G1 X20.3327 Y143.4636
G1 X20.5401 Y143.7444
G1 X20.6209 Y143.94
G1 X20.6719 Y144.2854
G1 X20.4191 Y144.8935
G1 X20.6937 Y145.5587
G1 X21.3018 Y145.8115
G1 X21.5093 Y146.0922
G1 X21.59 Y146.2879
G1 X21.641 Y146.6332
G1 X21.3882 Y147.2413
G1 X21.6628 Y147.9066
G1 X22.2709 Y148.1593
G1 X22.4784 Y148.4401
G1 X22.5591 Y148.6357
G1 X22.6101 Y148.9811
G1 X22.3573 Y149.5892
G1 X22.6319 Y150.2544
G1 X23.24 Y150.5072
G1 X23.4475 Y150.7879
G1 X23.5282 Y150.9836
G1 X23.5792 Y151.3289
G1 X23.3264 Y151.937
G1 X23.601 Y152.6023
G1 X24.2091 Y152.855
G1 X24.4166 Y153.1358
G1 X24.4974 Y153.3314
G1 X24.5483 Y153.6768
G1 X24.2955 Y154.2849
G1 X24.5701 Y154.9501
G1 X25.1782 Y155.2029
G1 X25.3857 Y155.4836
G0 Z3.0
G0 X21.3268 Y158.8535
G0 Z1.2
G1 Z-0.2
G1 X22.1505 Y160.8492
G1 X20.1548 Y161.673
G1 X19.9287 Y161.1251
G1 X19.42 Y161.3351
G1 X19.1672 Y161.9432
G1 X18.8865 Y162.1507
G1 X18.6908 Y162.2315
G1 X18.3455 Y162.2824
G1 X17.6821 Y162.0067
G1 X17.4746 Y161.7259
G1 X17.3939 Y161.5303
G1 X17.3429 Y161.1849
G1 X17.6186 Y160.5215
G1 X17.8994 Y160.314
G1 X18.095 Y160.2333
G1 X18.4404 Y160.1823
G1 X19.0485 Y160.4351
G1 X19.5572 Y160.2251
G1 X19.3311 Y159.6773
G1 X21.3268 Y158.8535
G0 Z3.0
G0 X22.2959 Y161.2014
G0 Z1.2
G1 Z-0.2
G1 X23.1196 Y163.1971
G1 X21.1239 Y164.0208
G1 X20.8978 Y163.473
G1 X20.3891 Y163.683
G1 X20.1363 Y164.2911
G1 X19.8556 Y164.4986
G1 X19.6599 Y164.5793
G1 X19.3146 Y164.6303
G1 X18.6512 Y164.3545
G1 X18.4437 Y164.0738
G1 X18.363 Y163.8781
G1 X18.312 Y163.5328
G1 X18.5878 Y162.8694
G1 X18.8685 Y162.6619
G1 X19.0642 Y162.5811
G1 X19.4095 Y162.5302
G1 X20.0176 Y162.783
G1 X20.5263 Y162.573
G1 X20.3002 Y162.0251
G1 X22.2959 Y161.2014
G0 Z3.0
G0 X23.2649 Y163.5493
G0 Z1.2
G1 Z-0.2
G1 X23.265
G1 X24.0887 Y165.5449
G1 X22.0931 Y166.3687
G1 X21.8669 Y165.8208
G1 X21.3582 Y166.0308
G1 X21.1055 Y166.6389
G1 X20.8247 Y166.8464
G1 X20.6291 Y166.9272
G1 X20.2837 Y166.9781
G1 X19.6203 Y166.7024
G1 X19.4128 Y166.4216
G1 X19.3321 Y166.226
G1 X19.2811 Y165.8806
G1 X19.5569 Y165.2172
G1 X19.8376 Y165.0098
G1 X20.0333 Y164.929
G1 X20.3786 Y164.878
G1 X20.9867 Y165.1308
G1 X21.4954 Y164.9208
G1 X21.2693 Y164.373
G1 X23.2649 Y163.5493
G0 Z3.0
G0 X24.2341 Y165.8971
G0 Z1.2
G1 Z-0.2
G1 X25.0578 Y167.8928
G1 X23.0622 Y168.7165
G1 X22.836 Y168.1687
G1 X22.3273 Y168.3787
G1 X22.0746 Y168.9868
G1 X21.7938 Y169.1943
G1 X21.5982 Y169.275
G1 X21.2528 Y169.326
G1 X20.5894 Y169.0502
G1 X20.382 Y168.7695
G1 X20.3012 Y168.5738
G1 X20.2502 Y168.2285
G1 X20.526 Y167.5651
G1 X20.8067 Y167.3576
G1 X21.0024 Y167.2768
G1 X21.3477 Y167.2259
G1 X21.9559 Y167.4787
G1 X22.4646 Y167.2687
G1 X22.2384 Y166.7209
G1 X24.2341 Y165.8971
G0 Z3.0
G0 X25.2031 Y168.245
G0 Z1.2
G1 Z-0.2
G1 X25.2032
G1 X26.027 Y170.2406
G1 X24.0313 Y171.0644
G1 X23.8052 Y170.5166
G1 X23.2965 Y170.7265
G1 X23.0437 Y171.3346
G1 X22.7629 Y171.5421
G1 X22.5673 Y171.6229
G1 X22.2219 Y171.6738
G1 X21.5585 Y171.3981
G1 X21.3511 Y171.1173
G1 X21.2703 Y170.9217
G1 X21.2194 Y170.5763
G1 X21.4951 Y169.9129
G1 X21.7758 Y169.7055
G1 X21.9715 Y169.6247
G1 X22.3169 Y169.5737
G1 X22.925 Y169.8265
G1 X23.4337 Y169.6165
G1 X23.2075 Y169.0687
G1 X25.2031 Y168.245
G0 Z3.0
G0 X26.1723 Y170.5928
G0 Z1.2
G1 Z-0.2
G1 X26.9961 Y172.5885
G1 X25.0004 Y173.4122
G1 X24.7743 Y172.8644
G1 X24.2656 Y173.0744
G1 X24.0128 Y173.6825
G1 X23.7321 Y173.89
G1 X23.5364 Y173.9707
G1 X23.1911 Y174.0217
G1 X22.5277 Y173.7459
G1 X22.3202 Y173.4652
G1 X22.2394 Y173.2695
G1 X22.1885 Y172.9242
G1 X22.4642 Y172.2608
G1 X22.745 Y172.0533
G1 X22.9406 Y171.9726
G1 X23.286 Y171.9216
G1 X23.8941 Y172.1744
G1 X24.4028 Y171.9644
G1 X24.1767 Y171.4166
G1 X26.1723 Y170.5928
G0 Z3.0
G0 X27.1414 Y172.9407
G0 Z1.2
G1 Z-0.2
G1 X27.9652 Y174.9363
G1 X25.9695 Y175.7601
G1 X25.7434 Y175.2123
G1 X25.2347 Y175.4222
G1 X24.9819 Y176.0303
G1 X24.7012 Y176.2378
G1 X24.5055 Y176.3186
G1 X24.1602 Y176.3695
G1 X23.4968 Y176.0938
G1 X23.2893 Y175.813
G1 X23.2085 Y175.6174
G1 X23.1576 Y175.272
G1 X23.4333 Y174.6086
G1 X23.7141 Y174.4012
G1 X23.9097 Y174.3204
G1 X24.2551 Y174.2695
G1 X24.8632 Y174.5222
G1 X25.3719 Y174.3122
G1 X25.1458 Y173.7644
G1 X27.1414 Y172.9407
G0 Z3.0
G0 X28.1106 Y175.2885
G0 Z1.2
G1 Z-0.2
G1 X28.9343 Y177.2842
G1 X26.9386 Y178.1079
G1 X26.7125 Y177.5601
G1 X26.2038 Y177.7701
G1 X25.951 Y178.3782
G1 X25.6703 Y178.5857
G1 X25.4746 Y178.6664
G1 X25.1293 Y178.7174
G1 X24.4659 Y178.4416
G1 X24.2584 Y178.1609
G1 X24.1777 Y177.9652
G1 X24.1267 Y177.6199
G1 X24.4024 Y176.9565
G1 X24.6832 Y176.749
G1 X24.8788 Y176.6683
G1 X25.2242 Y176.6173
G1 X25.8323 Y176.8701
G1 X26.341 Y176.6601
G1 X26.1149 Y176.1123
G1 X28.1106 Y175.2885
G0 Z3.0
G0 X23.7472 Y178.1429
G0 Z1.2
G1 Z-0.2
G1 X23.828 Y178.3386
G1 X23.8789 Y178.6839
G1 X23.6032 Y179.3473
G1 X23.3224 Y179.5548
G1 X23.1268 Y179.6355
G1 X22.7814 Y179.6865
G1 X22.118 Y179.4108
G1 X21.9106 Y179.13
G1 X21.8298 Y178.9344
G1 X21.7788 Y178.589
G1 X22.0316 Y177.9809
G1 X21.757 Y177.3157
G1 X21.1489 Y177.0629
G1 X20.9414 Y176.7822
G1 X20.8607 Y176.5865
G1 X20.8097 Y176.2412
G1 X21.0625 Y175.633
G1 X20.7879 Y174.9678
G1 X20.1798 Y174.715
G1 X19.9723 Y174.4343
G1 X19.8916 Y174.2386
G1 X19.8406 Y173.8933
G1 X20.0934 Y173.2852
G1 X19.8188 Y172.62
G1 X19.2107 Y172.3672
G1 X19.0032 Y172.0864
G1 X18.9225 Y171.8908
G1 X18.8715 Y171.5454
G1 X19.1243 Y170.9373
G1 X18.8497 Y170.2721
G1 X18.2416 Y170.0193
G1 X18.0341 Y169.7386
G1 X17.9533 Y169.5429
G1 X17.9024 Y169.1976
G1 X18.1552 Y168.5895
G1 X17.8806 Y167.9243
G1 X17.2725 Y167.6715
G1 X17.065 Y167.3907
G1 X16.9842 Y167.1951
G1 X16.9333 Y166.8497
G1 X17.186 Y166.2416
G1 X16.9115 Y165.5764
G1 X16.3034 Y165.3236
G1 X16.0959 Y165.0429
G1 X16.0151 Y164.8472
G1 X15.9642 Y164.5019
G1 X16.2169 Y163.8938
G1 X15.9423 Y163.2285
G1 X15.3342 Y162.9758
G1 X15.1268 Y162.695
G1 X15.046 Y162.4994
G1 X14.995 Y162.154
G1 X15.2708 Y161.4906
G1 X15.5907 Y161.267
G1 X15.9981 Y161.1446
G1 X20.0033 Y151.431
G1 X15.1969 Y139.6756
G1 X19.9833 Y128.0823
G1 X15.1769 Y116.3269
G1 X19.9633 Y104.7337
G1 X15.1569 Y92.9783
G1 X19.9434 Y81.385
G1 X15.1369 Y69.6296
G1 X19.9234 Y58.0364
G1 X15.1169 Y46.2809
G1 X19.9034 Y34.6877
G1 X15.5815 Y24.1062
G1 X15.956 Y23.1273
G1 X15.7715 Y22.7913
G1 X15.7044 Y22.4068
G1 X15.9801 Y21.7434
G1 X16.2609 Y21.5359
G1 X16.4565 Y21.4551
G1 X16.8019 Y21.4042
G1 X17.4653 Y21.6799
G1 X17.6728 Y21.9607
G1 X17.7858 Y22.2346
G1 X17.8045 Y22.5017
G1 X17.5287 Y23.1651
G1 X17.2089 Y23.3887
G1 X16.8014 Y23.5111
G1 X16.5878 Y24.1031
G1 X20.9096 Y34.6845
G1 X16.1232 Y46.2778
G1 X20.9296 Y58.0332
G1 X16.1432 Y69.6264
G1 X20.9496 Y81.3819
G1 X16.1631 Y92.9751
G1 X20.9696 Y104.7305
G1 X16.1831 Y116.3238
G1 X20.9896 Y128.0792
G1 X16.2031 Y139.6724
G1 X21.0095 Y151.4278
G1 X16.8435 Y161.5284
G1 X17.028 Y161.8645
G1 X17.0951 Y162.2489
G1 X16.8424 Y162.8571
G1 X17.1169 Y163.5223
G1 X17.7251 Y163.775
G1 X17.9325 Y164.0558
G1 X18.0133 Y164.2514
G1 X18.0642 Y164.5968
G1 X17.8115 Y165.2049
G1 X18.0861 Y165.8701
G1 X18.6942 Y166.1229
G1 X18.9016 Y166.4036
G1 X18.9824 Y166.5993
G1 X19.0334 Y166.9447
G1 X18.7806 Y167.5528
G1 X19.0552 Y168.218
G1 X19.6633 Y168.4708
G1 X19.8708 Y168.7515
G1 X19.9515 Y168.9472
G1 X20.0025 Y169.2925
G1 X19.7497 Y169.9006
G1 X20.0243 Y170.5658
G1 X20.6324 Y170.8186
G1 X20.8399 Y171.0994
G1 X20.9206 Y171.295
G1 X20.9716 Y171.6404
G1 X20.7188 Y172.2485
G1 X20.9934 Y172.9137
G1 X21.6015 Y173.1665
G1 X21.809 Y173.4472
G1 X21.8897 Y173.6429
G1 X21.9407 Y173.9882
G1 X21.6879 Y174.5963
G1 X21.9625 Y175.2615
G1 X22.5706 Y175.5143
G1 X22.7781 Y175.7951
G1 X22.8589 Y175.9907
G1 X22.9098 Y176.3361
G1 X22.657 Y176.9442
G1 X22.9316 Y177.6094
G1 X23.5397 Y177.8622
G1 X23.7472 Y178.1429
G0 Z3.0
G0 X19.6883 Y181.5128
G0 Z1.2
G1 Z-0.2
G1 X20.512 Y183.5085
G1 X18.5163 Y184.3323
G1 X18.2902 Y183.7844
G1 X17.7815 Y183.9944
G1 X17.5287 Y184.6025
G1 X17.248 Y184.81
G1 X17.0523 Y184.8907
G1 X16.707 Y184.9417
G1 X16.0436 Y184.666
G1 X15.8361 Y184.3852
G1 X15.7554 Y184.1896
G1 X15.7044 Y183.8442
G1 X15.9801 Y183.1808
G1 X16.2609 Y182.9733
G1 X16.4565 Y182.8926
G1 X16.8019 Y182.8416
G1 X17.41 Y183.0944
G1 X17.9187 Y182.8844
G1 X17.6926 Y182.3366
G1 X19.6883 Y181.5128
G0 Z3.0
G0 X20.6574 Y183.8607
G0 Z1.2
G1 Z-0.2
G1 X21.4811 Y185.8564
G1 X19.4854 Y186.6801
G1 X19.2593 Y186.1323
G1 X18.7506 Y186.3423
G1 X18.4978 Y186.9504
G1 X18.2171 Y187.1578
G1 X18.0214 Y187.2386
G1 X17.6761 Y187.2896
G1 X17.0127 Y187.0138
G1 X16.8052 Y186.7331
G1 X16.7245 Y186.5374
G1 X16.6735 Y186.1921
G1 X16.9493 Y185.5287
G1 X17.23 Y185.3212
G1 X17.4257 Y185.2404
G1 X17.771 Y185.1895
G1 X18.3791 Y185.4422
G1 X18.8878 Y185.2323
G1 X18.6617 Y184.6844
G1 X20.6574 Y183.8607
G0 Z3.0
G0 X21.6265 Y186.2085
G0 Z1.2
G1 Z-0.2
G1 X22.4502 Y188.2042
G1 X20.4546 Y189.028
G1 X20.2284 Y188.4801
G1 X19.7197 Y188.6901
G1 X19.467 Y189.2982
G1 X19.1862 Y189.5057
G1 X18.9906 Y189.5865
G1 X18.6452 Y189.6374
G1 X17.9818 Y189.3617
G1 X17.7743 Y189.0809
G1 X17.6936 Y188.8853
G1 X17.6426 Y188.5399
G1 X17.9184 Y187.8765
G1 X18.1991 Y187.669
G1 X18.3948 Y187.5883
G1 X18.7401 Y187.5373
G1 X19.3482 Y187.7901
G1 X19.8569 Y187.5801
G1 X19.6308 Y187.0323
G1 X21.6265 Y186.2085
G0 Z3.0
G0 X22.5956 Y188.5564
G0 Z1.2
G1 Z-0.2
G1 X23.4193 Y190.5521
G1 X21.4237 Y191.3758
G1 X21.1975 Y190.828
G1 X20.6888 Y191.038
G1 X20.4361 Y191.6461
G1 X20.1553 Y191.8535
G1 X19.9597 Y191.9343
G1 X19.6143 Y191.9853
G1 X18.9509 Y191.7095
G1 X18.7435 Y191.4288
G1 X18.6627 Y191.2331
G1 X18.6117 Y190.8878
G1 X18.8875 Y190.2244
G1 X19.1682 Y190.0169
G1 X19.3639 Y189.9361
G1 X19.7092 Y189.8852
G1 X20.3173 Y190.1379
G1 X20.826 Y189.928
G1 X20.5999 Y189.3801
G1 X22.5956 Y188.5564
G0 Z3.0
G0 X23.5647 Y190.9042
G0 Z1.2
G1 Z-0.2
G1 X24.3885 Y192.8999
G1 X22.3928 Y193.7237
G1 X22.1667 Y193.1758
G1 X21.658 Y193.3858
G1 X21.4052 Y193.9939
G1 X21.1244 Y194.2014
G1 X20.9288 Y194.2822
G1 X20.5834 Y194.3331
G1 X19.92 Y194.0574
G1 X19.7126 Y193.7766
G1 X19.6318 Y193.581
G1 X19.5809 Y193.2356
G1 X19.8566 Y192.5722
G1 X20.1373 Y192.3647
G1 X20.333 Y192.284
G1 X20.6784 Y192.233
G1 X21.2865 Y192.4858
G1 X21.7952 Y192.2758
G1 X21.569 Y191.728
G1 X23.5647 Y190.9042
G0 Z3.0
G0 X24.5338 Y193.2521
G0 Z1.2
G1 Z-0.2
G1 X25.3576 Y195.2478
G1 X23.3619 Y196.0715
G1 X23.1358 Y195.5237
G1 X22.6271 Y195.7337
G1 X22.3743 Y196.3418
G1 X22.0936 Y196.5493
G1 X21.8979 Y196.63
G1 X21.5526 Y196.681
G1 X20.8892 Y196.4052
G1 X20.6817 Y196.1245
G1 X20.6009 Y195.9288
G1 X20.55 Y195.5835
G1 X20.8257 Y194.9201
G1 X21.1065 Y194.7126
G1 X21.3021 Y194.6318
G1 X21.6475 Y194.5809
G1 X22.2556 Y194.8337
G1 X22.7643 Y194.6237
G1 X22.5382 Y194.0758
G1 X24.5338 Y193.2521
G0 Z3.0
G0 X25.5029 Y195.6
G0 Z1.2
G1 Z-0.2
G1 X26.3267 Y197.5956
G1 X24.331 Y198.4194
G1 X24.1049 Y197.8715
G1 X23.5962 Y198.0815
G1 X23.3434 Y198.6896
G1 X23.0627 Y198.8971
G1 X22.867 Y198.9779
G1 X22.5217 Y199.0288
G1 X21.8583 Y198.7531
G1 X21.6508 Y198.4723
G1 X21.57 Y198.2767
G1 X21.5191 Y197.9313
G1 X21.7948 Y197.2679
G1 X22.0756 Y197.0605
G1 X22.2712 Y196.9797
G1 X22.6166 Y196.9287
G1 X23.2247 Y197.1815
G1 X23.7334 Y196.9715
G1 X23.5073 Y196.4237
G1 X25.5029 Y195.6
G0 Z3.0
G0 X26.4721 Y197.9478
G0 Z1.2
G1 Z-0.2
G1 X27.2958 Y199.9435
G1 X25.3001 Y200.7672
G1 X25.074 Y200.2194
G1 X24.5653 Y200.4294
G1 X24.3125 Y201.0375
G1 X24.0318 Y201.245
G1 X23.8361 Y201.3257
G1 X23.4908 Y201.3767
G1 X22.8274 Y201.1009
G1 X22.6199 Y200.8202
G1 X22.5392 Y200.6245
G1 X22.4882 Y200.2792
G1 X22.7639 Y199.6158
G1 X23.0447 Y199.4083
G1 X23.2403 Y199.3275
G1 X23.5857 Y199.2766
G1 X24.1938 Y199.5294
G1 X24.7025 Y199.3194
G1 X24.4764 Y198.7716
G1 X26.4721 Y197.9478
G0 Z3.0
G0 X22.1087 Y200.8022
G0 Z1.2
G1 Z-0.2
G1 X22.1895 Y200.9979
G1 X22.2404 Y201.3432
G1 X21.9647 Y202.0066
G1 X21.6839 Y202.2141
G1 X21.4883 Y202.2948
G1 X21.1429 Y202.3458
G1 X20.4795 Y202.07
G1 X20.2721 Y201.7893
G1 X20.1913 Y201.5936
G1 X20.1403 Y201.2483
G1 X20.3931 Y200.6402
G1 X20.1185 Y199.975
G1 X19.5104 Y199.7222
G1 X19.3029 Y199.4414
G1 X19.2222 Y199.2458
G1 X19.1712 Y198.9004
G1 X19.424 Y198.2923
G1 X19.1494 Y197.6271
G1 X18.5413 Y197.3743
G1 X18.3338 Y197.0936
G1 X18.2531 Y196.8979
G1 X18.2021 Y196.5526
G1 X18.4549 Y195.9445
G1 X18.1803 Y195.2792
G1 X17.5722 Y195.0265
G1 X17.3647 Y194.7457
G1 X17.284 Y194.5501
G1 X17.233 Y194.2047
G1 X17.4858 Y193.5966
G1 X17.2112 Y192.9314
G1 X16.6031 Y192.6786
G1 X16.3956 Y192.3979
G1 X16.3148 Y192.2022
G1 X16.2639 Y191.8569
G1 X16.5167 Y191.2488
G1 X16.2421 Y190.5835
G1 X15.634 Y190.3308
G1 X15.4265 Y190.05
G1 X15.3457 Y189.8544
G1 X15.2948 Y189.509
G1 X15.5475 Y188.9009
G1 X15.273 Y188.2357
G1 X14.6648 Y187.9829
G1 X14.4574 Y187.7022
G1 X14.3766 Y187.5065
G1 X14.3257 Y187.1612
G1 X14.5784 Y186.5531
G1 X14.3038 Y185.8878
G1 X13.6957 Y185.6351
G1 X13.4883 Y185.3543
G1 X13.4075 Y185.1587
G1 X13.3565 Y184.8133
G1 X13.6323 Y184.1499
G1 X13.9522 Y183.9263
G1 X14.3596 Y183.8039
G1 X18.3648 Y174.0903
G1 X13.5584 Y162.3349
G1 X18.3448 Y150.7416
G1 X13.5384 Y138.9862
G1 X18.3248 Y127.393
G1 X13.5184 Y115.6375
G1 X18.3049 Y104.0443
G1 X13.4984 Y92.2889
G1 X18.2849 Y80.6957
G1 X13.4784 Y68.9402
G1 X18.2649 Y57.347
G1 X13.4585 Y45.5916
G1 X18.2449 Y33.9983
G1 X14.3038 Y24.4504
G1 X13.6957 Y24.1976
G1 X13.4883 Y23.9169
G1 X13.4075 Y23.7212
G1 X13.3565 Y23.3759
G1 X13.6323 Y22.7125
G1 X13.913 Y22.505
G1 X14.1087 Y22.4243
G1 X14.454 Y22.3733
G1 X15.1174 Y22.649
G1 X15.3249 Y22.9298
G1 X15.438 Y23.2037
G1 X15.4566 Y23.4708
G1 X15.2039 Y24.0789
G1 X19.2512 Y33.9952
G1 X14.4647 Y45.5884
G1 X19.2711 Y57.3438
G1 X14.4847 Y68.9371
G1 X19.2911 Y80.6925
G1 X14.5047 Y92.2857
G1 X19.3111 Y104.0411
G1 X14.5246 Y115.6344
G1 X19.3311 Y127.3898
G1 X14.5446 Y138.983
G1 X19.3511 Y150.7385
G1 X14.5646 Y162.3317
G1 X19.371 Y174.0871
G1 X15.205 Y184.1877
G1 X15.3895 Y184.5237
G1 X15.4566 Y184.9082
G1 X15.2039 Y185.5163
G1 X15.4784 Y186.1816
G1 X16.0865 Y186.4343
G1 X16.294 Y186.7151
G1 X16.3748 Y186.9107
G1 X16.4257 Y187.2561
G1 X16.173 Y187.8642
G1 X16.4476 Y188.5294
G1 X17.0557 Y188.7822
G1 X17.2631 Y189.0629
G1 X17.3439 Y189.2586
G1 X17.3949 Y189.6039
G1 X17.1421 Y190.212
G1 X17.4167 Y190.8773
G1 X18.0248 Y191.13
G1 X18.2323 Y191.4108
G1 X18.313 Y191.6064
G1 X18.364 Y191.9518
G1 X18.1112 Y192.5599
G1 X18.3858 Y193.2251
G1 X18.9939 Y193.4779
G1 X19.2014 Y193.7586
G1 X19.2821 Y193.9543
G1 X19.3331 Y194.2996
G1 X19.0803 Y194.9078
G1 X19.3549 Y195.573
G1 X19.963 Y195.8258
G1 X20.1705 Y196.1065
G1 X20.2512 Y196.3021
G1 X20.3022 Y196.6475
G1 X20.0494 Y197.2556
G1 X20.324 Y197.9208
G1 X20.9321 Y198.1736
G1 X21.1396 Y198.4543
G1 X21.2204 Y198.65
G1 X21.2713 Y198.9954
G1 X21.0185 Y199.6035
G1 X21.2931 Y200.2687
G1 X21.9012 Y200.5215
G1 X22.1087 Y200.8022
G0 Z3.0
G0 X42.1968 Y195.5189
G0 Z1.2
G1 Z-0.2
G2 X43.7604 Y198.236 I5.7877 J-1.5222
G2 X48.0034 Y199.9962 I4.2393 J-4.2249
G2 X51.9968 Y198.4782 I0.0076 J-5.9917
G2 X53.9668 Y194.6872 I-3.9654 J-4.468
G2 X54.0 Y194.0 I-6.0339 J-0.6359
G2 X53.7143 Y193.7136 I-0.2862 J-0.0003
G1 X51.1609 Y193.7068
G2 X51.0353 Y193.7357 I-0.0001 J0.2871
G2 X50.8737 Y193.9932 I0.1255 J0.2582
G2 X51.1594 Y194.2796 I0.2861 J0.0003
G1 X53.4217 Y194.2857
G1 X53.4179 Y194.3698
G1 X53.4097 Y194.4959
G1 X53.3977 Y194.6216
G3 X51.6157 Y198.0506 I-5.3672 J-0.6117
G3 X48.0034 Y199.4234 I-3.6044 J-4.0454
G3 X44.1653 Y197.8311 I-0.0036 J-5.4132
G3 X42.5728 Y193.9931 I3.8197 J-3.8343
G2 X42.2864 Y193.7067 I-0.2865 J0.0001
G2 X42.0 Y193.9931 I0.0001 J0.2865
G2 X42.1968 Y195.5189 I5.9846 J0.0036
G0 Z3.0
G0 X45.3595
G0 Z1.2
G1 Z-0.2
G1 Y196.5948
G2 X45.5234 Y196.8537 I0.2864 J0.0
G2 X45.8276 Y196.8163 I0.1225 J-0.2595
G1 X49.1046 Y194.1268
G2 X49.204 Y193.9055 I-0.1851 J-0.2161
G2 X49.1046 Y193.6841 I-0.2844 J-0.0053
G1 X45.8276 Y190.9947
G2 X45.6617 Y190.9302 I-0.1818 J0.2219
G2 X45.5234 Y190.9571 I-0.016 J0.2865
G2 X45.3595 Y191.2161 I0.1227 J0.259
G1 Y195.5189
G0 Z3.0
G0 X49.789
G0 Z1.2
G1 Z-0.2
G1 Y196.6199
G2 X50.0754 Y196.9063 I0.2863 J0.0001
G2 X50.3618 Y196.6199 I0.0 J-0.2864
G1 Y191.1909
G2 X50.0754 Y190.9045 I-0.2866 J0.0002
G2 X49.7895 Y191.1738 I-0.0002 J0.2862
G2 X49.789 Y191.1909 I0.2857 J0.0169
G1 Y195.5189
G0 Z3.0
G0 Y189.0
G0 Z1.2
G1 Z-0.2
G1 X46.0
G1 Y187.6834
G1 X47.9763
G1 Y186.1964
G1 X46.0
G1 Y184.8799
G1 X50.9781
G1 Y186.1964
G1 X49.1243
G1 Y187.6834
G1 X50.9781
G1 Y189.0
G1 X49.789
G0 Z3.0
G0 Y184.8799
G0 Z1.2
G1 Z-0.2
G1 X46.0
G1 Y181.587
G1 X47.102
G1 Y183.5633
G1 X47.9916
G1 Y181.9394
G1 X49.0936
G1 Y183.5633
G1 X49.8759
G1 Y181.6637
G1 X50.978
G1 Y184.8799
G1 X49.789
G0 Z3.0
G0 X62.3565 Y184.8133
G0 Z1.2
G1 Z-0.2
G1 X62.6323 Y184.1499
G1 X62.9522 Y183.9263
G1 X63.3596 Y183.8039
G1 X67.3648 Y174.0903
G1 X62.5584 Y162.3349
G1 X67.3448 Y150.7416
G1 X62.5384 Y138.9862
G1 X67.3248 Y127.393
G1 X62.5184 Y115.6375
G1 X67.3049 Y104.0443
G1 X62.4984 Y92.2889
G1 X67.2849 Y80.6957
G1 X62.4784 Y68.9402
G1 X67.2649 Y57.347
G1 X62.4585 Y45.5916
G1 X67.2449 Y33.9983
G1 X63.3038 Y24.4504
G1 X62.6957 Y24.1976
G1 X62.4883 Y23.9169
G1 X62.4075 Y23.7212
G1 X62.3565 Y23.3759
G1 X62.6323 Y22.7125
G1 X62.913 Y22.505
G1 X63.1087 Y22.4243
G1 X63.454 Y22.3733
G1 X64.1174 Y22.649
G1 X64.3249 Y22.9298
G1 X64.438 Y23.2037
G1 X64.4566 Y23.4708
G1 X64.2039 Y24.0789
G1 X68.2512 Y33.9952
G1 X63.4647 Y45.5884
G1 X68.2711 Y57.3438
G1 X63.4847 Y68.9371
G1 X68.2911 Y80.6925
G1 X63.5047 Y92.2857
G1 X68.3111 Y104.0411
G1 X63.5246 Y115.6344
G1 X68.3311 Y127.3898
G1 X63.5446 Y138.983
G1 X68.3511 Y150.7385
G1 X63.5646 Y162.3317
G1 X68.371 Y174.0871
G1 X64.205 Y184.1877
G1 X64.3895 Y184.5237
G1 X64.4566 Y184.9082
G1 X64.2039 Y185.5163
G1 X64.4784 Y186.1816
G1 X65.0865 Y186.4343
G1 X65.294 Y186.7151
G1 X65.3748 Y186.9107
G1 X65.4257 Y187.2561
G1 X65.173 Y187.8642
G1 X65.4476 Y188.5294
G1 X66.0557 Y188.7822
G1 X66.2631 Y189.0629
G1 X66.3439 Y189.2586
G1 X66.3949 Y189.6039
G1 X66.1421 Y190.212
G1 X66.4167 Y190.8773
G1 X67.0248 Y191.13
G1 X67.2323 Y191.4108
G1 X67.313 Y191.6064
G1 X67.364 Y191.9518
G1 X67.1112 Y192.5599
G1 X67.3858 Y193.2251
G1 X67.9939 Y193.4779
G1 X68.2014 Y193.7586
G1 X68.2821 Y193.9543
G1 X68.3331 Y194.2996
G1 X68.0803 Y194.9078
G1 X68.3549 Y195.573
G1 X68.963 Y195.8258
G1 X69.1705 Y196.1065
G1 X69.2512 Y196.3021
G1 X69.3022 Y196.6475
G1 X69.0494 Y197.2556
G1 X69.324 Y197.9208
G1 X69.9321 Y198.1736
G1 X70.1396 Y198.4543
G1 X70.2204 Y198.65
G1 X70.2713 Y198.9954
G1 X70.0185 Y199.6035
G1 X70.2931 Y200.2687
G1 X70.9012 Y200.5215
G1 X71.1087 Y200.8022
G1 X71.1895 Y200.9979
G1 X71.2404 Y201.3432
G1 X70.9647 Y202.0066
G1 X70.6839 Y202.2141
G1 X70.4883 Y202.2948
G1 X70.1429 Y202.3458
G1 X69.4795 Y202.07
G1 X69.2721 Y201.7893
G1 X69.1913 Y201.5936
G1 X69.1403 Y201.2483
G1 X69.3931 Y200.6402
G1 X69.1185 Y199.975
G1 X68.5104 Y199.7222
G1 X68.3029 Y199.4414
G1 X68.2222 Y199.2458
G1 X68.1712 Y198.9004
G1 X68.424 Y198.2923
G1 X68.1494 Y197.6271
G1 X67.5413 Y197.3743
G1 X67.3338 Y197.0936
G1 X67.2531 Y196.8979
G1 X67.2021 Y196.5526
G1 X67.4549 Y195.9445
G1 X67.1803 Y195.2792
G1 X66.5722 Y195.0265
G1 X66.3647 Y194.7457
G1 X66.284 Y194.5501
G1 X66.233 Y194.2047
G1 X66.4858 Y193.5966
G1 X66.2112 Y192.9314
G1 X65.6031 Y192.6786
G1 X65.3956 Y192.3979
G1 X65.3148 Y192.2022
G1 X65.2639 Y191.8569
G1 X65.5167 Y191.2488
G1 X65.2421 Y190.5835
G1 X64.634 Y190.3308
G1 X64.4265 Y190.05
G1 X64.3457 Y189.8544
G1 X64.2948 Y189.509
G1 X64.5475 Y188.9009
G1 X64.273 Y188.2357
G1 X63.6648 Y187.9829
G1 X63.4574 Y187.7022
G1 X63.3766 Y187.5065
G1 X63.3257 Y187.1612
G1 X63.5784 Y186.5531
G1 X63.3038 Y185.8878
G1 X62.6957 Y185.6351
G1 X62.4883 Y185.3543
G1 X62.4075 Y185.1587
G1 X62.3565 Y184.8133
G0 Z3.0
G0 X64.7554 Y184.1896
G0 Z1.2
G1 Z-0.2
G1 X64.7044 Y183.8442
G1 X64.9801 Y183.1808
G1 X65.2609 Y182.9733
G1 X65.4565 Y182.8926
G1 X65.8019 Y182.8416
G1 X66.41 Y183.0944
G1 X66.9187 Y182.8844
G1 X66.6926 Y182.3366
G1 X68.6883 Y181.5128
G1 X69.512 Y183.5085
G1 X67.5163 Y184.3323
G1 X67.2902 Y183.7844
G1 X66.7815 Y183.9944
G1 X66.5287 Y184.6025
G1 X66.248 Y184.81
G1 X66.0523 Y184.8907
G1 X65.707 Y184.9417
G1 X65.0436 Y184.666
G1 X64.8361 Y184.3852
G1 X64.7554 Y184.1896
G0 Z3.0
G0 X65.9493 Y185.5287
G0 Z1.2
G1 Z-0.2
G1 X66.23 Y185.3212
G1 X66.4257 Y185.2404
G1 X66.771 Y185.1895
G1 X67.3791 Y185.4422
G1 X67.8878 Y185.2323
G1 X67.6617 Y184.6844
G1 X69.6574 Y183.8607
G1 X70.4811 Y185.8564
G1 X68.4854 Y186.6801
G1 X68.2593 Y186.1323
G1 X67.7506 Y186.3423
G1 X67.4978 Y186.9504
G1 X67.2171 Y187.1578
G1 X67.0214 Y187.2386
G1 X66.6761 Y187.2896
G1 X66.0127 Y187.0138
G1 X65.8052 Y186.7331
G1 X65.7245 Y186.5374
G1 X65.6735 Y186.1921
G1 X65.9493 Y185.5287
G0 Z3.0
G0 X67.1991 Y187.669
G0 Z1.2
G1 Z-0.2
G1 X67.3948 Y187.5883
G1 X67.7401 Y187.5373
G1 X68.3482 Y187.7901
G1 X68.8569 Y187.5801
G1 X68.6308 Y187.0323
G1 X70.6265 Y186.2085
G1 X71.4502 Y188.2042
G1 X69.4546 Y189.028
G1 X69.2284 Y188.4801
G1 X68.7197 Y188.6901
G1 X68.467 Y189.2982
G1 X68.1862 Y189.5057
G1 X67.9906 Y189.5865
G1 X67.6452 Y189.6374
G1 X66.9818 Y189.3617
G1 X66.7743 Y189.0809
G1 X66.6936 Y188.8853
G1 X66.6426 Y188.5399
G1 X66.9184 Y187.8765
G1 X67.1991 Y187.669
G0 Z3.0
G0 X68.1685 Y190.0168
G0 Z1.2
G1 Z-0.2
G1 X68.3639 Y189.9361
G1 X68.7092 Y189.8852
G1 X69.3173 Y190.1379
G1 X69.826 Y189.928
G1 X69.5999 Y189.3801
G1 X71.5956 Y188.5564
G1 X72.4193 Y190.5521
G1 X70.4237 Y191.3758
G1 X70.1975 Y190.828
G1 X69.6888 Y191.038
G1 X69.4361 Y191.6461
G1 X69.1553 Y191.8535
G1 X68.9597 Y191.9343
G1 X68.6143 Y191.9853
G1 X67.9509 Y191.7095
G1 X67.7435 Y191.4288
G1 X67.6627 Y191.2331
G1 X67.6117 Y190.8878
G1 X67.8875 Y190.2244
G1 X68.1682 Y190.0169
G1 X68.1685 Y190.0168
G0 Z3.0
G0 X69.1373 Y192.3647
G0 Z1.2
G1 Z-0.2
G1 X69.333 Y192.284
G1 X69.6784 Y192.233
G1 X70.2865 Y192.4858
G1 X70.7952 Y192.2758
G1 X70.569 Y191.728
G1 X72.5647 Y190.9042
G1 X73.3885 Y192.8999
G1 X71.3928 Y193.7237
G1 X71.1667 Y193.1758
G1 X70.658 Y193.3858
G1 X70.4052 Y193.9939
G1 X70.1244 Y194.2014
G1 X69.9288 Y194.2822
G1 X69.5834 Y194.3331
G1 X68.92 Y194.0574
G1 X68.7126 Y193.7766
G1 X68.6318 Y193.581
G1 X68.5809 Y193.2356
G1 X68.8566 Y192.5722
G1 X69.1373 Y192.3647
G0 Z3.0
G0 X70.1071 Y194.7124
G0 Z1.2
G1 Z-0.2
G1 X70.3021 Y194.6318
G1 X70.6475 Y194.5809
G1 X71.2556 Y194.8337
G1 X71.7643 Y194.6237
G1 X71.5382 Y194.0758
G1 X73.5338 Y193.2521
G1 X74.3576 Y195.2478
G1 X72.3619 Y196.0715
G1 X72.1358 Y195.5237
G1 X71.6271 Y195.7337
G1 X71.3743 Y196.3418
G1 X71.0936 Y196.5493
G1 X70.8979 Y196.63
G1 X70.5526 Y196.681
G1 X69.8892 Y196.4052
G1 X69.6817 Y196.1245
G1 X69.6009 Y195.9288
G1 X69.55 Y195.5835
G1 X69.8257 Y194.9201
G1 X70.1065 Y194.7126
G1 X70.1071 Y194.7124
G0 Z3.0
G0 X71.0769 Y197.06
G0 Z1.2
G1 Z-0.2
G1 X71.2712 Y196.9797
G1 X71.6166 Y196.9287
G1 X72.2247 Y197.1815
G1 X72.7334 Y196.9715
G1 X72.5073 Y196.4237
G1 X74.5029 Y195.6
G1 X75.3267 Y197.5956
G1 X73.331 Y198.4194
G1 X73.1049 Y197.8715
G1 X72.5962 Y198.0815
G1 X72.3434 Y198.6896
G1 X72.0627 Y198.8971
G1 X71.867 Y198.9779
G1 X71.5217 Y199.0288
G1 X70.8583 Y198.7531
G1 X70.6508 Y198.4723
G1 X70.57 Y198.2767
G1 X70.5191 Y197.9313
G1 X70.7948 Y197.2679
G1 X71.0756 Y197.0605
G1 X71.0769 Y197.06
G0 Z3.0
G0 X72.0466 Y199.4075
G0 Z1.2
G1 Z-0.2
G1 X72.2403 Y199.3275
G1 X72.5857 Y199.2766
G1 X73.1938 Y199.5294
G1 X73.7025 Y199.3194
G1 X73.4764 Y198.7716
G1 X75.4721 Y197.9478
G1 X76.2958 Y199.9435
G1 X74.3001 Y200.7672
G1 X74.074 Y200.2194
G1 X73.5653 Y200.4294
G1 X73.3125 Y201.0375
G1 X73.0318 Y201.245
G1 X72.8361 Y201.3257
G1 X72.4908 Y201.3767
G1 X71.8274 Y201.1009
G1 X71.6199 Y200.8202
G1 X71.5392 Y200.6245
G1 X71.4882 Y200.2792
G1 X71.7639 Y199.6158
G1 X72.0447 Y199.4083
G1 X72.0466 Y199.4075
G0 Z3.0
G0 X85.6263 Y194.8098
G0 Z1.2
G1 Z-0.2
G1 X85.5753 Y194.4645
G1 X85.8511 Y193.8011
G1 X86.1709 Y193.5775
G1 X86.5393 Y193.4712
G1 X91.6338 Y181.2929
G1 X88.1611 Y172.8797
G1 X87.553 Y172.627
G1 X87.3455 Y172.3462
G1 X87.2648 Y172.1506
G1 X87.2138 Y171.8052
G1 X87.4896 Y171.1418
G1 X87.8094 Y170.9182
G1 X88.1778 Y170.8119
G1 X93.2723 Y158.6336
G1 X89.7996 Y150.2204
G1 X89.1915 Y149.9677
G1 X88.984 Y149.6869
G1 X88.9033 Y149.4913
G1 X88.8523 Y149.1459
G1 X89.1281 Y148.4825
G1 X89.4479 Y148.2589
G1 X89.8163 Y148.1527
G1 X94.9108 Y135.9743
G1 X91.4381 Y127.5611
G1 X90.83 Y127.3084
G1 X90.6225 Y127.0276
G1 X90.5418 Y126.832
G1 X90.4908 Y126.4866
G1 X90.7666 Y125.8232
G1 X91.0864 Y125.5996
G1 X91.4548 Y125.4934
G1 X96.5493 Y113.315
G1 X93.0766 Y104.9019
G1 X92.4685 Y104.6491
G1 X92.261 Y104.3683
G1 X92.1803 Y104.1727
G1 X92.1293 Y103.8273
G1 X92.4051 Y103.164
G1 X92.725 Y102.9403
G1 X93.0933 Y102.8341
G1 X98.1878 Y90.6557
G1 X94.7151 Y82.2426
G1 X94.107 Y81.9898
G1 X93.8995 Y81.7091
G1 X93.8188 Y81.5134
G1 X93.7678 Y81.1681
G1 X94.0436 Y80.5047
G1 X94.3635 Y80.281
G1 X94.7318 Y80.1748
G1 X99.8263 Y67.9964
G1 X96.3536 Y59.5833
G1 X95.7455 Y59.3305
G1 X95.538 Y59.0498
G1 X95.4573 Y58.8541
G1 X95.4063 Y58.5088
G1 X95.6821 Y57.8454
G1 X96.002 Y57.6217
G1 X96.3703 Y57.5155
G1 X101.4648 Y45.3371
G1 X97.9921 Y36.924
G1 X97.384 Y36.6712
G1 X97.1765 Y36.3905
G1 X97.0958 Y36.1948
G1 X97.0448 Y35.8495
G1 X97.3206 Y35.1861
G1 X97.6013 Y34.9786
G1 X97.797 Y34.8979
G1 X98.1423 Y34.8469
G1 X98.7504 Y35.0997
G1 X99.4157 Y34.8251
G1 X99.6684 Y34.217
G1 X99.9492 Y34.0095
G1 X100.1448 Y33.9287
G1 X100.4902 Y33.8778
G1 X101.1536 Y34.1535
G1 X101.3611 Y34.4343
G1 X101.4741 Y34.7082
G1 X101.4928 Y34.9753
G1 X101.217 Y35.6387
G1 X100.9363 Y35.8462
G1 X100.7406 Y35.9269
G1 X100.3953 Y35.9779
G1 X99.7872 Y35.7251
G1 X99.1219 Y35.9997
G1 X98.8921 Y36.5525
G1 X102.4549 Y45.2948
G1 X97.2548 Y57.8832
G1 X97.4393 Y58.2192
G1 X97.5064 Y58.6037
G1 X97.2536 Y59.2118
G1 X100.8164 Y67.9541
G1 X95.6163 Y80.5425
G1 X95.8008 Y80.8785
G1 X95.8679 Y81.263
G1 X95.6151 Y81.8711
G1 X99.1779 Y90.6134
G1 X93.9778 Y103.2017
G1 X94.1623 Y103.5378
G1 X94.2294 Y103.9223
G1 X93.9766 Y104.5304
G1 X97.5394 Y113.2727
G1 X92.3393 Y125.861
G1 X92.5238 Y126.1971
G1 X92.5909 Y126.5815
G1 X92.3381 Y127.1897
G1 X95.9009 Y135.932
G1 X90.7008 Y148.5203
G1 X90.8853 Y148.8564
G1 X90.9524 Y149.2408
G1 X90.6996 Y149.8489
G1 X94.2624 Y158.5913
G1 X89.0623 Y171.1796
G1 X89.2468 Y171.5156
G1 X89.3139 Y171.9001
G1 X89.0611 Y172.5082
G1 X92.6239 Y181.2506
G1 X87.4238 Y193.8389
G1 X87.6083 Y194.1749
G1 X87.6754 Y194.5594
G1 X87.3997 Y195.2228
G1 X87.1189 Y195.4303
G1 X86.9233 Y195.511
G1 X86.5779 Y195.562
G1 X85.9145 Y195.2862
G1 X85.707 Y195.0055
G1 X85.6263 Y194.8098
G0 Z3.0
G0 X85.6088 Y193.2141
G0 Z1.2
G1 Z-0.2
G1 X84.9454 Y192.9384
G1 X84.7379 Y192.6576
G1 X84.6572 Y192.462
G1 X84.6062 Y192.1166
G1 X84.882 Y191.4532
G1 X85.2018 Y191.2296
G1 X85.6093 Y191.1072
G1 X89.6145 Y181.3936
G1 X85.7771 Y171.986
G1 X86.4963 Y170.1779
G1 X86.3118 Y169.8418
G1 X86.2447 Y169.4574
G1 X86.5205 Y168.794
G1 X86.8403 Y168.5703
G1 X87.2478 Y168.4479
G1 X91.253 Y158.7343
G1 X87.4156 Y149.3268
G1 X88.1348 Y147.5186
G1 X87.9503 Y147.1825
G1 X87.8832 Y146.7981
G1 X88.159 Y146.1347
G1 X88.4788 Y145.911
G1 X88.8863 Y145.7887
G1 X92.8915 Y136.075
G1 X89.0541 Y126.6675
G1 X89.7733 Y124.8593
G1 X89.5888 Y124.5233
G1 X89.5217 Y124.1388
G1 X89.7975 Y123.4754
G1 X90.1173 Y123.2518
G1 X90.5248 Y123.1294
G1 X94.53 Y113.4157
G1 X90.6926 Y104.0082
G1 X91.4118 Y102.2
G1 X91.2273 Y101.864
G1 X91.1602 Y101.4795
G1 X91.436 Y100.8161
G1 X91.7558 Y100.5925
G1 X92.1633 Y100.4701
G1 X96.1685 Y90.7565
G1 X92.3311 Y81.3489
G1 X93.0503 Y79.5407
G1 X92.8658 Y79.2047
G1 X92.7987 Y78.8202
G1 X93.0745 Y78.1568
G1 X93.3943 Y77.9332
G1 X93.8018 Y77.8108
G1 X97.807 Y68.0972
G1 X93.9696 Y58.6896
G1 X94.6888 Y56.8814
G1 X94.5043 Y56.5454
G1 X94.4372 Y56.1609
G1 X94.713 Y55.4975
G1 X95.0328 Y55.2739
G1 X95.4403 Y55.1515
G1 X99.4455 Y45.4379
G1 X95.6081 Y36.0303
G1 X96.3273 Y34.2221
G1 X96.1428 Y33.8861
G1 X96.0757 Y33.5016
G1 X96.3515 Y32.8382
G1 X96.6322 Y32.6308
G1 X96.8279 Y32.55
G1 X97.1732 Y32.499
G1 X97.7813 Y32.7518
G1 X98.4466 Y32.4772
G1 X98.6993 Y31.8691
G1 X98.9801 Y31.6616
G1 X99.1757 Y31.5809
G1 X99.5211 Y31.5299
G1 X100.1845 Y31.8057
G1 X100.3919 Y32.0864
G1 X100.505 Y32.3603
G1 X100.5237 Y32.6274
G1 X100.2479 Y33.2908
G1 X99.9672 Y33.4983
