( Made using CamBam - http://www.cambam.co.uk )
( matrica.gcode.complete-double 8/21/2014 7:59:13 PM )
( T0 : 0.0 )
G21 G90 G64 G40
G0 Z3.0
( T0 : 0.0 )
T0 M6
( finale_cut )
G17
M3 S1000
G0 X11.0 Y11.0
G0 Z1.22
G1 F300.0 Z-0.18
G1 F1000.0 Y59.0
G0 Z3.0
G0 Y61.2
G0 Z1.22
G1 F300.0 Z-0.18
G1 F1000.0 Y205.0
G1 X30.0
G0 Z3.0
G0 X32.2
G0 Z1.22
G1 F300.0 Z-0.18
G1 F1000.0 X56.0
G1 Y140.0
G0 Z3.0
G0 Y137.8
G0 Z1.22
G1 F300.0 Z-0.18
G1 F1000.0 Y11.0
G1 X32.0
G0 Z3.0
G0 X29.8
G0 Z1.22
G1 F300.0 Z-0.18
G1 F1000.0 X11.0
G0 Z3.0
G0 X60.0
G0 Z1.22
G1 F300.0 Z-0.18
G1 F1000.0 Y59.0
G0 Z3.0
G0 Y61.2
G0 Z1.22
G1 F300.0 Z-0.18
G1 F1000.0 Y205.0
G1 X79.0
G0 Z3.0
G0 X81.2
G0 Z1.22
G1 F300.0 Z-0.18
G1 F1000.0 X105.0
G1 Y140.0
G0 Z3.0
G0 Y137.8
G0 Z1.22
G1 F300.0 Z-0.18
G1 F1000.0 Y11.0
G1 X81.0
G0 Z3.0
G0 X78.8
G0 Z1.22
G1 F300.0 Z-0.18
G1 F1000.0 X60.0
G0 Z3.0
M5
M30
