( Made using CamBam - http://www.cambam.co.uk )
( midi_organ.gcode.drill 5/16/2014 12:04:02 PM )
( T0 : 0.0 )
G21 G90 G64 G40
G0 Z3.0
( T0 : 0.0 )
T0 M6
( 0.7 )
G17
M3 S1000
G0 X4.1199 Y2.83
G98
G81 X4.1199 Y2.83 Z-1.55 R3.0 F300.0
G81 X10.4699 Y10.45 Z-1.55
G81 X13.0099 Y7.91 Z-1.55
G81 X15.5499 Y5.37 Z-1.55
G81 X18.0899 Y2.83 Z-1.55
G81 Y12.99 Z-1.55
G81 X15.5499 Y15.53 Z-1.55
G81 X13.0099 Y18.07 Z-1.55
G81 X10.4699 Y20.61 Z-1.55
G81 Y23.15 Z-1.55
G81 X13.0099 Z-1.55
G81 X15.5499 Z-1.55
G81 X18.0899 Z-1.55
G81 X20.6299 Z-1.55
G81 X23.1699 Z-1.55
G81 X25.7099 Z-1.55
G81 X28.2499 Z-1.55
G81 X32.0599 Z-1.55
G81 X34.5999 Z-1.55
G81 X37.1399 Z-1.55
G81 X39.6799 Z-1.55
G81 X42.2199 Z-1.55
G81 X44.7599 Z-1.55
G81 X47.2999 Z-1.55
G81 X49.8399 Z-1.55
G81 Y20.61 Z-1.55
G81 X47.2999 Y18.07 Z-1.55
G81 X44.7599 Y15.53 Z-1.55
G81 X42.2199 Y12.99 Z-1.55
G81 X47.2999 Y7.91 Z-1.55
G81 X49.8399 Y10.45 Z-1.55
G81 X44.7599 Y5.37 Z-1.55
G81 X42.2199 Y2.83 Z-1.55
G81 X56.1899 Z-1.55
G81 X52.3799 Y25.69 Z-1.55
G81 X54.9199 Y26.96 Z-1.55
G81 X49.8399 Y28.23 Z-1.55
G81 Y30.77 Z-1.55
G81 X47.2999 Z-1.55
G81 X44.7599 Z-1.55
G81 X42.2199 Z-1.55
G81 X39.6799 Z-1.55
G81 X37.1399 Z-1.55
G81 X34.5999 Z-1.55
G81 X32.0599 Z-1.55
G81 X34.5999 Y33.31 Z-1.55
G81 X35.8699 Y26.96 Z-1.55
G81 X28.2499 Y30.77 Z-1.55
G81 X25.7099 Z-1.55
G81 X23.1699 Z-1.55
G81 X20.6299 Z-1.55
G81 X18.0899 Z-1.55
G81 X15.5499 Z-1.55
G81 X13.0099 Z-1.55
G81 X10.4699 Z-1.55
G81 Y28.23 Z-1.55
G81 X7.9299 Z-1.55
G81 X5.3899 Y26.96 Z-1.55
G81 X13.0099 Y25.69 Z-1.55
G81 X10.4699 Y33.31 Z-1.55
G81 X13.0099 Y35.85 Z-1.55
G81 X15.5499 Y38.39 Z-1.55
G81 X18.0899 Y40.93 Z-1.55
G81 X13.0099 Y46.01 Z-1.55
G81 Y48.55 Z-1.55
G81 X15.5499 Z-1.55
G81 X18.0899 Y51.09 Z-1.55
G81 X21.8999 Y54.9 Z-1.55
G81 X19.3599 Y57.44 Z-1.55
G81 X16.8199 Z-1.55
G81 X13.0099 Z-1.55
G81 X11.7399 Y62.52 Z-1.55
G81 X9.1999 Z-1.55
G81 X5.3899 Z-1.55
G81 X2.8499 Z-1.55
G81 Y57.44 Z-1.55
G81 X10.4699 Y43.47 Z-1.55
G81 X26.3449 Y41.565 Z-1.55
G81 Y47.28 Z-1.55
G81 Y49.82 Z-1.55
G81 Y52.36 Z-1.55
G81 Y54.9 Z-1.55
G81 Y57.44 Z-1.55
G81 Y59.98 Z-1.55
G81 Y62.52 Z-1.55
G81 Y65.06 Z-1.55
G81 X28.2499 Y66.33 Z-1.55
G81 X26.3449 Y67.6 Z-1.55
G81 Y70.14 Z-1.55
G81 Y72.68 Z-1.55
G81 Y75.22 Z-1.55
G81 X28.2499 Y76.49 Z-1.55
G81 X26.3449 Y77.76 Z-1.55
G81 Y80.3 Z-1.55
G81 X22.5349 Z-1.55
G81 X25.0749 Y84.11 Z-1.55
G81 Y86.65 Z-1.55
G81 X22.5349 Z-1.55
G81 X35.2349 Z-1.55
G81 Y84.11 Z-1.55
G81 X33.9649 Y80.3 Z-1.55
G81 Y77.76 Z-1.55
G81 X32.0098 Y76.41 Z-1.55
G81 X33.9649 Y75.22 Z-1.55
G81 Y72.68 Z-1.55
G81 Y70.14 Z-1.55
G81 Y67.6 Z-1.55
G81 Y65.06 Z-1.55
G81 Y62.52 Z-1.55
G81 Y59.98 Z-1.55
G81 Y57.44 Z-1.55
G81 Y54.9 Z-1.55
G81 Y52.36 Z-1.55
G81 Y49.82 Z-1.55
G81 X32.0098 Y48.47 Z-1.55
G81 X33.9649 Y47.28 Z-1.55
G81 X42.2199 Y51.09 Z-1.55
G81 X44.7599 Y48.55 Z-1.55
G81 X47.2999 Y46.01 Z-1.55
G81 X49.8399 Y43.47 Z-1.55
G81 X52.3799 Z-1.55
G81 X47.2999 Y35.85 Z-1.55
G81 X49.8399 Y33.31 Z-1.55
G81 X44.7599 Y38.39 Z-1.55
G81 X42.2199 Y40.93 Z-1.55
G81 X44.7599 Y54.9 Z-1.55
G81 Y59.98 Z-1.55
G81 X49.8399 Z-1.55
G81 Y62.52 Z-1.55
G81 X52.3799 Y65.06 Z-1.55
G81 X51.1099 Y70.14 Z-1.55
G81 X49.8399 Y75.22 Z-1.55
G81 X51.1099 Y85.38 Z-1.55
G81 X56.1899 Y90.46 Z-1.55
G81 X37.1399 Y72.68 Z-1.55
G81 X30.1549 Y70.14 Z-1.55
G81 X23.1699 Z-1.55
G81 X19.3599 Y61.885 Z-1.55
G81 X39.6799 Y59.98 Z-1.55
G81 Y54.9 Z-1.55
G81 X49.8399 Z-1.55
G81 X47.2999 Y25.69 Z-1.55
G81 X24.4399 Y26.96 Z-1.55
G81 X7.9299 Y84.618 Z-1.55
G81 X4.1199 Y90.46 Z-1.55
G80
G0 Z3.0
M5
M30
