( Made using CamBam - http://www.cambam.co.uk )
( midi_organ.gcode.drill 5/16/2014 12:27:11 PM )
( T0 : 0.0 )
G21 G90 G64 G40
G0 Z3.0
( T0 : 0.0 )
T0 M6
( 0.9 )
G17
M3 S1000
G0 X11.8499 Y44.85
G98
G81 X11.8499 Y44.85 Z-1.55 R3.0 F300.0
G81 Y42.31 Z-1.55
G81 Y39.77 Z-1.55
G81 Y37.23 Z-1.55
G81 Y34.69 Z-1.55
G81 Y32.15 Z-1.55
G81 Y29.61 Z-1.55
G81 Y27.07 Z-1.55
G81 Y56.28 Z-1.55
G81 Y58.82 Z-1.55
G81 Y61.36 Z-1.55
G81 X14.3899 Y76.6 Z-1.55
G81 X16.9299 Z-1.55
G81 X19.4699 Z-1.55
G81 X28.3599 Z-1.55
G81 Y74.06 Z-1.55
G81 Y79.14 Z-1.55
G81 Y89.3 Z-1.55
G81 X23.8641 Z-1.55
G81 Y95.8024 Z-1.55
G81 X28.3599 Z-1.55
G81 X52.4899 Y91.84 Z-1.55
G81 X55.0299 Y94.38 Z-1.55
G81 Y86.76 Z-1.55
G81 X52.4899 Y81.68 Z-1.55
G81 X55.0299 Y79.14 Z-1.55
G81 X65.1899 Y84.22 Z-1.55
G81 Y89.3 Z-1.55
G81 X66.4599 Y44.85 Z-1.55
G81 Y42.31 Z-1.55
G81 Y39.77 Z-1.55
G81 Y37.23 Z-1.55
G81 Y34.69 Z-1.55
G81 Y32.15 Z-1.55
G81 Y29.61 Z-1.55
G81 Y27.07 Z-1.55
G81 X40.4249 Y45.485 Z-1.55
G81 Y48.025 Z-1.55
G81 Y50.565 Z-1.55
G81 X37.8849 Z-1.55
G81 Y48.025 Z-1.55
G81 Y45.485 Z-1.55
G80
G0 Z3.0
M5
M30
