( Made using CamBam - http://www.cambam.co.uk )
( midi_organ.gcode.drill 5/16/2014 12:27:42 PM )
( T0 : 2.0 )
G21 G90 G64 G40
G0 Z3.0
( T0 : 2.0 )
T0 M6
( 2.54 )
G17
M3 S1000
G0 X13.1199 Y99.46
G0 Z3.0
G0 X13.3899 Y99.46
G0 Z1.0
G1 F300.0 Z0.0
G2 F800.0 X12.9849 Y99.2262 Z-0.1333 I-0.27 J0.0
G2 Y99.6938 Z-0.2667 I0.135 J0.2338
G2 X13.3899 Y99.46 Z-0.4 I0.135 J-0.2338
G2 X12.9849 Y99.2262 Z-0.5333 I-0.27 J0.0
G2 Y99.6938 Z-0.6667 I0.135 J0.2338
G2 X13.3899 Y99.46 Z-0.8 I0.135 J-0.2338
G2 X12.9849 Y99.2262 Z-0.9333 I-0.27 J0.0
G2 Y99.6938 Z-1.0667 I0.135 J0.2338
G2 X13.3899 Y99.46 Z-1.2 I0.135 J-0.2338
G2 X12.9849 Y99.2262 Z-1.3333 I-0.27 J0.0
G2 Y99.6938 Z-1.4667 I0.135 J0.2338
G2 X13.3108 Y99.6509 Z-1.55 I0.135 J-0.2338
G2 X13.1898 Y99.1992 I-0.1909 J-0.1909
G2 X12.8591 Y99.5299 I-0.0699 J0.2608
G2 X13.3108 Y99.6509 I0.2608 J-0.0699
G0 Z3.0
G0 X17.1999 Y93.618
G0 Z1.0
G1 F300.0 Z0.0
G2 F800.0 X16.7949 Y93.3842 Z-0.1333 I-0.27 J0.0
G2 Y93.8518 Z-0.2667 I0.135 J0.2338
G2 X17.1999 Y93.618 Z-0.4 I0.135 J-0.2338
G2 X16.7949 Y93.3842 Z-0.5333 I-0.27 J0.0
G2 Y93.8518 Z-0.6667 I0.135 J0.2338
G2 X17.1999 Y93.618 Z-0.8 I0.135 J-0.2338
G2 X16.7949 Y93.3842 Z-0.9333 I-0.27 J0.0
G2 Y93.8518 Z-1.0667 I0.135 J0.2338
G2 X17.1999 Y93.618 Z-1.2 I0.135 J-0.2338
G2 X16.7949 Y93.3842 Z-1.3333 I-0.27 J0.0
G2 Y93.8518 Z-1.4667 I0.135 J0.2338
G2 X17.1208 Y93.8089 Z-1.55 I0.135 J-0.2338
G2 X16.9998 Y93.3572 I-0.1909 J-0.1909
G2 X16.6691 Y93.6879 I-0.0699 J0.2608
G2 X17.1208 Y93.8089 I0.2608 J-0.0699
G0 Z3.0
G0 X60.3799 Y94.38
G0 Z1.0
G1 F300.0 Z0.0
G2 F800.0 X59.9749 Y94.1462 Z-0.1333 I-0.27 J0.0
G2 Y94.6138 Z-0.2667 I0.135 J0.2338
G2 X60.3799 Y94.38 Z-0.4 I0.135 J-0.2338
G2 X59.9749 Y94.1462 Z-0.5333 I-0.27 J0.0
G2 Y94.6138 Z-0.6667 I0.135 J0.2338
G2 X60.3799 Y94.38 Z-0.8 I0.135 J-0.2338
G2 X59.9749 Y94.1462 Z-0.9333 I-0.27 J0.0
G2 Y94.6138 Z-1.0667 I0.135 J0.2338
G2 X60.3799 Y94.38 Z-1.2 I0.135 J-0.2338
G2 X59.9749 Y94.1462 Z-1.3333 I-0.27 J0.0
G2 Y94.6138 Z-1.4667 I0.135 J0.2338
G2 X60.3008 Y94.5709 Z-1.55 I0.135 J-0.2338
G2 X60.1798 Y94.1192 I-0.1909 J-0.1909
G2 X59.8491 Y94.4499 I-0.0699 J0.2608
G2 X60.3008 Y94.5709 I0.2608 J-0.0699
G0 Z3.0
G0 X65.4599 Y99.46
G0 Z1.0
G1 F300.0 Z0.0
G2 F800.0 X65.0549 Y99.2262 Z-0.1333 I-0.27 J0.0
G2 Y99.6938 Z-0.2667 I0.135 J0.2338
G2 X65.4599 Y99.46 Z-0.4 I0.135 J-0.2338
G2 X65.0549 Y99.2262 Z-0.5333 I-0.27 J0.0
G2 Y99.6938 Z-0.6667 I0.135 J0.2338
G2 X65.4599 Y99.46 Z-0.8 I0.135 J-0.2338
G2 X65.0549 Y99.2262 Z-0.9333 I-0.27 J0.0
G2 Y99.6938 Z-1.0667 I0.135 J0.2338
G2 X65.4599 Y99.46 Z-1.2 I0.135 J-0.2338
G2 X65.0549 Y99.2262 Z-1.3333 I-0.27 J0.0
G2 Y99.6938 Z-1.4667 I0.135 J0.2338
G2 X65.3808 Y99.6509 Z-1.55 I0.135 J-0.2338
G2 X65.2598 Y99.1992 I-0.1909 J-0.1909
G2 X64.9291 Y99.5299 I-0.0699 J0.2608
G2 X65.3808 Y99.6509 I0.2608 J-0.0699
G0 Z3.0
G0 X60.3799 Y79.14
G0 Z1.0
G1 F300.0 Z0.0
G2 F800.0 X59.9749 Y78.9062 Z-0.1333 I-0.27 J0.0
G2 Y79.3738 Z-0.2667 I0.135 J0.2338
G2 X60.3799 Y79.14 Z-0.4 I0.135 J-0.2338
G2 X59.9749 Y78.9062 Z-0.5333 I-0.27 J0.0
G2 Y79.3738 Z-0.6667 I0.135 J0.2338
G2 X60.3799 Y79.14 Z-0.8 I0.135 J-0.2338
G2 X59.9749 Y78.9062 Z-0.9333 I-0.27 J0.0
G2 Y79.3738 Z-1.0667 I0.135 J0.2338
G2 X60.3799 Y79.14 Z-1.2 I0.135 J-0.2338
G2 X59.9749 Y78.9062 Z-1.3333 I-0.27 J0.0
G2 Y79.3738 Z-1.4667 I0.135 J0.2338
G2 X60.3008 Y79.3309 Z-1.55 I0.135 J-0.2338
G2 X60.1798 Y78.8792 I-0.1909 J-0.1909
G2 X59.8491 Y79.2099 I-0.0699 J0.2608
G2 X60.3008 Y79.3309 I0.2608 J-0.0699
G0 Z3.0
G0 X65.4599 Y11.83
G0 Z1.0
G1 F300.0 Z0.0
G2 F800.0 X65.0549 Y11.5962 Z-0.1333 I-0.27 J0.0
G2 Y12.0638 Z-0.2667 I0.135 J0.2338
G2 X65.4599 Y11.83 Z-0.4 I0.135 J-0.2338
G2 X65.0549 Y11.5962 Z-0.5333 I-0.27 J0.0
G2 Y12.0638 Z-0.6667 I0.135 J0.2338
G2 X65.4599 Y11.83 Z-0.8 I0.135 J-0.2338
G2 X65.0549 Y11.5962 Z-0.9333 I-0.27 J0.0
G2 Y12.0638 Z-1.0667 I0.135 J0.2338
G2 X65.4599 Y11.83 Z-1.2 I0.135 J-0.2338
G2 X65.0549 Y11.5962 Z-1.3333 I-0.27 J0.0
G2 Y12.0638 Z-1.4667 I0.135 J0.2338
G2 X65.3808 Y12.0209 Z-1.55 I0.135 J-0.2338
G2 X65.2598 Y11.5692 I-0.1909 J-0.1909
G2 X64.9291 Y11.8999 I-0.0699 J0.2608
G2 X65.3808 Y12.0209 I0.2608 J-0.0699
G0 Z3.0
G0 X13.3899 Y11.83
G0 Z1.0
G1 F300.0 Z0.0
G2 F800.0 X12.9849 Y11.5962 Z-0.1333 I-0.27 J0.0
G2 Y12.0638 Z-0.2667 I0.135 J0.2338
G2 X13.3899 Y11.83 Z-0.4 I0.135 J-0.2338
G2 X12.9849 Y11.5962 Z-0.5333 I-0.27 J0.0
G2 Y12.0638 Z-0.6667 I0.135 J0.2338
G2 X13.3899 Y11.83 Z-0.8 I0.135 J-0.2338
G2 X12.9849 Y11.5962 Z-0.9333 I-0.27 J0.0
G2 Y12.0638 Z-1.0667 I0.135 J0.2338
G2 X13.3899 Y11.83 Z-1.2 I0.135 J-0.2338
G2 X12.9849 Y11.5962 Z-1.3333 I-0.27 J0.0
G2 Y12.0638 Z-1.4667 I0.135 J0.2338
G2 X13.3108 Y12.0209 Z-1.55 I0.135 J-0.2338
G2 X13.1898 Y11.5692 I-0.1909 J-0.1909
G2 X12.8591 Y11.8999 I-0.0699 J0.2608
G2 X13.3108 Y12.0209 I0.2608 J-0.0699
G0 Z3.0
M5
M30
