( Made using CamBam - http://www.cambam.co.uk )
( midi_organ.gcode.drill 5/16/2014 12:04:18 PM )
( T0 : 0.0 )
G21 G90 G64 G40
G0 Z3.0
( T0 : 0.0 )
T0 M6
( 0.9 )
G17
M3 S1000
G0 X2.8499 Y35.85
G98
G81 X2.8499 Y35.85 Z-1.55 R3.0 F300.0
G81 Y33.31 Z-1.55
G81 Y30.77 Z-1.55
G81 Y28.23 Z-1.55
G81 Y25.69 Z-1.55
G81 Y23.15 Z-1.55
G81 Y20.61 Z-1.55
G81 Y18.07 Z-1.55
G81 Y47.28 Z-1.55
G81 Y49.82 Z-1.55
G81 Y52.36 Z-1.55
G81 X5.3899 Y67.6 Z-1.55
G81 X7.9299 Z-1.55
G81 X10.4699 Z-1.55
G81 X19.3599 Z-1.55
G81 Y65.06 Z-1.55
G81 Y70.14 Z-1.55
G81 Y80.3 Z-1.55
G81 X14.8641 Z-1.55
G81 Y86.8024 Z-1.55
G81 X19.3599 Z-1.55
G81 X43.4899 Y82.84 Z-1.55
G81 X46.0299 Y85.38 Z-1.55
G81 Y77.76 Z-1.55
G81 X43.4899 Y72.68 Z-1.55
G81 X46.0299 Y70.14 Z-1.55
G81 X56.1899 Y75.22 Z-1.55
G81 Y80.3 Z-1.55
G81 X57.4599 Y35.85 Z-1.55
G81 Y33.31 Z-1.55
G81 Y30.77 Z-1.55
G81 Y28.23 Z-1.55
G81 Y25.69 Z-1.55
G81 Y23.15 Z-1.55
G81 Y20.61 Z-1.55
G81 Y18.07 Z-1.55
G81 X31.4249 Y36.485 Z-1.55
G81 Y39.025 Z-1.55
G81 Y41.565 Z-1.55
G81 X28.8849 Z-1.55
G81 Y39.025 Z-1.55
G81 Y36.485 Z-1.55
G80
G0 Z3.0
M5
M30
