( Made using CamBam - http://www.cambam.co.uk )
( midi_organ.gcode.drill 5/16/2014 12:26:54 PM )
( T0 : 0.0 )
G21 G90 G64 G40
G0 Z3.0
( T0 : 0.0 )
T0 M6
( 0.7 )
G17
M3 S1000
G0 X13.1199 Y11.83
G98
G81 X13.1199 Y11.83 Z-1.55 R3.0 F300.0
G81 X19.4699 Y19.45 Z-1.55
G81 X22.0099 Y16.91 Z-1.55
G81 X24.5499 Y14.37 Z-1.55
G81 X27.0899 Y11.83 Z-1.55
G81 Y21.99 Z-1.55
G81 X24.5499 Y24.53 Z-1.55
G81 X22.0099 Y27.07 Z-1.55
G81 X19.4699 Y29.61 Z-1.55
G81 Y32.15 Z-1.55
G81 X22.0099 Z-1.55
G81 X24.5499 Z-1.55
G81 X27.0899 Z-1.55
G81 X29.6299 Z-1.55
G81 X32.1699 Z-1.55
G81 X34.7099 Z-1.55
G81 X37.2499 Z-1.55
G81 X41.0599 Z-1.55
G81 X43.5999 Z-1.55
G81 X46.1399 Z-1.55
G81 X48.6799 Z-1.55
G81 X51.2199 Z-1.55
G81 X53.7599 Z-1.55
G81 X56.2999 Z-1.55
G81 X58.8399 Z-1.55
G81 Y29.61 Z-1.55
G81 X56.2999 Y27.07 Z-1.55
G81 X53.7599 Y24.53 Z-1.55
G81 X51.2199 Y21.99 Z-1.55
G81 X56.2999 Y16.91 Z-1.55
G81 X53.7599 Y14.37 Z-1.55
G81 X51.2199 Y11.83 Z-1.55
G81 X58.8399 Y19.45 Z-1.55
G81 X65.1899 Y11.83 Z-1.55
G81 X61.3799 Y34.69 Z-1.55
G81 X63.9199 Y35.96 Z-1.55
G81 X58.8399 Y37.23 Z-1.55
G81 Y39.77 Z-1.55
G81 X56.2999 Z-1.55
G81 X53.7599 Z-1.55
G81 X51.2199 Z-1.55
G81 X48.6799 Z-1.55
G81 X46.1399 Z-1.55
G81 X43.5999 Z-1.55
G81 X41.0599 Z-1.55
G81 X43.5999 Y42.31 Z-1.55
G81 X44.8699 Y35.96 Z-1.55
G81 X37.2499 Y39.77 Z-1.55
G81 X34.7099 Z-1.55
G81 X32.1699 Z-1.55
G81 X29.6299 Z-1.55
G81 X27.0899 Z-1.55
G81 X24.5499 Z-1.55
G81 X22.0099 Z-1.55
G81 X19.4699 Z-1.55
G81 Y37.23 Z-1.55
G81 X16.9299 Z-1.55
G81 X14.3899 Y35.96 Z-1.55
G81 X22.0099 Y34.69 Z-1.55
G81 X19.4699 Y42.31 Z-1.55
G81 X22.0099 Y44.85 Z-1.55
G81 X24.5499 Y47.39 Z-1.55
G81 X27.0899 Y49.93 Z-1.55
G81 X22.0099 Y55.01 Z-1.55
G81 Y57.55 Z-1.55
G81 X24.5499 Z-1.55
G81 X27.0899 Y60.09 Z-1.55
G81 X30.8999 Y63.9 Z-1.55
G81 X28.3599 Y66.44 Z-1.55
G81 X25.8199 Z-1.55
G81 X22.0099 Z-1.55
G81 X20.7399 Y71.52 Z-1.55
G81 X18.1999 Z-1.55
G81 X14.3899 Z-1.55
G81 X11.8499 Z-1.55
G81 Y66.44 Z-1.55
G81 X19.4699 Y52.47 Z-1.55
G81 X35.3449 Y50.565 Z-1.55
G81 Y56.28 Z-1.55
G81 Y58.82 Z-1.55
G81 Y61.36 Z-1.55
G81 Y63.9 Z-1.55
G81 Y66.44 Z-1.55
G81 Y68.98 Z-1.55
G81 Y71.52 Z-1.55
G81 Y74.06 Z-1.55
G81 X37.2499 Y75.33 Z-1.55
G81 X35.3449 Y76.6 Z-1.55
G81 Y79.14 Z-1.55
G81 Y81.68 Z-1.55
G81 Y84.22 Z-1.55
G81 X37.2499 Y85.49 Z-1.55
G81 X35.3449 Y86.76 Z-1.55
G81 Y89.3 Z-1.55
G81 X31.5349 Z-1.55
G81 X34.0749 Y93.11 Z-1.55
G81 Y95.65 Z-1.55
G81 X31.5349 Z-1.55
G81 X44.2349 Z-1.55
G81 Y93.11 Z-1.55
G81 X42.9649 Y89.3 Z-1.55
G81 Y86.76 Z-1.55
G81 X41.0098 Y85.41 Z-1.55
G81 X42.9649 Y84.22 Z-1.55
G81 Y81.68 Z-1.55
G81 Y79.14 Z-1.55
G81 Y76.6 Z-1.55
G81 Y74.06 Z-1.55
G81 Y71.52 Z-1.55
G81 Y68.98 Z-1.55
G81 Y66.44 Z-1.55
G81 Y63.9 Z-1.55
G81 Y61.36 Z-1.55
G81 Y58.82 Z-1.55
G81 X41.0098 Y57.47 Z-1.55
G81 X42.9649 Y56.28 Z-1.55
G81 X51.2199 Y60.09 Z-1.55
G81 X53.7599 Y57.55 Z-1.55
G81 X56.2999 Y55.01 Z-1.55
G81 X58.8399 Y52.47 Z-1.55
G81 X61.3799 Z-1.55
G81 X56.2999 Y44.85 Z-1.55
G81 X58.8399 Y42.31 Z-1.55
G81 X53.7599 Y47.39 Z-1.55
G81 X51.2199 Y49.93 Z-1.55
G81 X53.7599 Y63.9 Z-1.55
G81 Y68.98 Z-1.55
G81 X58.8399 Z-1.55
G81 Y71.52 Z-1.55
G81 X61.3799 Y74.06 Z-1.55
G81 X60.1099 Y79.14 Z-1.55
G81 X58.8399 Y84.22 Z-1.55
G81 X60.1099 Y94.38 Z-1.55
G81 X65.1899 Y99.46 Z-1.55
G81 X46.1399 Y81.68 Z-1.55
G81 X39.1549 Y79.14 Z-1.55
G81 X32.1699 Z-1.55
G81 X28.3599 Y70.885 Z-1.55
G81 X48.6799 Y68.98 Z-1.55
G81 Y63.9 Z-1.55
G81 X58.8399 Z-1.55
G81 X56.2999 Y34.69 Z-1.55
G81 X33.4399 Y35.96 Z-1.55
G81 X16.9299 Y93.618 Z-1.55
G81 X13.1199 Y99.46 Z-1.55
G80
G0 Z3.0
M5
M30
