( Made using CamBam - http://www.cambam.co.uk )
( midi_organ.gcode.drill 5/16/2014 12:04:34 PM )
( T0 : 2.0 )
G21 G90 G64 G40
G0 Z3.0
( T0 : 2.0 )
T0 M6
( 2.54 )
G17
M3 S1000
G0 X4.1199 Y90.46
G0 Z3.0
G0 X4.3899 Y90.46
G0 Z1.0
G1 F300.0 Z0.0
G2 F800.0 X3.9849 Y90.2262 Z-0.1333 I-0.27 J0.0
G2 Y90.6938 Z-0.2667 I0.135 J0.2338
G2 X4.3899 Y90.46 Z-0.4 I0.135 J-0.2338
G2 X3.9849 Y90.2262 Z-0.5333 I-0.27 J0.0
G2 Y90.6938 Z-0.6667 I0.135 J0.2338
G2 X4.3899 Y90.46 Z-0.8 I0.135 J-0.2338
G2 X3.9849 Y90.2262 Z-0.9333 I-0.27 J0.0
G2 Y90.6938 Z-1.0667 I0.135 J0.2338
G2 X4.3899 Y90.46 Z-1.2 I0.135 J-0.2338
G2 X3.9849 Y90.2262 Z-1.3333 I-0.27 J0.0
G2 Y90.6938 Z-1.4667 I0.135 J0.2338
G2 X4.3108 Y90.6509 Z-1.55 I0.135 J-0.2338
G2 X4.1898 Y90.1992 I-0.1909 J-0.1909
G2 X3.8591 Y90.5299 I-0.0699 J0.2608
G2 X4.3108 Y90.6509 I0.2608 J-0.0699
G0 Z3.0
G0 X8.1999 Y84.618
G0 Z1.0
G1 F300.0 Z0.0
G2 F800.0 X7.7949 Y84.3842 Z-0.1333 I-0.27 J0.0
G2 Y84.8518 Z-0.2667 I0.135 J0.2338
G2 X8.1999 Y84.618 Z-0.4 I0.135 J-0.2338
G2 X7.7949 Y84.3842 Z-0.5333 I-0.27 J0.0
G2 Y84.8518 Z-0.6667 I0.135 J0.2338
G2 X8.1999 Y84.618 Z-0.8 I0.135 J-0.2338
G2 X7.7949 Y84.3842 Z-0.9333 I-0.27 J0.0
G2 Y84.8518 Z-1.0667 I0.135 J0.2338
G2 X8.1999 Y84.618 Z-1.2 I0.135 J-0.2338
G2 X7.7949 Y84.3842 Z-1.3333 I-0.27 J0.0
G2 Y84.8518 Z-1.4667 I0.135 J0.2338
G2 X8.1208 Y84.8089 Z-1.55 I0.135 J-0.2338
G2 X7.9998 Y84.3572 I-0.1909 J-0.1909
G2 X7.6691 Y84.6879 I-0.0699 J0.2608
G2 X8.1208 Y84.8089 I0.2608 J-0.0699
G0 Z3.0
G0 X51.3799 Y85.38
G0 Z1.0
G1 F300.0 Z0.0
G2 F800.0 X50.9749 Y85.1462 Z-0.1333 I-0.27 J0.0
G2 Y85.6138 Z-0.2667 I0.135 J0.2338
G2 X51.3799 Y85.38 Z-0.4 I0.135 J-0.2338
G2 X50.9749 Y85.1462 Z-0.5333 I-0.27 J0.0
G2 Y85.6138 Z-0.6667 I0.135 J0.2338
G2 X51.3799 Y85.38 Z-0.8 I0.135 J-0.2338
G2 X50.9749 Y85.1462 Z-0.9333 I-0.27 J0.0
G2 Y85.6138 Z-1.0667 I0.135 J0.2338
G2 X51.3799 Y85.38 Z-1.2 I0.135 J-0.2338
G2 X50.9749 Y85.1462 Z-1.3333 I-0.27 J0.0
G2 Y85.6138 Z-1.4667 I0.135 J0.2338
G2 X51.3008 Y85.5709 Z-1.55 I0.135 J-0.2338
G2 X51.1798 Y85.1192 I-0.1909 J-0.1909
G2 X50.8491 Y85.4499 I-0.0699 J0.2608
G2 X51.3008 Y85.5709 I0.2608 J-0.0699
G0 Z3.0
G0 X56.4599 Y90.46
G0 Z1.0
G1 F300.0 Z0.0
G2 F800.0 X56.0549 Y90.2262 Z-0.1333 I-0.27 J0.0
G2 Y90.6938 Z-0.2667 I0.135 J0.2338
G2 X56.4599 Y90.46 Z-0.4 I0.135 J-0.2338
G2 X56.0549 Y90.2262 Z-0.5333 I-0.27 J0.0
G2 Y90.6938 Z-0.6667 I0.135 J0.2338
G2 X56.4599 Y90.46 Z-0.8 I0.135 J-0.2338
G2 X56.0549 Y90.2262 Z-0.9333 I-0.27 J0.0
G2 Y90.6938 Z-1.0667 I0.135 J0.2338
G2 X56.4599 Y90.46 Z-1.2 I0.135 J-0.2338
G2 X56.0549 Y90.2262 Z-1.3333 I-0.27 J0.0
G2 Y90.6938 Z-1.4667 I0.135 J0.2338
G2 X56.3808 Y90.6509 Z-1.55 I0.135 J-0.2338
G2 X56.2598 Y90.1992 I-0.1909 J-0.1909
G2 X55.9291 Y90.5299 I-0.0699 J0.2608
G2 X56.3808 Y90.6509 I0.2608 J-0.0699
G0 Z3.0
G0 X51.3799 Y70.14
G0 Z1.0
G1 F300.0 Z0.0
G2 F800.0 X50.9749 Y69.9062 Z-0.1333 I-0.27 J0.0
G2 Y70.3738 Z-0.2667 I0.135 J0.2338
G2 X51.3799 Y70.14 Z-0.4 I0.135 J-0.2338
G2 X50.9749 Y69.9062 Z-0.5333 I-0.27 J0.0
G2 Y70.3738 Z-0.6667 I0.135 J0.2338
G2 X51.3799 Y70.14 Z-0.8 I0.135 J-0.2338
G2 X50.9749 Y69.9062 Z-0.9333 I-0.27 J0.0
G2 Y70.3738 Z-1.0667 I0.135 J0.2338
G2 X51.3799 Y70.14 Z-1.2 I0.135 J-0.2338
G2 X50.9749 Y69.9062 Z-1.3333 I-0.27 J0.0
G2 Y70.3738 Z-1.4667 I0.135 J0.2338
G2 X51.3008 Y70.3309 Z-1.55 I0.135 J-0.2338
G2 X51.1798 Y69.8792 I-0.1909 J-0.1909
G2 X50.8491 Y70.2099 I-0.0699 J0.2608
G2 X51.3008 Y70.3309 I0.2608 J-0.0699
G0 Z3.0
G0 X56.4599 Y2.83
G0 Z1.0
G1 F300.0 Z0.0
G2 F800.0 X56.0549 Y2.5962 Z-0.1333 I-0.27 J0.0
G2 Y3.0638 Z-0.2667 I0.135 J0.2338
G2 X56.4599 Y2.83 Z-0.4 I0.135 J-0.2338
G2 X56.0549 Y2.5962 Z-0.5333 I-0.27 J0.0
G2 Y3.0638 Z-0.6667 I0.135 J0.2338
G2 X56.4599 Y2.83 Z-0.8 I0.135 J-0.2338
G2 X56.0549 Y2.5962 Z-0.9333 I-0.27 J0.0
G2 Y3.0638 Z-1.0667 I0.135 J0.2338
G2 X56.4599 Y2.83 Z-1.2 I0.135 J-0.2338
G2 X56.0549 Y2.5962 Z-1.3333 I-0.27 J0.0
G2 Y3.0638 Z-1.4667 I0.135 J0.2338
G2 X56.3808 Y3.0209 Z-1.55 I0.135 J-0.2338
G2 X56.2598 Y2.5692 I-0.1909 J-0.1909
G2 X55.9291 Y2.8999 I-0.0699 J0.2608
G2 X56.3808 Y3.0209 I0.2608 J-0.0699
G0 Z3.0
G0 X4.3899 Y2.83
G0 Z1.0
G1 F300.0 Z0.0
G2 F800.0 X3.9849 Y2.5962 Z-0.1333 I-0.27 J0.0
G2 Y3.0638 Z-0.2667 I0.135 J0.2338
G2 X4.3899 Y2.83 Z-0.4 I0.135 J-0.2338
G2 X3.9849 Y2.5962 Z-0.5333 I-0.27 J0.0
G2 Y3.0638 Z-0.6667 I0.135 J0.2338
G2 X4.3899 Y2.83 Z-0.8 I0.135 J-0.2338
G2 X3.9849 Y2.5962 Z-0.9333 I-0.27 J0.0
G2 Y3.0638 Z-1.0667 I0.135 J0.2338
G2 X4.3899 Y2.83 Z-1.2 I0.135 J-0.2338
G2 X3.9849 Y2.5962 Z-1.3333 I-0.27 J0.0
G2 Y3.0638 Z-1.4667 I0.135 J0.2338
G2 X4.3108 Y3.0209 Z-1.55 I0.135 J-0.2338
G2 X4.1898 Y2.5692 I-0.1909 J-0.1909
G2 X3.8591 Y2.8999 I-0.0699 J0.2608
G2 X4.3108 Y3.0209 I0.2608 J-0.0699
G0 Z3.0
M5
M30
