( Made using CamBam - http://www.cambam.co.uk )
( midi_organ_v0.3.gcode.complete 8/21/2014 10:05:25 AM )
( T0 : 0.0 )
G21 G90 G64 G40
G0 Z3.0
( T0 : 0.0 )
T0 M6
( drill-0.9mm-mirror )
G17
M3 S1000
G0 X36.1449 Y166.2349
G98
G81 X36.1449 Y166.2349 Z-2.35 R3.0 F800.0
G81 Z-2.35
G81 Y163.6949 Z-2.35
G81 Z-2.35
G81 Y161.1549 Z-2.35
G81 Z-2.35
G81 Y158.6149 Z-2.35
G81 Z-2.35
G81 Y156.0749 Z-2.35
G81 Z-2.35
G81 X31.0649 Z-2.35
G81 Z-2.35
G81 Y158.6149 Z-2.35
G81 Z-2.35
G81 Y161.1549 Z-2.35
G81 Z-2.35
G81 Y163.6949 Z-2.35
G81 Z-2.35
G81 Y166.2349 Z-2.35
G81 Z-2.35
G81 Y168.7749 Z-2.35
G81 Z-2.35
G81 Y171.3149 Z-2.35
G81 Z-2.35
G81 Y173.8549 Z-2.35
G81 Z-2.35
G81 X25.9849 Z-2.35
G81 Z-2.35
G81 Y171.3149 Z-2.35
G81 Z-2.35
G81 Y168.7749 Z-2.35
G81 Z-2.35
G81 Y166.2349 Z-2.35
G81 Z-2.35
G81 Y163.6949 Z-2.35
G81 Z-2.35
G81 Y161.1549 Z-2.35
G81 Z-2.35
G81 Y158.6149 Z-2.35
G81 Z-2.35
G81 Y156.0749 Z-2.35
G81 Z-2.35
G81 X20.9049 Z-2.35
G81 Z-2.35
G81 Y158.6149 Z-2.35
G81 Z-2.35
G81 Y161.1549 Z-2.35
G81 Z-2.35
G81 Y163.6949 Z-2.35
G81 Z-2.35
G81 Y166.2349 Z-2.35
G81 Z-2.35
G81 Y168.7749 Z-2.35
G81 Z-2.35
G81 Y171.3149 Z-2.35
G81 Z-2.35
G81 Y173.8549 Z-2.35
G81 Z-2.35
G81 X32.9699 Y182.7449 Z-2.35
G81 Z-2.35
G81 X35.5099 Z-2.35
G81 Z-2.35
G81 X38.0499 Z-2.35
G81 Z-2.35
G81 X36.1449 Y173.8549 Z-2.35
G81 Z-2.35
G81 Y171.3149 Z-2.35
G81 Z-2.35
G81 Y168.7749 Z-2.35
G81 Z-2.35
G81 X54.5599 Y136.3899 Z-2.35
G81 Z-2.35
G81 X57.0999 Z-2.35
G81 Z-2.35
G81 X59.6399 Z-2.35
G81 Z-2.35
G81 X62.1799 Z-2.35
G81 Z-2.35
G81 X64.7199 Z-2.35
G81 Z-2.35
G81 X82.4999 Z-2.35
G81 Z-2.35
G81 Y138.9299 Z-2.35
G81 Z-2.35
G81 Y141.4699 Z-2.35
G81 Z-2.35
G81 X85.0399 Z-2.35
G81 Z-2.35
G81 Y138.9299 Z-2.35
G81 Z-2.35
G81 Y136.3899 Z-2.35
G81 Z-2.35
G81 X88.2149 Y128.1349 Z-2.35
G81 Z-2.35
G81 Y125.5949 Z-2.35
G81 Z-2.35
G81 Y123.0549 Z-2.35
G81 Z-2.35
G81 Y120.5149 Z-2.35
G81 Z-2.35
G81 Y117.9749 Z-2.35
G81 Z-2.35
G81 Y115.4349 Z-2.35
G81 Z-2.35
G81 Y112.8949 Z-2.35
G81 Z-2.35
G81 Y110.3549 Z-2.35
G81 Z-2.35
G81 Y107.8149 Z-2.35
G81 Z-2.35
G81 Y105.2749 Z-2.35
G81 Z-2.35
G81 Y102.7349 Z-2.35
G81 Z-2.35
G81 Y100.1949 Z-2.35
G81 Z-2.35
G81 Y97.6549 Z-2.35
G81 Z-2.35
G81 Y95.1149 Z-2.35
G81 Z-2.35
G81 Y92.5749 Z-2.35
G81 Z-2.35
G81 Y90.0349 Z-2.35
G81 Z-2.35
G81 Y87.4949 Z-2.35
G81 Z-2.35
G81 Y84.9549 Z-2.35
G81 Z-2.35
G81 Y82.4149 Z-2.35
G81 Z-2.35
G81 Y79.8749 Z-2.35
G81 Z-2.35
G81 Y77.3349 Z-2.35
G81 Z-2.35
G81 Y74.7949 Z-2.35
G81 Z-2.35
G81 Y72.2549 Z-2.35
G81 Z-2.35
G81 Y69.7149 Z-2.35
G81 Z-2.35
G81 X98.3749 Y63.3649 Z-2.35
G81 Z-2.35
G81 Y60.8249 Z-2.35
G81 Z-2.35
G81 Y58.2849 Z-2.35
G81 Z-2.35
G81 Y55.7449 Z-2.35
G81 Z-2.35
G81 Y53.2049 Z-2.35
G81 Z-2.35
G81 Y50.6649 Z-2.35
G81 Z-2.35
G81 Y48.1249 Z-2.35
G81 Z-2.35
G81 Y45.5849 Z-2.35
G81 Z-2.35
G81 Y43.0449 Z-2.35
G81 Z-2.35
G81 Y40.5049 Z-2.35
G81 Z-2.35
G81 Y37.9649 Z-2.35
G81 Z-2.35
G81 Y35.4249 Z-2.35
G81 Z-2.35
G81 Y32.8849 Z-2.35
G81 Z-2.35
G81 Y30.3449 Z-2.35
G81 Z-2.35
G81 Y27.8049 Z-2.35
G81 Z-2.35
G81 Y25.2649 Z-2.35
G81 Z-2.35
G81 X46.3049 Z-2.35
G81 Z-2.35
G81 Y27.8049 Z-2.35
G81 Z-2.35
G81 Y30.3449 Z-2.35
G81 Z-2.35
G81 Y32.8849 Z-2.35
G81 Z-2.35
G81 Y35.4249 Z-2.35
G81 Z-2.35
G81 Y37.9649 Z-2.35
G81 Z-2.35
G81 Y40.5049 Z-2.35
G81 Z-2.35
G81 Y43.0449 Z-2.35
G81 Z-2.35
G81 Y45.5849 Z-2.35
G81 Z-2.35
G81 Y48.1249 Z-2.35
G81 Z-2.35
G81 Y50.6649 Z-2.35
G81 Z-2.35
G81 Y53.2049 Z-2.35
G81 Z-2.35
G81 Y55.7449 Z-2.35
G81 Z-2.35
G81 Y58.2849 Z-2.35
G81 Z-2.35
G81 Y60.8249 Z-2.35
G81 Z-2.35
G81 Y63.3649 Z-2.35
G81 Z-2.35
G81 X33.6049 Y69.7149 Z-2.35
G81 Z-2.35
G81 Y72.2549 Z-2.35
G81 Z-2.35
G81 Y74.7949 Z-2.35
G81 Z-2.35
G81 Y77.3349 Z-2.35
G81 Z-2.35
G81 Y79.8749 Z-2.35
G81 Z-2.35
G81 Y82.4149 Z-2.35
G81 Z-2.35
G81 Y84.9549 Z-2.35
G81 Z-2.35
G81 Y87.4949 Z-2.35
G81 Z-2.35
G81 Y90.0349 Z-2.35
G81 Z-2.35
G81 Y92.5749 Z-2.35
G81 Z-2.35
G81 Y95.1149 Z-2.35
G81 Z-2.35
G81 Y97.6549 Z-2.35
G81 Z-2.35
G81 Y100.1949 Z-2.35
G81 Z-2.35
G81 Y102.7349 Z-2.35
G81 Z-2.35
G81 Y105.2749 Z-2.35
G81 Z-2.35
G81 Y107.8149 Z-2.35
G81 Z-2.35
G81 Y110.3549 Z-2.35
G81 Z-2.35
G81 Y112.8949 Z-2.35
G81 Z-2.35
G81 Y115.4349 Z-2.35
G81 Z-2.35
G81 Y117.9749 Z-2.35
G81 Z-2.35
G81 Y120.5149 Z-2.35
G81 Z-2.35
G81 Y123.0549 Z-2.35
G81 Z-2.35
G81 Y125.5949 Z-2.35
G81 Z-2.35
G81 Y128.1349 Z-2.35
G81 Z-2.35
G81 X86.3099 Y161.7899 Z-2.35
G81 Z-2.35
G81 X88.8499 Z-2.35
G81 Z-2.35
G81 X91.3899 Z-2.35
G81 Z-2.35
G81 X93.9299 Z-2.35
G81 Z-2.35
G81 X96.4699 Z-2.35
G81 Z-2.35
G81 X99.0099 Z-2.35
G81 Z-2.35
G81 X101.5499 Z-2.35
G81 Z-2.35
G81 X104.0899 Z-2.35
G81 Z-2.35
G81 X106.6299 Z-2.35
G81 Z-2.35
G81 X109.1699 Z-2.35
G81 Z-2.35
G81 Y169.4099 Z-2.35
G81 Z-2.35
G81 X106.6299 Z-2.35
G81 Z-2.35
G81 X104.0899 Z-2.35
G81 Z-2.35
G81 X101.5499 Z-2.35
G81 Z-2.35
G81 X99.0099 Z-2.35
G81 Z-2.35
G81 X96.4699 Z-2.35
G81 Z-2.35
G81 X93.9299 Z-2.35
G81 Z-2.35
G81 X91.3899 Z-2.35
G81 Z-2.35
G81 X88.8499 Z-2.35
G81 Z-2.35
G81 X86.3099 Z-2.35
G81 Z-2.35
G81 X109.1699 Y154.1699 Z-2.35
G81 Z-2.35
G81 Y151.6299 Z-2.35
G81 Z-2.35
G81 Y149.0899 Z-2.35
G81 Z-2.35
G81 Y146.5499 Z-2.35
G81 Z-2.35
G81 Y141.4699 Z-2.35
G81 Z-2.35
G81 Y138.9299 Z-2.35
G81 Z-2.35
G81 Y136.3899 Z-2.35
G81 Z-2.35
G81 Y133.8499 Z-2.35
G81 Z-2.35
G80
G0 Z3.0
M5
M30
