( Made using CamBam - http://www.cambam.co.uk )
( midi_organ_v0.3.gcode.complete 8/21/2014 9:48:47 AM )
( T0 : 0.0 )
G21 G90 G64 G40
G0 Z3.0
( T0 : 0.0 )
T0 M6
( drill-0.8mm-mirror )
G17
M3 S1000
G0 X111.0749 Y25.2649
G98
G81 X111.0749 Y25.2649 Z-2.35 R3.0 F500.0
G81 Y27.8049 Z-2.35
G81 Y30.3449 Z-2.35
G81 Y32.8849 Z-2.35
G81 Y35.4249 Z-2.35
G81 Y37.9649 Z-2.35
G81 Y40.5049 Z-2.35
G81 Y43.0449 Z-2.35
G81 Y45.5849 Z-2.35
G81 Y48.1249 Z-2.35
G81 Y50.6649 Z-2.35
G81 Y53.2049 Z-2.35
G81 Y55.7449 Z-2.35
G81 Y58.2849 Z-2.35
G81 Y60.8249 Z-2.35
G81 Y63.3649 Z-2.35
G81 X100.9149 Z-2.35
G81 Y60.8249 Z-2.35
G81 Y58.2849 Z-2.35
G81 Y55.7449 Z-2.35
G81 Y53.2049 Z-2.35
G81 Y50.6649 Z-2.35
G81 Y48.1249 Z-2.35
G81 Y45.5849 Z-2.35
G81 Y43.0449 Z-2.35
G81 Y40.5049 Z-2.35
G81 Y37.9649 Z-2.35
G81 Y35.4249 Z-2.35
G81 Y32.8849 Z-2.35
G81 Y30.3449 Z-2.35
G81 Y27.8049 Z-2.35
G81 Y25.2649 Z-2.35
G81 X93.9299 Y31.6149 Z-2.35
G81 X91.3899 Y30.3449 Z-2.35
G81 X88.8499 Z-2.35
G81 Y32.8849 Z-2.35
G81 X91.3899 Y35.4249 Z-2.35
G81 Y37.9649 Z-2.35
G81 X88.8499 Z-2.35
G81 X86.3099 Z-2.35
G81 X83.7699 Z-2.35
G81 X81.2299 Z-2.35
G81 X78.6899 Z-2.35
G81 X76.1499 Z-2.35
G81 X73.6099 Z-2.35
G81 X71.0699 Z-2.35
G81 Y40.5049 Z-2.35
G81 X68.5299 Y41.7749 Z-2.35
G81 X65.9899 Z-2.35
G81 Y37.9649 Z-2.35
G81 X68.5299 Z-2.35
G81 X67.2599 Y34.1549 Z-2.35
G81 X65.9899 Y30.3449 Z-2.35
G81 X68.5299 Z-2.35
G81 X71.0699 Z-2.35
G81 X73.6099 Z-2.35
G81 X76.1499 Z-2.35
G81 X78.6899 Z-2.35
G81 X81.2299 Z-2.35
G81 X83.7699 Z-2.35
G81 X86.3099 Z-2.35
G81 X77.4199 Y34.1549 Z-2.35
G81 Y26.5349 Z-2.35
G81 X74.8799 Z-2.35
G81 Y23.9949 Z-2.35
G81 X69.7999 Z-2.35
G81 Y26.5349 Z-2.35
G81 X63.4499 Y30.3449 Z-2.35
G81 X60.9099 Z-2.35
G81 X58.3699 Z-2.35
G81 X55.8299 Z-2.35
G81 X53.2899 Z-2.35
G81 X55.8299 Y32.8849 Z-2.35
G81 X53.2899 Y35.4249 Z-2.35
G81 Y37.9649 Z-2.35
G81 X55.8299 Z-2.35
G81 X58.3699 Z-2.35
G81 X60.9099 Z-2.35
G81 X63.4499 Z-2.35
G81 X65.9899 Y46.8549 Z-2.35
G81 X68.5299 Z-2.35
G81 X71.0699 Z-2.35
G81 Y50.6649 Z-2.35
G81 X73.6099 Z-2.35
G81 X76.1499 Z-2.35
G81 X78.6899 Z-2.35
G81 X81.2299 Z-2.35
G81 X83.7699 Z-2.35
G81 X86.3099 Z-2.35
G81 X88.8499 Z-2.35
G81 Y53.2049 Z-2.35
G81 X91.3899 Y50.6649 Z-2.35
G81 X94.5649 Y52.5699 Z-2.35
G81 X96.4699 Y54.4749 Z-2.35
G81 X91.3899 Y55.7449 Z-2.35
G81 Y58.2849 Z-2.35
G81 X88.8499 Z-2.35
G81 X86.3099 Z-2.35
G81 X83.7699 Z-2.35
G81 X81.2299 Z-2.35
G81 X78.6899 Z-2.35
G81 X76.1499 Z-2.35
G81 X73.6099 Z-2.35
G81 X71.0699 Z-2.35
G81 Y60.8249 Z-2.35
G81 X68.5299 Y58.2849 Z-2.35
G81 X65.9899 Z-2.35
G81 X63.4499 Z-2.35
G81 X60.9099 Z-2.35
G81 X58.3699 Z-2.35
G81 X55.8299 Z-2.35
G81 X53.2899 Z-2.35
G81 Y55.7449 Z-2.35
G81 X50.1149 Z-2.35
G81 X48.2099 Y54.4749 Z-2.35
G81 X43.7649 Y53.2049 Z-2.35
G81 Y55.7449 Z-2.35
G81 Y58.2849 Z-2.35
G81 Y60.8249 Z-2.35
G81 Y63.3649 Z-2.35
G81 X46.3049 Y68.4449 Z-2.35
G81 X48.8449 Z-2.35
G81 Y70.9849 Z-2.35
G81 X46.3049 Z-2.35
G81 Y73.5249 Z-2.35
G81 X48.8449 Z-2.35
G81 Y76.0649 Z-2.35
G81 X46.3049 Z-2.35
G81 Y78.6049 Z-2.35
G81 X48.8449 Z-2.35
G81 Y81.1449 Z-2.35
G81 X50.7499 Y82.4149 Z-2.35
G81 X48.8449 Y83.6849 Z-2.35
G81 Y86.2249 Z-2.35
G81 X46.3049 Z-2.35
G81 Y83.6849 Z-2.35
G81 Y81.1449 Z-2.35
G81 Y90.0349 Z-2.35
G81 X48.8449 Z-2.35
G81 X50.7499 Y91.3049 Z-2.35
G81 X48.8449 Y92.5749 Z-2.35
G81 Y95.1149 Z-2.35
G81 X46.3049 Z-2.35
G81 Y92.5749 Z-2.35
G81 Y97.6549 Z-2.35
G81 X48.8449 Z-2.35
G81 Y100.1949 Z-2.35
G81 X46.3049 Z-2.35
G81 Y102.7349 Z-2.35
G81 X48.8449 Z-2.35
G81 X50.7499 Y104.0049 Z-2.35
G81 X48.8449 Y105.2749 Z-2.35
G81 X46.3049 Z-2.35
G81 Y107.8149 Z-2.35
G81 X48.8449 Z-2.35
G81 Y111.6249 Z-2.35
G81 X50.7499 Y112.8949 Z-2.35
G81 X48.8449 Y114.1649 Z-2.35
G81 X46.3049 Z-2.35
G81 Y111.6249 Z-2.35
G81 Y116.7049 Z-2.35
G81 X48.8449 Z-2.35
G81 Y119.2449 Z-2.35
G81 X46.3049 Z-2.35
G81 Y121.7849 Z-2.35
G81 X48.8449 Z-2.35
G81 Y124.3249 Z-2.35
G81 X46.3049 Z-2.35
G81 Y126.8649 Z-2.35
G81 Y129.4049 Z-2.35
G81 X48.8449 Z-2.35
G81 Y126.8649 Z-2.35
G81 X52.6549 Y125.5949 Z-2.35
G81 X54.5599 Y128.1349 Z-2.35
G81 X56.4649 Y129.4049 Z-2.35
G81 Y126.8649 Z-2.35
G81 Y124.3249 Z-2.35
G81 Y121.7849 Z-2.35
G81 Y119.2449 Z-2.35
G81 Y116.7049 Z-2.35
G81 X54.5599 Y115.4349 Z-2.35
G81 X56.4649 Y114.1649 Z-2.35
G81 Y111.6249 Z-2.35
G81 X59.0049 Y109.7199 Z-2.35
G81 X56.4649 Y107.8149 Z-2.35
G81 X54.5599 Y106.5449 Z-2.35
G81 X56.4649 Y105.2749 Z-2.35
G81 Y102.7349 Z-2.35
G81 Y100.1949 Z-2.35
G81 Y97.6549 Z-2.35
G81 X59.0049 Z-2.35
G81 X56.4649 Y95.1149 Z-2.35
G81 X54.5599 Y93.8449 Z-2.35
G81 X56.4649 Y92.5749 Z-2.35
G81 Y90.0349 Z-2.35
G81 X59.0049 Y88.1299 Z-2.35
G81 X56.4649 Y86.2249 Z-2.35
G81 X54.5599 Y84.9549 Z-2.35
G81 X56.4649 Y83.6849 Z-2.35
G81 Y81.1449 Z-2.35
G81 Y78.6049 Z-2.35
G81 Y76.0649 Z-2.35
G81 X59.0049 Z-2.35
G81 X56.4649 Y73.5249 Z-2.35
G81 Y70.9849 Z-2.35
G81 X54.5599 Y69.7149 Z-2.35
G81 X56.4649 Y68.4449 Z-2.35
G81 X59.0049 Y69.0799 Z-2.35
G81 Y71.6199 Z-2.35
G81 X62.8149 Y73.5249 Z-2.35
G81 X65.3549 Z-2.35
G81 Y70.9849 Z-2.35
G81 X67.2599 Y69.7149 Z-2.35
G81 X65.3549 Y68.4449 Z-2.35
G81 X59.0049 Y66.5399 Z-2.35
G81 X52.6549 Y72.2549 Z-2.35
G81 X62.8149 Y78.6049 Z-2.35
G81 X65.3549 Z-2.35
G81 Y76.0649 Z-2.35
G81 Y81.1449 Z-2.35
G81 X67.2599 Y82.4149 Z-2.35
G81 X65.3549 Y83.6849 Z-2.35
G81 Y86.2249 Z-2.35
G81 X62.8149 Y88.1299 Z-2.35
G81 X65.3549 Y90.0349 Z-2.35
G81 X67.2599 Y91.3049 Z-2.35
G81 X65.3549 Y92.5749 Z-2.35
G81 Y95.1149 Z-2.35
G81 Y97.6549 Z-2.35
G81 Y100.1949 Z-2.35
G81 X62.8149 Z-2.35
G81 X65.3549 Y102.7349 Z-2.35
G81 X67.2599 Y104.0049 Z-2.35
G81 X65.3549 Y105.2749 Z-2.35
G81 Y107.8149 Z-2.35
G81 X62.8149 Y109.7199 Z-2.35
G81 X65.3549 Y111.6249 Z-2.35
G81 X67.2599 Y112.8949 Z-2.35
G81 X65.3549 Y114.1649 Z-2.35
G81 Y116.7049 Z-2.35
G81 Y119.2449 Z-2.35
G81 Y121.7849 Z-2.35
G81 Y124.3249 Z-2.35
G81 Y126.8649 Z-2.35
G81 X67.2599 Y128.1349 Z-2.35
G81 X65.3549 Y129.4049 Z-2.35
G81 X62.8149 Y131.3099 Z-2.35
G81 Y126.2299 Z-2.35
G81 Y123.6899 Z-2.35
G81 X60.9099 Y121.7849 Z-2.35
G81 Y119.2449 Z-2.35
G81 Y116.7049 Z-2.35
G81 X59.0049 Y114.7999 Z-2.35
G81 X52.6549 Y117.9749 Z-2.35
G81 X36.1449 Y116.7049 Z-2.35
G81 Y119.2449 Z-2.35
G81 Y121.7849 Z-2.35
G81 Y124.3249 Z-2.35
G81 Y126.8649 Z-2.35
G81 Y129.4049 Z-2.35
G81 X37.4149 Y133.8499 Z-2.35
G81 X34.8749 Z-2.35
G81 Y138.9299 Z-2.35
G81 X37.4149 Z-2.35
G81 X41.2249 Z-2.35
G81 Y136.3899 Z-2.35
G81 X51.3849 Z-2.35
G81 Y138.9299 Z-2.35
G81 X56.4649 Y142.7399 Z-2.35
G81 X57.7349 Y146.5499 Z-2.35
G81 X56.4649 Y150.3599 Z-2.35
G81 X53.9249 Z-2.35
G81 X55.1949 Y157.3449 Z-2.35
G81 X53.2899 Y158.6149 Z-2.35
G81 Y161.1549 Z-2.35
G81 X55.8299 Z-2.35
G81 X58.3699 Z-2.35
G81 Y158.6149 Z-2.35
G81 X60.9099 Y159.8849 Z-2.35
G81 X67.8949 Y159.2499 Z-2.35
G81 Y156.7099 Z-2.35
G81 Y154.1699 Z-2.35
G81 X69.7999 Y152.8999 Z-2.35
G81 X67.8949 Y151.6299 Z-2.35
G81 Y149.0899 Z-2.35
G81 Y146.5499 Z-2.35
G81 Y144.0099 Z-2.35
G81 Y141.4699 Z-2.35
G81 Y138.9299 Z-2.35
G81 X69.7999 Y137.6599 Z-2.35
G81 X67.8949 Y136.3899 Z-2.35
G81 X69.1649 Y131.3099 Z-2.35
G81 X71.7049 Z-2.35
G81 X72.9749 Y129.4049 Z-2.35
G81 Y126.8649 Z-2.35
G81 Y124.3249 Z-2.35
G81 X75.5149 Z-2.35
G81 Y126.8649 Z-2.35
G81 Y129.4049 Z-2.35
G81 Y132.7069 Z-2.35
G81 Y136.3899 Z-2.35
G81 Y138.9299 Z-2.35
G81 Y141.4699 Z-2.35
G81 X73.6099 Y142.7399 Z-2.35
G81 X75.5149 Y144.0099 Z-2.35
G81 Y146.5499 Z-2.35
G81 Y149.0899 Z-2.35
G81 Y151.6299 Z-2.35
G81 X73.6099 Y152.8999 Z-2.35
G81 X75.5149 Y154.1699 Z-2.35
G81 Y156.7099 Z-2.35
G81 Y159.2499 Z-2.35
G81 Y161.7899 Z-2.35
G81 Y164.3299 Z-2.35
G81 Y166.8699 Z-2.35
G81 Y169.4099 Z-2.35
G81 X70.4349 Z-2.35
G81 X67.8949 Z-2.35
G81 Y166.8699 Z-2.35
G81 Y164.3299 Z-2.35
G81 Y161.7899 Z-2.35
G81 X65.3549 Y166.8699 Z-2.35
G81 X60.9099 Y171.9499 Z-2.35
G81 X60.2749 Y175.1249 Z-2.35
G81 X62.8149 Y177.6649 Z-2.35
G81 Y182.7449 Z-2.35
G81 X67.8949 Y183.3799 Z-2.35
G81 X72.9749 Y182.7449 Z-2.35
G81 Y177.6649 Z-2.35
G81 X75.5149 Y175.1249 Z-2.35
G81 X80.5949 Y177.6649 Z-2.35
G81 X85.6749 Y175.1249 Z-2.35
G81 X88.2149 Y177.6649 Z-2.35
G81 Y182.7449 Z-2.35
G81 X93.9299 Y175.7599 Z-2.35
G81 Y171.9499 Z-2.35
G81 X101.5499 Z-2.35
G81 Y166.8699 Z-2.35
G81 X106.6299 Y164.9649 Z-2.35
G81 X109.1699 Y159.2499 Z-2.35
G81 X106.6299 Y154.1699 Z-2.35
G81 X101.5499 Y159.2499 Z-2.35
G81 X93.9299 Z-2.35
G81 Y154.1699 Z-2.35
G81 X90.7549 Y149.0899 Z-2.35
G81 X87.5799 Z-2.35
G81 Y145.2799 Z-2.35
G81 X90.7549 Z-2.35
G81 X95.2507 Z-2.35
G81 X97.7399 Z-2.35
G81 Y149.0899 Z-2.35
G81 X95.2507 Y138.7775 Z-2.35
G81 X90.7549 Z-2.35
G81 X91.3899 Y136.3899 Z-2.35
G81 X93.2949 Y133.8499 Z-2.35
G81 X87.5799 Y131.9449 Z-2.35
G81 X85.6749 Y129.4049 Z-2.35
G81 Y126.8649 Z-2.35
G81 Y124.3249 Z-2.35
G81 Y121.7849 Z-2.35
G81 Y119.2449 Z-2.35
G81 Y116.7049 Z-2.35
G81 Y114.1649 Z-2.35
G81 Y111.6249 Z-2.35
G81 Y107.8149 Z-2.35
G81 Y105.2749 Z-2.35
G81 Y102.7349 Z-2.35
G81 Y100.1949 Z-2.35
G81 Y97.6549 Z-2.35
G81 Y95.1149 Z-2.35
G81 Y92.5749 Z-2.35
G81 Y90.0349 Z-2.35
G81 Y86.2249 Z-2.35
G81 Y83.6849 Z-2.35
G81 Y81.1449 Z-2.35
G81 Y78.6049 Z-2.35
G81 Y76.0649 Z-2.35
G81 Y73.5249 Z-2.35
G81 Y70.9849 Z-2.35
G81 Y68.4449 Z-2.35
G81 X77.4199 Y65.9049 Z-2.35
G81 X75.5149 Y68.4449 Z-2.35
G81 Y70.9849 Z-2.35
G81 Y73.5249 Z-2.35
G81 X72.9749 Z-2.35
G81 Y70.9849 Z-2.35
G81 Y68.4449 Z-2.35
G81 X76.7849 Y62.0949 Z-2.35
G81 X77.4199 Y54.4749 Z-2.35
G81 X68.5299 Y50.6649 Z-2.35
G81 X65.9899 Z-2.35
G81 X63.4499 Z-2.35
G81 X60.9099 Z-2.35
G81 X58.3699 Z-2.35
G81 X55.8299 Z-2.35
G81 X53.2899 Z-2.35
G81 X55.8299 Y53.2049 Z-2.35
G81 X67.2599 Y54.4749 Z-2.35
G81 X76.1499 Y44.3149 Z-2.35
G81 X96.4699 Y34.1549 Z-2.35
G81 X50.1149 Y35.4249 Z-2.35
G81 X48.2099 Y34.1549 Z-2.35
G81 X43.7649 Y32.8849 Z-2.35
G81 Y35.4249 Z-2.35
G81 Y37.9649 Z-2.35
G81 Y40.5049 Z-2.35
G81 Y43.0449 Z-2.35
G81 Y45.5849 Z-2.35
G81 Y48.1249 Z-2.35
G81 Y50.6649 Z-2.35
G81 X33.6049 Z-2.35
G81 Y53.2049 Z-2.35
G81 Y55.7449 Z-2.35
G81 Y58.2849 Z-2.35
G81 Y60.8249 Z-2.35
G81 Y63.3649 Z-2.35
G81 X36.1449 Y68.4449 Z-2.35
G81 Y70.9849 Z-2.35
G81 Y73.5249 Z-2.35
G81 Y76.0649 Z-2.35
G81 Y78.6049 Z-2.35
G81 Y81.1449 Z-2.35
G81 Y83.6849 Z-2.35
G81 Y86.2249 Z-2.35
G81 Y90.0349 Z-2.35
G81 Y92.5749 Z-2.35
G81 Y95.1149 Z-2.35
G81 Y97.6549 Z-2.35
G81 Y100.1949 Z-2.35
G81 Y102.7349 Z-2.35
G81 Y105.2749 Z-2.35
G81 Y107.8149 Z-2.35
G81 Y111.6249 Z-2.35
G81 Y114.1649 Z-2.35
G81 X52.6549 Y96.3849 Z-2.35
G81 X59.0049 Y93.2099 Z-2.35
G81 X62.8149 Y83.0499 Z-2.35
G81 X69.1649 Y79.8749 Z-2.35
G81 X72.9749 Y81.1449 Z-2.35
G81 Y78.6049 Z-2.35
G81 Y76.0649 Z-2.35
G81 X75.5149 Z-2.35
G81 Y78.6049 Z-2.35
G81 Y81.1449 Z-2.35
G81 Y83.6849 Z-2.35
G81 Y86.2249 Z-2.35
G81 X72.9749 Z-2.35
G81 X71.0699 Y84.9549 Z-2.35
G81 X72.9749 Y83.6849 Z-2.35
G81 Y90.0349 Z-2.35
G81 X75.5149 Z-2.35
G81 Y92.5749 Z-2.35
G81 X72.9749 Z-2.35
G81 X71.0699 Y93.8449 Z-2.35
G81 X72.9749 Y95.1149 Z-2.35
G81 X75.5149 Z-2.35
G81 Y97.6549 Z-2.35
G81 X72.9749 Z-2.35
G81 Y100.1949 Z-2.35
G81 X75.5149 Z-2.35
G81 Y102.7349 Z-2.35
G81 X72.9749 Z-2.35
G81 Y105.2749 Z-2.35
G81 X71.0699 Y106.5449 Z-2.35
G81 X72.9749 Y107.8149 Z-2.35
G81 X75.5149 Z-2.35
G81 Y105.2749 Z-2.35
G81 Y111.6249 Z-2.35
G81 X72.9749 Z-2.35
G81 Y114.1649 Z-2.35
G81 X71.0699 Y115.4349 Z-2.35
G81 X72.9749 Y116.7049 Z-2.35
G81 Y119.2449 Z-2.35
G81 X75.5149 Z-2.35
G81 Y116.7049 Z-2.35
G81 Y114.1649 Z-2.35
G81 Y121.7849 Z-2.35
G81 X72.9749 Z-2.35
G81 X69.1649 Y125.5949 Z-2.35
G81 X80.5949 Y130.0399 Z-2.35
G81 X82.4999 Y133.8499 Z-2.35
G81 X79.9599 Y137.6599 Z-2.35
G81 Y141.4699 Z-2.35
G81 X78.0549 Y144.0099 Z-2.35
G81 X79.9599 Y146.5499 Z-2.35
G81 X87.5799 Y136.3899 Z-2.35
G81 X65.3549 Y150.3599 Z-2.35
G81 Y152.8999 Z-2.35
G81 X61.5449 Y150.3599 Z-2.35
G81 X62.8149 Y146.5499 Z-2.35
G81 X61.5449 Y142.7399 Z-2.35
G81 X50.7499 Y161.1549 Z-2.35
G81 X48.2099 Z-2.35
G81 X45.6699 Z-2.35
G81 X43.1299 Z-2.35
G81 X40.5899 Z-2.35
G81 Y166.2349 Z-2.35
G81 Y168.7749 Z-2.35
G81 X43.1299 Z-2.35
G81 X45.6699 Z-2.35
G81 X48.2099 Z-2.35
G81 X50.7499 Z-2.35
G81 X53.2899 Z-2.35
G81 X55.8299 Z-2.35
G81 X58.3699 Z-2.35
G81 X50.7499 Y171.9499 Z-2.35
G81 X50.1149 Y175.1249 Z-2.35
G81 X47.5749 Y177.6649 Z-2.35
G81 Y182.7449 Z-2.35
G81 X43.1299 Z-2.35
G81 Y186.5549 Z-2.35
G81 X40.5899 Y178.9349 Z-2.35
G81 X32.9699 Z-2.35
G81 X27.2549 Z-2.35
G81 X24.7149 Z-2.35
G81 X22.1749 Z-2.35
G81 Y186.5549 Z-2.35
G81 X24.7149 Z-2.35
G81 X27.2549 Z-2.35
G81 X32.9699 Z-2.35
G81 X55.1949 Y177.6649 Z-2.35
G81 X67.8949 Y173.2199 Z-2.35
G81 X109.1699 Y171.9499 Z-2.35
G81 X69.1649 Y101.4649 Z-2.35
G81 X62.8149 Y104.6399 Z-2.35
G81 X33.6049 Y48.1249 Z-2.35
G81 Y45.5849 Z-2.35
G81 Y43.0449 Z-2.35
G81 Y40.5049 Z-2.35
G81 Y37.9649 Z-2.35
G81 Y35.4249 Z-2.35
G81 Y32.8849 Z-2.35
G81 Y30.3449 Z-2.35
G81 Y27.8049 Z-2.35
G81 Y25.2649 Z-2.35
G81 X43.7649 Z-2.35
G81 Y27.8049 Z-2.35
G81 Y30.3449 Z-2.35
G80
G0 Z3.0
M5
M30
