( Made using CamBam - http://www.cambam.co.uk )
( midi_organ_v0.3.gcode.complete 8/21/2014 12:40:42 PM )
( T0 : 0.0 )
G21 G90 G64 G40
G0 Z3.0
( T0 : 0.0 )
T0 M6
( rotacija )
G17
M3 S1000
G0 X11.0 Y13.0
G0 Z1.0
G1 F300.0 Z-0.6
G1 F1000.0 Y61.0
G1 X13.0
G1 Y104.0
G1 X11.0
G1 Y105.0
G0 Z3.0
G0 Y104.0
G0 Z0.4
G1 F300.0 Z-1.2
G1 F1000.0 Y105.0
G0 Z3.0
G0 X13.0 Y104.0
G0 Z0.4
G1 F300.0 Z-1.2
G1 F1000.0 X11.0
G1 F300.0 Z-1.8
G1 F1000.0 Y105.0
G0 Z3.0
G0 Y61.0
G0 Z0.4
G1 F300.0 Z-1.2
G1 F1000.0 X13.0
G1 Y104.0
G1 F300.0 Z-1.8
G1 F1000.0 X11.0
G1 F300.0 Z-2.35
G1 F1000.0 Y105.0
G0 Z3.0
G0 X13.0 Y61.0
G0 Z-0.2
G1 F300.0 Z-1.8
G1 F1000.0 Y104.0
G1 F300.0 Z-2.35
G1 F1000.0 X11.0
G0 Z3.0
G0 Y107.2
G0 Z1.0
G1 F300.0 Z-0.6
G1 F1000.0 Y164.0
G1 X13.0
G1 Y199.0
G1 X28.0
G1 Y197.0
G1 X51.0
G1 Y199.0
G1 X65.0
G0 Z3.0
G0 X67.2
G0 Z1.0
G1 F300.0 Z-0.6
G1 F1000.0 X93.0
G1 Y197.0
G1 X121.0
G1 Y160.0
G1 X119.0
G1 Y108.0
G1 X121.0
G1 Y107.0
G0 Z3.0
G0 Y108.0
G0 Z0.4
G1 F300.0 Z-1.2
G1 F1000.0 Y107.0
G0 Z3.0
G0 X119.0 Y108.0
G0 Z0.4
G1 F300.0 Z-1.2
G1 F1000.0 X121.0
G1 F300.0 Z-1.8
G1 F1000.0 Y107.0
G0 Z3.0
G0 Y160.0
G0 Z0.4
G1 F300.0 Z-1.2
G1 F1000.0 X119.0
G1 Y108.0
G1 F300.0 Z-1.8
G1 F1000.0 X121.0
G1 F300.0 Z-2.35
G1 F1000.0 Y107.0
G0 Z3.0
G0 X119.0 Y160.0
G0 Z-0.2
G1 F300.0 Z-1.8
G1 F1000.0 Y108.0
G1 F300.0 Z-2.35
G1 F1000.0 X121.0
G0 Z3.0
G0 Y197.0
G0 Z0.4
G1 F300.0 Z-1.2
G1 F1000.0 Y160.0
G1 F300.0 Z-1.8
G1 F1000.0 X119.0
G1 F300.0 Z-2.35
G1 F1000.0 Y108.0
G0 Z3.0
G0 X93.0 Y197.0
G0 Z0.4
G1 F300.0 Z-1.2
G1 F1000.0 X121.0
G1 F300.0 Z-1.8
G1 F1000.0 Y160.0
G1 F300.0 Z-2.35
G1 F1000.0 X119.0
G0 Z3.0
G0 X93.0 Y199.0
G0 Z0.4
G1 F300.0 Z-1.2
G1 F1000.0 Y197.0
G1 F300.0 Z-1.8
G1 F1000.0 X121.0
G1 F300.0 Z-2.35
G1 F1000.0 Y160.0
G0 Z3.0
G0 X67.2 Y199.0
G0 Z0.4
G1 F300.0 Z-1.2
G1 F1000.0 X93.0
G1 F300.0 Z-1.8
G1 F1000.0 Y197.0
G1 F300.0 Z-2.35
G1 F1000.0 X121.0
G0 Z3.0
G0 X67.2 Y199.0
G0 Z-0.2
G1 F300.0 Z-1.8
G1 F1000.0 X93.0
G1 F300.0 Z-2.35
G1 F1000.0 Y197.0
G0 Z3.0
G0 X67.2 Y199.0
G0 Z-0.8
G1 F300.0 Z-2.35
G1 F1000.0 X93.0
G0 Z3.0
G0 X51.0
G0 Z0.4
G1 F300.0 Z-1.2
G1 F1000.0 X65.0
G0 Z3.0
G0 X51.0 Y197.0
G0 Z0.4
G1 F300.0 Z-1.2
G1 F1000.0 Y199.0
G1 F300.0 Z-1.8
G1 F1000.0 X65.0
G0 Z3.0
G0 X28.0
G0 Z0.4
G1 F300.0 Z-1.2
G1 F1000.0 Y197.0
G1 X51.0
G1 F300.0 Z-1.8
G1 F1000.0 Y199.0
G1 F300.0 Z-2.35
G1 F1000.0 X65.0
G0 Z3.0
G0 X28.0 Y197.0
G0 Z-0.2
G1 F300.0 Z-1.8
G1 F1000.0 X51.0
G1 F300.0 Z-2.35
G1 F1000.0 Y199.0
G0 Z3.0
G0 X13.0
G0 Z0.4
G1 F300.0 Z-1.2
G1 F1000.0 X28.0
G1 F300.0 Z-1.8
G1 F1000.0 Y197.0
G1 F300.0 Z-2.35
G1 F1000.0 X51.0
G0 Z3.0
G0 X13.0 Y164.0
G0 Z0.4
G1 F300.0 Z-1.2
G1 F1000.0 Y199.0
G1 F300.0 Z-1.8
G1 F1000.0 X28.0
G1 F300.0 Z-2.35
G1 F1000.0 Y197.0
G0 Z3.0
G0 X11.0 Y164.0
G0 Z0.4
G1 F300.0 Z-1.2
G1 F1000.0 X13.0
G1 F300.0 Z-1.8
G1 F1000.0 Y199.0
G1 F300.0 Z-2.35
G1 F1000.0 X28.0
G0 Z3.0
G0 X11.0 Y107.2
G0 Z0.4
G1 F300.0 Z-1.2
G1 F1000.0 Y164.0
G1 F300.0 Z-1.8
G1 F1000.0 X13.0
G1 F300.0 Z-2.35
G1 F1000.0 Y199.0
G0 Z3.0
G0 X11.0 Y107.2
G0 Z-0.2
G1 F300.0 Z-1.8
G1 F1000.0 Y164.0
G1 F300.0 Z-2.35
G1 F1000.0 X13.0
G0 Z3.0
G0 X11.0 Y107.2
G0 Z-0.8
G1 F300.0 Z-2.35
G1 F1000.0 Y164.0
G0 Z3.0
G0 X121.0 Y104.8
G0 Z1.0
G1 F300.0 Z-0.6
G1 F1000.0 Y57.0
G1 X119.0
G1 Y11.0
G1 X89.0
G1 Y13.0
G1 X55.0
G1 Y11.0
G1 X53.0
G0 Z3.0
G0 X55.0
G0 Z0.4
G1 F300.0 Z-1.2
G1 F1000.0 X53.0
G0 Z3.0
G0 X55.0 Y13.0
G0 Z0.4
G1 F300.0 Z-1.2
G1 F1000.0 Y11.0
G1 F300.0 Z-1.8
G1 F1000.0 X53.0
G0 Z3.0
G0 X89.0
G0 Z0.4
G1 F300.0 Z-1.2
G1 F1000.0 Y13.0
G1 X55.0
G1 F300.0 Z-1.8
G1 F1000.0 Y11.0
G1 F300.0 Z-2.35
G1 F1000.0 X53.0
G0 Z3.0
G0 X89.0 Y13.0
G0 Z-0.2
G1 F300.0 Z-1.8
G1 F1000.0 X55.0
G1 F300.0 Z-2.35
G1 F1000.0 Y11.0
G0 Z3.0
G0 X119.0
G0 Z0.4
G1 F300.0 Z-1.2
G1 F1000.0 X89.0
G1 F300.0 Z-1.8
G1 F1000.0 Y13.0
G1 F300.0 Z-2.35
G1 F1000.0 X55.0
G0 Z3.0
G0 X119.0 Y57.0
G0 Z0.4
G1 F300.0 Z-1.2
G1 F1000.0 Y11.0
G1 F300.0 Z-1.8
G1 F1000.0 X89.0
G1 F300.0 Z-2.35
G1 F1000.0 Y13.0
G0 Z3.0
G0 X121.0 Y57.0
G0 Z0.4
G1 F300.0 Z-1.2
G1 F1000.0 X119.0
G1 F300.0 Z-1.8
G1 F1000.0 Y11.0
G1 F300.0 Z-2.35
G1 F1000.0 X89.0
G0 Z3.0
G0 X121.0 Y104.8
G0 Z0.4
G1 F300.0 Z-1.2
G1 F1000.0 Y57.0
G1 F300.0 Z-1.8
G1 F1000.0 X119.0
G1 F300.0 Z-2.35
G1 F1000.0 Y11.0
G0 Z3.0
G0 X121.0 Y104.8
G0 Z-0.2
G1 F300.0 Z-1.8
G1 F1000.0 Y57.0
G1 F300.0 Z-2.35
G1 F1000.0 X119.0
G0 Z3.0
G0 X121.0 Y104.8
G0 Z-0.8
G1 F300.0 Z-2.35
G1 F1000.0 Y57.0
G0 Z3.0
G0 X50.8 Y11.0
G0 Z1.0
G1 F300.0 Z-0.6
G1 F1000.0 X24.0
G1 Y13.0
G1 X11.0
G1 F300.0 Z-1.2
G1 F1000.0 Y61.0
G1 F300.0 Z-1.8
G1 F1000.0 X13.0
G1 F300.0 Z-2.35
G1 F1000.0 Y104.0
G0 Z3.0
G0 X24.0 Y13.0
G0 Z0.4
G1 F300.0 Z-1.2
G1 F1000.0 X11.0
G1 F300.0 Z-1.8
G1 F1000.0 Y61.0
G1 F300.0 Z-2.35
G1 F1000.0 X13.0
G0 Z3.0
G0 X24.0 Y11.0
G0 Z0.4
G1 F300.0 Z-1.2
G1 F1000.0 Y13.0
G1 F300.0 Z-1.8
G1 F1000.0 X11.0
G1 F300.0 Z-2.35
G1 F1000.0 Y61.0
G0 Z3.0
G0 X50.8 Y11.0
G0 Z0.4
G1 F300.0 Z-1.2
G1 F1000.0 X24.0
G1 F300.0 Z-1.8
G1 F1000.0 Y13.0
G1 F300.0 Z-2.35
G1 F1000.0 X11.0
G0 Z3.0
G0 X50.8 Y11.0
G0 Z-0.2
G1 F300.0 Z-1.8
G1 F1000.0 X24.0
G1 F300.0 Z-2.35
G1 F1000.0 Y13.0
G0 Z3.0
G0 X50.8 Y11.0
G0 Z-0.8
G1 F300.0 Z-2.35
G1 F1000.0 X24.0
G0 Z3.0
M5
M30
