( Made using CamBam - http://www.cambam.co.uk )
( midi_organ_v0.3.gcode.complete 8/21/2014 12:45:25 PM )
( T0 : 0.0 )
G21 G90 G64 G40
G0 Z3.0
( T0 : 0.0 )
T0 M6
( final_cut )
G17
M3 S1000
G0 X18.0 Y20.0
G0 Z1.0
G1 F300.0 Z-0.6
G1 F1000.0 Y105.0
G0 Z3.0
G0 Y107.2
G0 Z1.0
G1 F300.0 Z-0.6
G1 F1000.0 Y192.0
G1 X65.0
G0 Z3.0
G0 X67.2
G0 Z1.0
G1 F300.0 Z-0.6
G1 F1000.0 X114.0
G1 Y107.0
G0 Z3.0
G0 Y104.8
G0 Z1.0
G1 F300.0 Z-0.6
G1 F1000.0 Y20.0
G1 X67.0
G0 Z3.0
G0 X64.8
G0 Z1.0
G1 F300.0 Z-0.6
G1 F1000.0 X18.0
G1 F300.0 Z-1.2
G1 F1000.0 Y105.0
G0 Z3.0
G0 Y107.2
G0 Z0.4
G1 F300.0 Z-1.2
G1 F1000.0 Y192.0
G1 X65.0
G0 Z3.0
G0 X67.2
G0 Z0.4
G1 F300.0 Z-1.2
G1 F1000.0 X114.0
G1 Y107.0
G0 Z3.0
G0 Y104.8
G0 Z0.4
G1 F300.0 Z-1.2
G1 F1000.0 Y20.0
G1 X67.0
G0 Z3.0
G0 X64.8
G0 Z0.4
G1 F300.0 Z-1.2
G1 F1000.0 X18.0
G1 F300.0 Z-1.8
G1 F1000.0 Y105.0
G0 Z3.0
G0 Y107.2
G0 Z-0.2
G1 F300.0 Z-1.8
G1 F1000.0 Y192.0
G1 X65.0
G0 Z3.0
G0 X67.2
G0 Z-0.2
G1 F300.0 Z-1.8
G1 F1000.0 X114.0
G1 Y107.0
G0 Z3.0
G0 Y104.8
G0 Z-0.2
G1 F300.0 Z-1.8
G1 F1000.0 Y20.0
G1 X67.0
G0 Z3.0
G0 X64.8
G0 Z-0.2
G1 F300.0 Z-1.8
G1 F1000.0 X18.0
G1 F300.0 Z-2.35
G1 F1000.0 Y105.0
G0 Z3.0
G0 Y107.2
G0 Z-0.8
G1 F300.0 Z-2.35
G1 F1000.0 Y192.0
G1 X65.0
G0 Z3.0
G0 X67.2
G0 Z-0.8
G1 F300.0 Z-2.35
G1 F1000.0 X114.0
G1 Y107.0
G0 Z3.0
G0 Y104.8
G0 Z-0.8
G1 F300.0 Z-2.35
G1 F1000.0 Y20.0
G1 X67.0
G0 Z3.0
G0 X64.8
G0 Z-0.8
G1 F300.0 Z-2.35
G1 F1000.0 X18.0
G0 Z3.0
M5
M30
