( Made using CamBam - http://www.cambam.co.uk )
( midi_organ_v0.3.gcode.complete 8/21/2014 12:32:45 PM )
( T0 : 0.0 )
G21 G90 G64 G40
G0 Z3.0
( T0 : 0.0 )
T0 M6
( drill-0.8 )
G17
M3 S1000
G0 X20.9251 Y25.2649
G98
G81 X20.9251 Y25.2649 Z-2.35 R3.0 F800.0
G81 Z-2.35
G81 Y27.8049 Z-2.35
G81 Z-2.35
G81 Y30.3449 Z-2.35
G81 Z-2.35
G81 Y32.8849 Z-2.35
G81 Z-2.35
G81 Y35.4249 Z-2.35
G81 Z-2.35
G81 Y37.9649 Z-2.35
G81 Z-2.35
G81 Y40.5049 Z-2.35
G81 Z-2.35
G81 Y43.0449 Z-2.35
G81 Z-2.35
G81 Y45.5849 Z-2.35
G81 Z-2.35
G81 Y48.1249 Z-2.35
G81 Z-2.35
G81 Y50.6649 Z-2.35
G81 Z-2.35
G81 Y53.2049 Z-2.35
G81 Z-2.35
G81 Y55.7449 Z-2.35
G81 Z-2.35
G81 Y58.2849 Z-2.35
G81 Z-2.35
G81 Y60.8249 Z-2.35
G81 Z-2.35
G81 Y63.3649 Z-2.35
G81 Z-2.35
G81 X31.0851 Z-2.35
G81 Z-2.35
G81 Y60.8249 Z-2.35
G81 Z-2.35
G81 Y58.2849 Z-2.35
G81 Z-2.35
G81 Y55.7449 Z-2.35
G81 Z-2.35
G81 Y53.2049 Z-2.35
G81 Z-2.35
G81 Y50.6649 Z-2.35
G81 Z-2.35
G81 Y48.1249 Z-2.35
G81 Z-2.35
G81 Y45.5849 Z-2.35
G81 Z-2.35
G81 Y43.0449 Z-2.35
G81 Z-2.35
G81 Y40.5049 Z-2.35
G81 Z-2.35
G81 Y37.9649 Z-2.35
G81 Z-2.35
G81 Y35.4249 Z-2.35
G81 Z-2.35
G81 Y32.8849 Z-2.35
G81 Z-2.35
G81 Y30.3449 Z-2.35
G81 Z-2.35
G81 Y27.8049 Z-2.35
G81 Z-2.35
G81 Y25.2649 Z-2.35
G81 Z-2.35
G81 X38.0701 Y31.6149 Z-2.35
G81 Z-2.35
G81 X40.6101 Y30.3449 Z-2.35
G81 Z-2.35
G81 X43.1501 Z-2.35
G81 Z-2.35
G81 X45.6901 Z-2.35
G81 Z-2.35
G81 X48.2301 Z-2.35
G81 Z-2.35
G81 X50.7701 Z-2.35
G81 Z-2.35
G81 X53.3101 Z-2.35
G81 Z-2.35
G81 X55.8501 Z-2.35
G81 Z-2.35
G81 X58.3901 Z-2.35
G81 Z-2.35
G81 X60.9301 Z-2.35
G81 Z-2.35
G81 X63.4701 Z-2.35
G81 Z-2.35
G81 X66.0101 Z-2.35
G81 Z-2.35
G81 X68.5501 Z-2.35
G81 Z-2.35
G81 X71.0901 Z-2.35
G81 Z-2.35
G81 X73.6301 Z-2.35
G81 Z-2.35
G81 X76.1701 Z-2.35
G81 Z-2.35
G81 X78.7101 Z-2.35
G81 Z-2.35
G81 X76.1701 Y32.8849 Z-2.35
G81 Z-2.35
G81 X78.7101 Y35.4249 Z-2.35
G81 Z-2.35
G81 Y37.9649 Z-2.35
G81 Z-2.35
G81 X76.1701 Z-2.35
G81 Z-2.35
G81 X73.6301 Z-2.35
G81 Z-2.35
G81 X71.0901 Z-2.35
G81 Z-2.35
G81 X68.5501 Z-2.35
G81 Z-2.35
G81 X66.0101 Z-2.35
G81 Z-2.35
G81 X63.4701 Z-2.35
G81 Z-2.35
G81 X60.9301 Z-2.35
G81 Z-2.35
G81 Y40.5049 Z-2.35
G81 Z-2.35
G81 X63.4701 Y41.7749 Z-2.35
G81 Z-2.35
G81 X66.0101 Z-2.35
G81 Z-2.35
G81 Y46.8549 Z-2.35
G81 Z-2.35
G81 X63.4701 Z-2.35
G81 Z-2.35
G81 X60.9301 Z-2.35
G81 Z-2.35
G81 Y50.6649 Z-2.35
G81 Z-2.35
G81 X58.3901 Z-2.35
G81 Z-2.35
G81 X55.8501 Z-2.35
G81 Z-2.35
G81 X53.3101 Z-2.35
G81 Z-2.35
G81 X50.7701 Z-2.35
G81 Z-2.35
G81 X48.2301 Z-2.35
G81 Z-2.35
G81 X45.6901 Z-2.35
G81 Z-2.35
G81 X43.1501 Z-2.35
G81 Z-2.35
G81 Y53.2049 Z-2.35
G81 Z-2.35
G81 X40.6101 Y50.6649 Z-2.35
G81 Z-2.35
G81 X37.4351 Y52.5699 Z-2.35
G81 Z-2.35
G81 X35.5301 Y54.4749 Z-2.35
G81 Z-2.35
G81 X40.6101 Y55.7449 Z-2.35
G81 Z-2.35
G81 Y58.2849 Z-2.35
G81 Z-2.35
G81 X43.1501 Z-2.35
G81 Z-2.35
G81 X45.6901 Z-2.35
G81 Z-2.35
G81 X48.2301 Z-2.35
G81 Z-2.35
G81 X50.7701 Z-2.35
G81 Z-2.35
G81 X53.3101 Z-2.35
G81 Z-2.35
G81 X55.8501 Z-2.35
G81 Z-2.35
G81 X58.3901 Z-2.35
G81 Z-2.35
G81 X60.9301 Z-2.35
G81 Z-2.35
G81 Y60.8249 Z-2.35
G81 Z-2.35
G81 X63.4701 Y58.2849 Z-2.35
G81 Z-2.35
G81 X66.0101 Z-2.35
G81 Z-2.35
G81 X68.5501 Z-2.35
G81 Z-2.35
G81 X71.0901 Z-2.35
G81 Z-2.35
G81 X73.6301 Z-2.35
G81 Z-2.35
G81 X76.1701 Z-2.35
G81 Z-2.35
G81 X78.7101 Z-2.35
G81 Z-2.35
G81 Y55.7449 Z-2.35
G81 Z-2.35
G81 X81.8851 Z-2.35
G81 Z-2.35
G81 X83.7901 Y54.4749 Z-2.35
G81 Z-2.35
G81 X88.2351 Y53.2049 Z-2.35
G81 Z-2.35
G81 Y55.7449 Z-2.35
G81 Z-2.35
G81 Y58.2849 Z-2.35
G81 Z-2.35
G81 Y60.8249 Z-2.35
G81 Z-2.35
G81 Y63.3649 Z-2.35
G81 Z-2.35
G81 X85.6951 Y68.4449 Z-2.35
G81 Z-2.35
G81 X83.1551 Z-2.35
G81 Z-2.35
G81 Y70.9849 Z-2.35
G81 Z-2.35
G81 X85.6951 Z-2.35
G81 Z-2.35
G81 Y73.5249 Z-2.35
G81 Z-2.35
G81 X83.1551 Z-2.35
G81 Z-2.35
G81 Y76.0649 Z-2.35
G81 Z-2.35
G81 X85.6951 Z-2.35
G81 Z-2.35
G81 Y78.6049 Z-2.35
G81 Z-2.35
G81 X83.1551 Z-2.35
G81 Z-2.35
G81 Y81.1449 Z-2.35
G81 Z-2.35
G81 X81.2501 Y82.4149 Z-2.35
G81 Z-2.35
G81 X83.1551 Y83.6849 Z-2.35
G81 Z-2.35
G81 Y86.2249 Z-2.35
G81 Z-2.35
G81 X85.6951 Z-2.35
G81 Z-2.35
G81 Y83.6849 Z-2.35
G81 Z-2.35
G81 Y81.1449 Z-2.35
G81 Z-2.35
G81 Y90.0349 Z-2.35
G81 Z-2.35
G81 X83.1551 Z-2.35
G81 Z-2.35
G81 X81.2501 Y91.3049 Z-2.35
G81 Z-2.35
G81 X83.1551 Y92.5749 Z-2.35
G81 Z-2.35
G81 Y95.1149 Z-2.35
G81 Z-2.35
G81 X85.6951 Z-2.35
G81 Z-2.35
G81 Y92.5749 Z-2.35
G81 Z-2.35
G81 Y97.6549 Z-2.35
G81 Z-2.35
G81 X83.1551 Z-2.35
G81 Z-2.35
G81 Y100.1949 Z-2.35
G81 Z-2.35
G81 X85.6951 Z-2.35
G81 Z-2.35
G81 Y102.7349 Z-2.35
G81 Z-2.35
G81 X83.1551 Z-2.35
G81 Z-2.35
G81 X81.2501 Y104.0049 Z-2.35
G81 Z-2.35
G81 X83.1551 Y105.2749 Z-2.35
G81 Z-2.35
G81 X85.6951 Z-2.35
G81 Z-2.35
G81 Y107.8149 Z-2.35
G81 Z-2.35
G81 X83.1551 Z-2.35
G81 Z-2.35
G81 Y111.6249 Z-2.35
G81 Z-2.35
G81 X81.2501 Y112.8949 Z-2.35
G81 Z-2.35
G81 X83.1551 Y114.1649 Z-2.35
G81 Z-2.35
G81 X85.6951 Z-2.35
G81 Z-2.35
G81 Y111.6249 Z-2.35
G81 Z-2.35
G81 Y116.7049 Z-2.35
G81 Z-2.35
G81 X83.1551 Z-2.35
G81 Z-2.35
G81 Y119.2449 Z-2.35
G81 Z-2.35
G81 X85.6951 Z-2.35
G81 Z-2.35
G81 Y121.7849 Z-2.35
G81 Z-2.35
G81 X83.1551 Z-2.35
G81 Z-2.35
G81 Y124.3249 Z-2.35
G81 Z-2.35
G81 X85.6951 Z-2.35
G81 Z-2.35
G81 Y126.8649 Z-2.35
G81 Z-2.35
G81 X83.1551 Z-2.35
G81 Z-2.35
G81 Y129.4049 Z-2.35
G81 Z-2.35
G81 X85.6951 Z-2.35
G81 Z-2.35
G81 X79.3451 Y125.5949 Z-2.35
G81 Z-2.35
G81 X77.4401 Y128.1349 Z-2.35
G81 Z-2.35
G81 X75.5351 Y129.4049 Z-2.35
G81 Z-2.35
G81 Y126.8649 Z-2.35
G81 Z-2.35
G81 Y124.3249 Z-2.35
G81 Z-2.35
G81 Y121.7849 Z-2.35
G81 Z-2.35
G81 Y119.2449 Z-2.35
G81 Z-2.35
G81 Y116.7049 Z-2.35
G81 Z-2.35
G81 X77.4401 Y115.4349 Z-2.35
G81 Z-2.35
G81 X75.5351 Y114.1649 Z-2.35
G81 Z-2.35
G81 Y111.6249 Z-2.35
G81 Z-2.35
G81 X72.9951 Y109.7199 Z-2.35
G81 Z-2.35
G81 X75.5351 Y107.8149 Z-2.35
G81 Z-2.35
G81 X77.4401 Y106.5449 Z-2.35
G81 Z-2.35
G81 X75.5351 Y105.2749 Z-2.35
G81 Z-2.35
G81 Y102.7349 Z-2.35
G81 Z-2.35
G81 Y100.1949 Z-2.35
G81 Z-2.35
G81 Y97.6549 Z-2.35
G81 Z-2.35
G81 X72.9951 Z-2.35
G81 Z-2.35
G81 X75.5351 Y95.1149 Z-2.35
G81 Z-2.35
G81 X77.4401 Y93.8449 Z-2.35
G81 Z-2.35
G81 X75.5351 Y92.5749 Z-2.35
G81 Z-2.35
G81 Y90.0349 Z-2.35
G81 Z-2.35
G81 X72.9951 Y88.1299 Z-2.35
G81 Z-2.35
G81 X75.5351 Y86.2249 Z-2.35
G81 Z-2.35
G81 X77.4401 Y84.9549 Z-2.35
G81 Z-2.35
G81 X75.5351 Y83.6849 Z-2.35
G81 Z-2.35
G81 Y81.1449 Z-2.35
G81 Z-2.35
G81 Y78.6049 Z-2.35
G81 Z-2.35
G81 Y76.0649 Z-2.35
G81 Z-2.35
G81 X72.9951 Z-2.35
G81 Z-2.35
G81 X75.5351 Y73.5249 Z-2.35
G81 Z-2.35
G81 Y70.9849 Z-2.35
G81 Z-2.35
G81 X77.4401 Y69.7149 Z-2.35
G81 Z-2.35
G81 X75.5351 Y68.4449 Z-2.35
G81 Z-2.35
G81 X72.9951 Y69.0799 Z-2.35
G81 Z-2.35
G81 Y71.6199 Z-2.35
G81 Z-2.35
G81 X69.1851 Y73.5249 Z-2.35
G81 Z-2.35
G81 X66.6451 Z-2.35
G81 Z-2.35
G81 Y70.9849 Z-2.35
G81 Z-2.35
G81 X64.7401 Y69.7149 Z-2.35
G81 Z-2.35
G81 X66.6451 Y68.4449 Z-2.35
G81 Z-2.35
G81 X72.9951 Y66.5399 Z-2.35
G81 Z-2.35
G81 X79.3451 Y72.2549 Z-2.35
G81 Z-2.35
G81 X69.1851 Y78.6049 Z-2.35
G81 Z-2.35
G81 X66.6451 Z-2.35
G81 Z-2.35
G81 Y76.0649 Z-2.35
G81 Z-2.35
G81 Y81.1449 Z-2.35
G81 Z-2.35
G81 X64.7401 Y82.4149 Z-2.35
G81 Z-2.35
G81 X66.6451 Y83.6849 Z-2.35
G81 Z-2.35
G81 Y86.2249 Z-2.35
G81 Z-2.35
G81 X69.1851 Y88.1299 Z-2.35
G81 Z-2.35
G81 X66.6451 Y90.0349 Z-2.35
G81 Z-2.35
G81 X64.7401 Y91.3049 Z-2.35
G81 Z-2.35
G81 X66.6451 Y92.5749 Z-2.35
G81 Z-2.35
G81 Y95.1149 Z-2.35
G81 Z-2.35
G81 Y97.6549 Z-2.35
G81 Z-2.35
G81 Y100.1949 Z-2.35
G81 Z-2.35
G81 X69.1851 Z-2.35
G81 Z-2.35
G81 X66.6451 Y102.7349 Z-2.35
G81 Z-2.35
G81 X64.7401 Y104.0049 Z-2.35
G81 Z-2.35
G81 X66.6451 Y105.2749 Z-2.35
G81 Z-2.35
G81 Y107.8149 Z-2.35
G81 Z-2.35
G81 X69.1851 Y109.7199 Z-2.35
G81 Z-2.35
G81 X66.6451 Y111.6249 Z-2.35
G81 Z-2.35
G81 X64.7401 Y112.8949 Z-2.35
G81 Z-2.35
G81 X66.6451 Y114.1649 Z-2.35
G81 Z-2.35
G81 Y116.7049 Z-2.35
G81 Z-2.35
G81 Y119.2449 Z-2.35
G81 Z-2.35
G81 Y121.7849 Z-2.35
G81 Z-2.35
G81 Y124.3249 Z-2.35
G81 Z-2.35
G81 Y126.8649 Z-2.35
G81 Z-2.35
G81 X64.7401 Y128.1349 Z-2.35
G81 Z-2.35
G81 X66.6451 Y129.4049 Z-2.35
G81 Z-2.35
G81 X69.1851 Y131.3099 Z-2.35
G81 Z-2.35
G81 Y126.2299 Z-2.35
G81 Z-2.35
G81 Y123.6899 Z-2.35
G81 Z-2.35
G81 X71.0901 Y121.7849 Z-2.35
G81 Z-2.35
G81 Y119.2449 Z-2.35
G81 Z-2.35
G81 Y116.7049 Z-2.35
G81 Z-2.35
G81 X72.9951 Y114.7999 Z-2.35
G81 Z-2.35
G81 X79.3451 Y117.9749 Z-2.35
G81 Z-2.35
G81 X95.8551 Y116.7049 Z-2.35
G81 Z-2.35
G81 Y119.2449 Z-2.35
G81 Z-2.35
G81 Y121.7849 Z-2.35
G81 Z-2.35
G81 Y124.3249 Z-2.35
G81 Z-2.35
G81 Y126.8649 Z-2.35
G81 Z-2.35
G81 Y129.4049 Z-2.35
G81 Z-2.35
G81 X94.5851 Y133.8499 Z-2.35
G81 Z-2.35
G81 X97.1251 Z-2.35
G81 Z-2.35
G81 Y138.9299 Z-2.35
G81 Z-2.35
G81 X94.5851 Z-2.35
G81 Z-2.35
G81 X90.7751 Z-2.35
G81 Z-2.35
G81 Y136.3899 Z-2.35
G81 Z-2.35
G81 X80.6151 Z-2.35
G81 Z-2.35
G81 Y138.9299 Z-2.35
G81 Z-2.35
G81 X75.5351 Y142.7399 Z-2.35
G81 Z-2.35
G81 X74.2651 Y146.5499 Z-2.35
G81 Z-2.35
G81 X75.5351 Y150.3599 Z-2.35
G81 Z-2.35
G81 X78.0751 Z-2.35
G81 Z-2.35
G81 X76.8051 Y157.3449 Z-2.35
G81 Z-2.35
G81 X78.7101 Y158.6149 Z-2.35
G81 Z-2.35
G81 Y161.1549 Z-2.35
G81 Z-2.35
G81 X76.1701 Z-2.35
G81 Z-2.35
G81 X73.6301 Z-2.35
G81 Z-2.35
G81 Y158.6149 Z-2.35
G81 Z-2.35
G81 X71.0901 Y159.8849 Z-2.35
G81 Z-2.35
G81 X64.1051 Y159.2499 Z-2.35
G81 Z-2.35
G81 Y156.7099 Z-2.35
G81 Z-2.35
G81 Y154.1699 Z-2.35
G81 Z-2.35
G81 X62.2001 Y152.8999 Z-2.35
G81 Z-2.35
G81 X64.1051 Y151.6299 Z-2.35
G81 Z-2.35
G81 Y149.0899 Z-2.35
G81 Z-2.35
G81 Y146.5499 Z-2.35
G81 Z-2.35
G81 Y144.0099 Z-2.35
G81 Z-2.35
G81 Y141.4699 Z-2.35
G81 Z-2.35
G81 Y138.9299 Z-2.35
G81 Z-2.35
G81 X62.2001 Y137.6599 Z-2.35
G81 Z-2.35
G81 X64.1051 Y136.3899 Z-2.35
G81 Z-2.35
G81 X62.8351 Y131.3099 Z-2.35
G81 Z-2.35
G81 X60.2951 Z-2.35
G81 Z-2.35
G81 X59.0251 Y129.4049 Z-2.35
G81 Z-2.35
G81 Y126.8649 Z-2.35
G81 Z-2.35
G81 Y124.3249 Z-2.35
G81 Z-2.35
G81 X56.4851 Z-2.35
G81 Z-2.35
G81 Y126.8649 Z-2.35
G81 Z-2.35
G81 Y129.4049 Z-2.35
G81 Z-2.35
G81 Y132.7069 Z-2.35
G81 Z-2.35
G81 Y136.3899 Z-2.35
G81 Z-2.35
G81 Y138.9299 Z-2.35
G81 Z-2.35
G81 Y141.4699 Z-2.35
G81 Z-2.35
G81 X58.3901 Y142.7399 Z-2.35
G81 Z-2.35
G81 X56.4851 Y144.0099 Z-2.35
G81 Z-2.35
G81 Y146.5499 Z-2.35
G81 Z-2.35
G81 Y149.0899 Z-2.35
G81 Z-2.35
G81 Y151.6299 Z-2.35
G81 Z-2.35
G81 X58.3901 Y152.8999 Z-2.35
G81 Z-2.35
G81 X56.4851 Y154.1699 Z-2.35
G81 Z-2.35
G81 Y156.7099 Z-2.35
G81 Z-2.35
G81 Y159.2499 Z-2.35
G81 Z-2.35
G81 Y161.7899 Z-2.35
G81 Z-2.35
G81 Y164.3299 Z-2.35
G81 Z-2.35
G81 Y166.8699 Z-2.35
G81 Z-2.35
G81 Y169.4099 Z-2.35
G81 Z-2.35
G81 X61.5651 Z-2.35
G81 Z-2.35
G81 X64.1051 Z-2.35
G81 Z-2.35
G81 Y166.8699 Z-2.35
G81 Z-2.35
G81 Y164.3299 Z-2.35
G81 Z-2.35
G81 Y161.7899 Z-2.35
G81 Z-2.35
G81 X66.6451 Y166.8699 Z-2.35
G81 Z-2.35
G81 X71.0901 Y171.9499 Z-2.35
G81 Z-2.35
G81 X71.7251 Y175.1249 Z-2.35
G81 Z-2.35
G81 X69.1851 Y177.6649 Z-2.35
G81 Z-2.35
G81 Y182.7449 Z-2.35
G81 Z-2.35
G81 X64.1051 Y183.3799 Z-2.35
G81 Z-2.35
G81 X59.0251 Y182.7449 Z-2.35
G81 Z-2.35
G81 Y177.6649 Z-2.35
G81 Z-2.35
G81 X56.4851 Y175.1249 Z-2.35
G81 Z-2.35
G81 X51.4051 Y177.6649 Z-2.35
G81 Z-2.35
G81 X46.3251 Y175.1249 Z-2.35
G81 Z-2.35
G81 X43.7851 Y177.6649 Z-2.35
G81 Z-2.35
G81 Y182.7449 Z-2.35
G81 Z-2.35
G81 X38.0701 Y175.7599 Z-2.35
G81 Z-2.35
G81 Y171.9499 Z-2.35
G81 Z-2.35
G81 X30.4501 Z-2.35
G81 Z-2.35
G81 Y166.8699 Z-2.35
G81 Z-2.35
G81 X25.3701 Y164.9649 Z-2.35
G81 Z-2.35
G81 X22.8301 Y159.2499 Z-2.35
G81 Z-2.35
G81 X25.3701 Y154.1699 Z-2.35
G81 Z-2.35
G81 X30.4501 Y159.2499 Z-2.35
G81 Z-2.35
G81 X38.0701 Z-2.35
G81 Z-2.35
G81 Y154.1699 Z-2.35
G81 Z-2.35
G81 X41.2451 Y149.0899 Z-2.35
G81 Z-2.35
G81 X44.4201 Z-2.35
G81 Z-2.35
G81 Y145.2799 Z-2.35
G81 Z-2.35
G81 X41.2451 Z-2.35
G81 Z-2.35
G81 X36.7493 Z-2.35
G81 Z-2.35
G81 X34.2601 Z-2.35
G81 Z-2.35
G81 Y149.0899 Z-2.35
G81 Z-2.35
G81 X36.7493 Y138.7775 Z-2.35
G81 Z-2.35
G81 X41.2451 Z-2.35
G81 Z-2.35
G81 X40.6101 Y136.3899 Z-2.35
G81 Z-2.35
G81 X38.7051 Y133.8499 Z-2.35
G81 Z-2.35
G81 X44.4201 Y131.9449 Z-2.35
G81 Z-2.35
G81 X46.3251 Y129.4049 Z-2.35
G81 Z-2.35
G81 Y126.8649 Z-2.35
G81 Z-2.35
G81 Y124.3249 Z-2.35
G81 Z-2.35
G81 Y121.7849 Z-2.35
G81 Z-2.35
G81 Y119.2449 Z-2.35
G81 Z-2.35
G81 Y116.7049 Z-2.35
G81 Z-2.35
G81 Y114.1649 Z-2.35
G81 Z-2.35
G81 Y111.6249 Z-2.35
G81 Z-2.35
G81 Y107.8149 Z-2.35
G81 Z-2.35
G81 Y105.2749 Z-2.35
G81 Z-2.35
G81 Y102.7349 Z-2.35
G81 Z-2.35
G81 Y100.1949 Z-2.35
G81 Z-2.35
G81 Y97.6549 Z-2.35
G81 Z-2.35
G81 Y95.1149 Z-2.35
G81 Z-2.35
G81 Y92.5749 Z-2.35
G81 Z-2.35
G81 Y90.0349 Z-2.35
G81 Z-2.35
G81 Y86.2249 Z-2.35
G81 Z-2.35
G81 Y83.6849 Z-2.35
G81 Z-2.35
G81 Y81.1449 Z-2.35
G81 Z-2.35
G81 Y78.6049 Z-2.35
G81 Z-2.35
G81 Y76.0649 Z-2.35
G81 Z-2.35
G81 Y73.5249 Z-2.35
G81 Z-2.35
G81 Y70.9849 Z-2.35
G81 Z-2.35
G81 Y68.4449 Z-2.35
G81 Z-2.35
G81 X54.5801 Y65.9049 Z-2.35
G81 Z-2.35
G81 X56.4851 Y68.4449 Z-2.35
G81 Z-2.35
G81 X59.0251 Z-2.35
G81 Z-2.35
G81 Y70.9849 Z-2.35
G81 Z-2.35
G81 Y73.5249 Z-2.35
G81 Z-2.35
G81 X56.4851 Z-2.35
G81 Z-2.35
G81 Y70.9849 Z-2.35
G81 Z-2.35
G81 Y76.0649 Z-2.35
G81 Z-2.35
G81 Y78.6049 Z-2.35
G81 Z-2.35
G81 X59.0251 Z-2.35
G81 Z-2.35
G81 Y76.0649 Z-2.35
G81 Z-2.35
G81 Y81.1449 Z-2.35
G81 Z-2.35
G81 X56.4851 Z-2.35
G81 Z-2.35
G81 Y83.6849 Z-2.35
G81 Z-2.35
G81 Y86.2249 Z-2.35
G81 Z-2.35
G81 X59.0251 Z-2.35
G81 Z-2.35
G81 X60.9301 Y84.9549 Z-2.35
G81 Z-2.35
G81 X59.0251 Y83.6849 Z-2.35
G81 Z-2.35
G81 X62.8351 Y79.8749 Z-2.35
G81 Z-2.35
G81 X69.1851 Y83.0499 Z-2.35
G81 Z-2.35
G81 X72.9951 Y93.2099 Z-2.35
G81 Z-2.35
G81 X79.3451 Y96.3849 Z-2.35
G81 Z-2.35
G81 X69.1851 Y104.6399 Z-2.35
G81 Z-2.35
G81 X62.8351 Y101.4649 Z-2.35
G81 Z-2.35
G81 X59.0251 Y100.1949 Z-2.35
G81 Z-2.35
G81 Y97.6549 Z-2.35
G81 Z-2.35
G81 X56.4851 Z-2.35
G81 Z-2.35
G81 Y100.1949 Z-2.35
G81 Z-2.35
G81 Y102.7349 Z-2.35
G81 Z-2.35
G81 Y105.2749 Z-2.35
G81 Z-2.35
G81 X59.0251 Z-2.35
G81 Z-2.35
G81 X60.9301 Y106.5449 Z-2.35
G81 Z-2.35
G81 X59.0251 Y107.8149 Z-2.35
G81 Z-2.35
G81 X56.4851 Z-2.35
G81 Z-2.35
G81 Y111.6249 Z-2.35
G81 Z-2.35
G81 Y114.1649 Z-2.35
G81 Z-2.35
G81 X59.0251 Z-2.35
G81 Z-2.35
G81 X60.9301 Y115.4349 Z-2.35
G81 Z-2.35
G81 X59.0251 Y116.7049 Z-2.35
G81 Z-2.35
G81 Y119.2449 Z-2.35
G81 Z-2.35
G81 X56.4851 Z-2.35
G81 Z-2.35
G81 Y116.7049 Z-2.35
G81 Z-2.35
G81 Y121.7849 Z-2.35
G81 Z-2.35
G81 X59.0251 Z-2.35
G81 Z-2.35
G81 X62.8351 Y125.5949 Z-2.35
G81 Z-2.35
G81 X51.4051 Y130.0399 Z-2.35
G81 Z-2.35
G81 X49.5001 Y133.8499 Z-2.35
G81 Z-2.35
G81 X52.0401 Y137.6599 Z-2.35
G81 Z-2.35
G81 Y141.4699 Z-2.35
G81 Z-2.35
G81 X53.9451 Y144.0099 Z-2.35
G81 Z-2.35
G81 X52.0401 Y146.5499 Z-2.35
G81 Z-2.35
G81 X44.4201 Y136.3899 Z-2.35
G81 Z-2.35
G81 X66.6451 Y150.3599 Z-2.35
G81 Z-2.35
G81 Y152.8999 Z-2.35
G81 Z-2.35
G81 X70.4551 Y150.3599 Z-2.35
G81 Z-2.35
G81 X69.1851 Y146.5499 Z-2.35
G81 Z-2.35
G81 X70.4551 Y142.7399 Z-2.35
G81 Z-2.35
G81 X81.2501 Y161.1549 Z-2.35
G81 Z-2.35
G81 X83.7901 Z-2.35
G81 Z-2.35
G81 X86.3301 Z-2.35
G81 Z-2.35
G81 X88.8701 Z-2.35
G81 Z-2.35
G81 X91.4101 Z-2.35
G81 Z-2.35
G81 Y166.2349 Z-2.35
G81 Z-2.35
G81 Y168.7749 Z-2.35
G81 Z-2.35
G81 X88.8701 Z-2.35
G81 Z-2.35
G81 X86.3301 Z-2.35
G81 Z-2.35
G81 X83.7901 Z-2.35
G81 Z-2.35
G81 X81.2501 Z-2.35
G81 Z-2.35
G81 X78.7101 Z-2.35
G81 Z-2.35
G81 X76.1701 Z-2.35
G81 Z-2.35
G81 X73.6301 Z-2.35
G81 Z-2.35
G81 X81.2501 Y171.9499 Z-2.35
G81 Z-2.35
G81 X81.8851 Y175.1249 Z-2.35
G81 Z-2.35
G81 X84.4251 Y177.6649 Z-2.35
G81 Z-2.35
G81 Y182.7449 Z-2.35
G81 Z-2.35
G81 X88.8701 Z-2.35
G81 Z-2.35
G81 Y186.5549 Z-2.35
G81 Z-2.35
G81 X91.4101 Y178.9349 Z-2.35
G81 Z-2.35
G81 X99.0301 Z-2.35
G81 Z-2.35
G81 X104.7451 Z-2.35
G81 Z-2.35
G81 X107.2851 Z-2.35
G81 Z-2.35
G81 X109.8251 Z-2.35
G81 Z-2.35
G81 Y186.5549 Z-2.35
G81 Z-2.35
G81 X107.2851 Z-2.35
G81 Z-2.35
G81 X104.7451 Z-2.35
G81 Z-2.35
G81 X99.0301 Z-2.35
G81 Z-2.35
G81 X76.8051 Y177.6649 Z-2.35
G81 Z-2.35
G81 X64.1051 Y173.2199 Z-2.35
G81 Z-2.35
G81 X22.8301 Y171.9499 Z-2.35
G81 Z-2.35
G81 X59.0251 Y111.6249 Z-2.35
G81 Z-2.35
G81 Y102.7349 Z-2.35
G81 Z-2.35
G81 Y95.1149 Z-2.35
G81 Z-2.35
G81 X60.9301 Y93.8449 Z-2.35
G81 Z-2.35
G81 X59.0251 Y92.5749 Z-2.35
G81 Z-2.35
G81 X56.4851 Z-2.35
G81 Z-2.35
G81 Y95.1149 Z-2.35
G81 Z-2.35
G81 Y90.0349 Z-2.35
G81 Z-2.35
G81 X59.0251 Z-2.35
G81 Z-2.35
G81 X55.2151 Y62.0949 Z-2.35
G81 Z-2.35
G81 X54.5801 Y54.4749 Z-2.35
G81 Z-2.35
G81 X63.4701 Y50.6649 Z-2.35
G81 Z-2.35
G81 X66.0101 Z-2.35
G81 Z-2.35
G81 X68.5501 Z-2.35
G81 Z-2.35
G81 X71.0901 Z-2.35
G81 Z-2.35
G81 X73.6301 Z-2.35
G81 Z-2.35
G81 X76.1701 Z-2.35
G81 Z-2.35
G81 X78.7101 Z-2.35
G81 Z-2.35
G81 X76.1701 Y53.2049 Z-2.35
G81 Z-2.35
G81 X64.7401 Y54.4749 Z-2.35
G81 Z-2.35
G81 X55.8501 Y44.3149 Z-2.35
G81 Z-2.35
G81 Y37.9649 Z-2.35
G81 Z-2.35
G81 X58.3901 Z-2.35
G81 Z-2.35
G81 X53.3101 Z-2.35
G81 Z-2.35
G81 X50.7701 Z-2.35
G81 Z-2.35
G81 X48.2301 Z-2.35
G81 Z-2.35
G81 X45.6901 Z-2.35
G81 Z-2.35
G81 X43.1501 Z-2.35
G81 Z-2.35
G81 X40.6101 Z-2.35
G81 Z-2.35
G81 Y35.4249 Z-2.35
G81 Z-2.35
G81 X43.1501 Y32.8849 Z-2.35
G81 Z-2.35
G81 X35.5301 Y34.1549 Z-2.35
G81 Z-2.35
G81 X54.5801 Z-2.35
G81 Z-2.35
G81 Y26.5349 Z-2.35
G81 Z-2.35
G81 X57.1201 Z-2.35
G81 Z-2.35
G81 Y23.9949 Z-2.35
G81 Z-2.35
G81 X62.2001 Z-2.35
G81 Z-2.35
G81 Y26.5349 Z-2.35
G81 Z-2.35
G81 X64.7401 Y34.1549 Z-2.35
G81 Z-2.35
G81 X81.8851 Y35.4249 Z-2.35
G81 Z-2.35
G81 X83.7901 Y34.1549 Z-2.35
G81 Z-2.35
G81 X88.2351 Y32.8849 Z-2.35
G81 Z-2.35
G81 Y35.4249 Z-2.35
G81 Z-2.35
G81 Y37.9649 Z-2.35
G81 Z-2.35
G81 Y40.5049 Z-2.35
G81 Z-2.35
G81 Y43.0449 Z-2.35
G81 Z-2.35
G81 Y45.5849 Z-2.35
G81 Z-2.35
G81 Y48.1249 Z-2.35
G81 Z-2.35
G81 Y50.6649 Z-2.35
G81 Z-2.35
G81 X98.3951 Z-2.35
G81 Z-2.35
G81 Y53.2049 Z-2.35
G81 Z-2.35
G81 Y55.7449 Z-2.35
G81 Z-2.35
G81 Y58.2849 Z-2.35
G81 Z-2.35
G81 Y60.8249 Z-2.35
G81 Z-2.35
G81 Y63.3649 Z-2.35
G81 Z-2.35
G81 X95.8551 Y68.4449 Z-2.35
G81 Z-2.35
G81 Y70.9849 Z-2.35
G81 Z-2.35
G81 Y73.5249 Z-2.35
G81 Z-2.35
G81 Y76.0649 Z-2.35
G81 Z-2.35
G81 Y78.6049 Z-2.35
G81 Z-2.35
G81 Y81.1449 Z-2.35
G81 Z-2.35
G81 Y83.6849 Z-2.35
G81 Z-2.35
G81 Y86.2249 Z-2.35
G81 Z-2.35
G81 Y90.0349 Z-2.35
G81 Z-2.35
G81 Y92.5749 Z-2.35
G81 Z-2.35
G81 Y95.1149 Z-2.35
G81 Z-2.35
G81 Y97.6549 Z-2.35
G81 Z-2.35
G81 Y100.1949 Z-2.35
G81 Z-2.35
G81 Y102.7349 Z-2.35
G81 Z-2.35
G81 Y105.2749 Z-2.35
G81 Z-2.35
G81 Y107.8149 Z-2.35
G81 Z-2.35
G81 Y111.6249 Z-2.35
G81 Z-2.35
G81 Y114.1649 Z-2.35
G81 Z-2.35
G81 X98.3951 Y48.1249 Z-2.35
G81 Z-2.35
G81 Y45.5849 Z-2.35
G81 Z-2.35
G81 Y43.0449 Z-2.35
G81 Z-2.35
G81 Y40.5049 Z-2.35
G81 Z-2.35
G81 Y37.9649 Z-2.35
G81 Z-2.35
G81 Y35.4249 Z-2.35
G81 Z-2.35
G81 Y32.8849 Z-2.35
G81 Z-2.35
G81 Y30.3449 Z-2.35
G81 Z-2.35
G81 Y27.8049 Z-2.35
G81 Z-2.35
G81 Y25.2649 Z-2.35
G81 Z-2.35
G81 X88.2351 Z-2.35
G81 Z-2.35
G81 Y27.8049 Z-2.35
G81 Z-2.35
G81 Y30.3449 Z-2.35
G81 Z-2.35
G80
G0 Z3.0
M5
M30
