( Made using CamBam - http://www.cambam.co.uk )
( matrica_8x8.gcode.bottom_multi 6/5/2014 12:39:05 AM )
( T0 : 0.0 )
G21 G90 G64 G40
G0 Z3.0
( T0 : 0.0 )
T0 M6
( rub )
G17
M3 S1000
G0 X-2.0 Y47.0
G0 Z1.0
G1 F300.0 Z-0.6
G1 X222.0
G0 Z3.0
G0 X-2.0
G0 Z0.4
G1 Z-1.2
G1 X222.0
G0 Z3.0
G0 X-2.0
G0 Z-0.2
G1 Z-1.55
G1 X222.0
G0 Z3.0
G0 X-2.0 Y95.0
G0 Z1.0
G1 Z-0.6
G1 X222.0
G0 Z3.0
G0 X-2.0
G0 Z0.4
G1 Z-1.2
G1 X222.0
G0 Z3.0
G0 X-2.0
G0 Z-0.2
G1 Z-1.55
G1 X222.0
G0 Z3.0
G0 X-2.0 Y143.0
G0 Z1.0
G1 Z-0.6
G1 X222.0
G0 Z3.0
G0 X-2.0
G0 Z0.4
G1 Z-1.2
G1 X222.0
G0 Z3.0
G0 X-2.0
G0 Z-0.2
G1 Z-1.55
G1 X222.0
G0 Z3.0
G0 X-2.0 Y191.0
G0 Z1.0
G1 Z-0.6
G1 X222.0
G0 Z3.0
G0 X-2.0
G0 Z0.4
G1 Z-1.2
G1 X222.0
G0 Z3.0
G0 X-2.0
G0 Z-0.2
G1 Z-1.55
G1 X222.0
G0 Z3.0
G0 X-2.0 Y231.0
G0 Z1.0
G1 Z-0.6
G1 X222.0
G0 Z3.0
G0 X-2.0
G0 Z0.4
G1 Z-1.2
G1 X222.0
G0 Z3.0
G0 X-2.0
G0 Z-0.2
G1 Z-1.55
G1 X222.0
G0 Z3.0
M5
M30
