( Made using CamBam - http://www.cambam.co.uk )
( matrica_8x8.gcode.bottom_multi 6/5/2014 12:32:29 AM )
( T0 : 0.0 )
G21 G90 G64 G40
G0 Z3.0
( T0 : 0.0 )
T0 M6
( bottom )
G17
M3 S1000
G0 X38.2693 Y43.307
G0 Z1.275
G1 F300.0 Z-0.125
G1 X38.1 Y43.2223
G1 X25.4 Y30.48
G1 X24.9767 Y30.5223
G1 X24.5957 Y30.4377
G1 X24.13 Y29.972
G1 X22.7753
G1 X22.3097 Y30.4377
G1 X21.971 Y30.5223
G1 X21.7593
G1 X21.4207 Y30.4377
G1 X20.955 Y29.972
G1 X19.6003
G1 X19.1347 Y30.4377
G1 X18.796 Y30.5223
G1 X18.5843
G1 X18.2457 Y30.4377
G1 X17.78 Y29.972
G1 X16.4253
G1 X15.9597 Y30.4377
G1 X15.621 Y30.5223
G1 X15.4093
G1 X15.0707 Y30.4377
G1 X14.605 Y29.972
G1 X13.2503
G1 X12.7847 Y30.4377
G1 X12.446 Y30.5223
G1 X12.2343
G1 X11.8957 Y30.4377
G1 X11.43 Y29.972
G1 X10.0753
G1 X9.6097 Y30.4377
G1 X9.271 Y30.5223
G1 X9.0593
G1 X8.7207 Y30.4377
G1 X8.255 Y29.972
G1 X6.9003
G1 X6.4347 Y30.4377
G1 X6.096 Y30.5223
G1 X5.8843
G1 X5.5457 Y30.4377
G1 X5.08 Y29.972
G1 X3.7253
G1 X3.2597 Y30.4377
G1 X2.921 Y30.5223
G1 X2.7093
G1 X2.3707 Y30.4377
G1 X1.8627 Y29.9297
G1 X1.778 Y29.591
G1 Y29.3793
G1 X1.8627 Y29.0407
G1 X2.3707 Y28.5327
G1 X2.7093 Y28.448
G1 X2.921
G1 X3.2597 Y28.5327
G1 X3.7253 Y28.9983
G1 X5.08
G1 X5.5457 Y28.5327
G1 X5.8843 Y28.448
G1 X6.096
G1 X6.4347 Y28.5327
G1 X6.9003 Y28.9983
G1 X8.255
G1 X8.7207 Y28.5327
G1 X9.0593 Y28.448
G1 X9.271
G1 X9.6097 Y28.5327
G1 X10.0753 Y28.9983
G1 X11.43
G1 X11.8957 Y28.5327
G1 X12.2343 Y28.448
G1 X12.446
G1 X12.7847 Y28.5327
G1 X13.2503 Y28.9983
G1 X14.605
G1 X15.0707 Y28.5327
G1 X15.4093 Y28.448
G1 X15.621
G1 X15.9597 Y28.5327
G1 X16.4253 Y28.9983
G1 X17.78
G1 X18.2457 Y28.5327
G1 X18.5843 Y28.448
G1 X18.796
G1 X19.1347 Y28.5327
G1 X19.6003 Y28.9983
G1 X20.955
G1 X21.4207 Y28.5327
G1 X21.7593 Y28.448
G1 X21.971
G1 X22.3097 Y28.5327
G1 X22.7753 Y28.9983
G1 X24.13
G1 X24.5957 Y28.5327
G1 X24.9343 Y28.448
G1 X25.146
G1 X25.4847 Y28.5327
G1 X25.9927 Y29.0407
G1 X26.0773 Y29.4217
G1 X26.035 Y29.8027
G1 X38.5233 Y42.3333
G1 X212.598
G1 Y42.0793
G1 X212.6827 Y41.7407
G1 X213.1907 Y41.2327
G1 X213.5293 Y41.148
G1 X213.741
G1 X214.0797 Y41.2327
G1 X214.5453 Y41.6983
G1 X215.265
G1 X215.7307 Y41.2327
G1 X216.0693 Y41.148
G1 X216.281
G1 X216.6197 Y41.2327
G1 X217.1277 Y41.7407
G1 X217.2123 Y42.0793
G1 Y42.291
G1 X217.1277 Y42.6297
G1 X216.6197 Y43.1377
G1 X216.281 Y43.2223
G1 X216.0693
G1 X215.7307 Y43.1377
G1 X215.265 Y42.672
G1 X214.5453
G1 X214.0797 Y43.1377
G1 X213.6987 Y43.2223
G1 X213.3177 Y43.18
G1 X213.106 Y43.307
G1 X38.2693
G0 Z3.0
G0 Y50.9633
G0 Z1.275
G1 Z-0.125
G1 X49.53
G1 X49.9957 Y50.4977
G1 X50.3343 Y50.413
G1 X50.546
G1 X50.8847 Y50.4977
G1 X51.3503 Y50.9633
G1 X74.93
G1 X75.3957 Y50.4977
G1 X75.7343 Y50.413
G1 X75.946
G1 X76.2847 Y50.4977
G1 X76.7503 Y50.9633
G1 X100.33
G1 X100.7957 Y50.4977
G1 X101.1343 Y50.413
G1 X101.346
G1 X101.6847 Y50.4977
G1 X102.1503 Y50.9633
G1 X125.73
G1 X126.1957 Y50.4977
G1 X126.5343 Y50.413
G1 X126.746
G1 X127.0847 Y50.4977
G1 X127.5503 Y50.9633
G1 X151.13
G1 X151.5957 Y50.4977
G1 X151.9343 Y50.413
G1 X152.146
G1 X152.4847 Y50.4977
G1 X152.9503 Y50.9633
G1 X176.53
G1 X176.9957 Y50.4977
G1 X177.3343 Y50.413
G1 X177.546
G1 X177.8847 Y50.4977
G1 X178.3503 Y50.9633
G1 X201.93
G1 X202.3957 Y50.4977
G1 X202.7343 Y50.413
G1 X202.946
G1 X203.2847 Y50.4977
G1 X203.7503 Y50.9633
G1 X213.106
G1 X213.3177 Y51.0903
G1 X213.6987 Y51.048
G1 X214.0797 Y51.1327
G1 X214.5453 Y51.5983
G1 X215.265
G1 X215.7307 Y51.1327
G1 X216.0693 Y51.048
G1 X216.281
G1 X216.6197 Y51.1327
G1 X217.1277 Y51.6407
G1 X217.2123 Y51.9793
G1 Y52.191
G1 X217.1277 Y52.5297
G1 X216.6197 Y53.0377
G1 X216.281 Y53.1223
G1 X216.0693
G1 X215.7307 Y53.0377
G1 X215.265 Y52.572
G1 X214.5453
G1 X214.0797 Y53.0377
G1 X213.741 Y53.1223
G1 X213.4447
G1 X213.1907 Y53.0377
G1 X212.6827 Y52.5297
G1 X212.598 Y52.191
G1 Y51.937
G1 X203.7503
G1 X203.2847 Y52.4027
G1 X202.946 Y52.4873
G1 X202.7343
G1 X202.3957 Y52.4027
G1 X201.93 Y51.937
G1 X178.3503
G1 X177.8847 Y52.4027
G1 X177.546 Y52.4873
G1 X177.3343
G1 X176.9957 Y52.4027
G1 X176.53 Y51.937
G1 X152.9503
G1 X152.4847 Y52.4027
G1 X152.146 Y52.4873
G1 X151.9343
G1 X151.5957 Y52.4027
G1 X151.13 Y51.937
G1 X127.5503
G1 X127.0847 Y52.4027
G1 X126.746 Y52.4873
G1 X126.5343
G1 X126.1957 Y52.4027
G1 X125.73 Y51.937
G1 X102.1503
G1 X101.6847 Y52.4027
G1 X101.346 Y52.4873
G1 X101.1343
G1 X100.7957 Y52.4027
G1 X100.33 Y51.937
G1 X76.7503
G1 X76.2847 Y52.4027
G1 X75.946 Y52.4873
G1 X75.7343
G1 X75.3957 Y52.4027
G1 X74.93 Y51.937
G1 X51.3503
G1 X50.8847 Y52.4027
G1 X50.546 Y52.4873
G1 X50.3343
G1 X49.9957 Y52.4027
G1 X49.53 Y51.937
G1 X25.9503
G1 X25.4847 Y52.4027
G1 X25.146 Y52.4873
G1 X24.9343
G1 X24.5957 Y52.4027
G1 X24.0877 Y51.8947
G1 X24.003 Y51.556
G1 Y51.3443
G1 X24.0877 Y51.0057
G1 X24.5957 Y50.4977
G1 X24.9343 Y50.413
G1 X25.146
G1 X25.4847 Y50.4977
G1 X25.9503 Y50.9633
G1 X38.2693
G0 Z3.0
G0 X37.9257 Y52.3379
G0 Z1.275
G1 Z-0.125
G1 X38.1847 Y52.4027
G1 X38.6503 Y52.8683
G1 X62.23
G1 X62.6957 Y52.4027
G1 X63.0343 Y52.318
G1 X63.246
G1 X63.5847 Y52.4027
G1 X64.0503 Y52.8683
G1 X87.63
G1 X88.0957 Y52.4027
G1 X88.4343 Y52.318
G1 X88.646
G1 X88.9847 Y52.4027
G1 X89.4503 Y52.8683
G1 X113.03
G1 X113.4957 Y52.4027
G1 X113.8343 Y52.318
G1 X114.046
G1 X114.3847 Y52.4027
G1 X114.8503 Y52.8683
G1 X138.43
G1 X138.8957 Y52.4027
G1 X139.2343 Y52.318
G1 X139.446
G1 X139.7847 Y52.4027
G1 X140.2503 Y52.8683
G1 X163.83
G1 X164.2957 Y52.4027
G1 X164.6343 Y52.318
G1 X164.846
G1 X165.1847 Y52.4027
G1 X165.6503 Y52.8683
G1 X189.23
G1 X189.6957 Y52.4027
G1 X190.0343 Y52.318
G1 X190.246
G1 X190.5847 Y52.4027
G1 X191.0503 Y52.8683
G1 X212.5557 Y52.9107
G1 X213.3177 Y53.6303
G1 X213.6987 Y53.588
G1 X214.0797 Y53.6727
G1 X214.5453 Y54.1383
G1 X215.265
G1 X215.7307 Y53.6727
G1 X216.0693 Y53.588
G1 X216.281
G1 X216.6197 Y53.6727
G1 X217.1277 Y54.1807
G1 X217.2123 Y54.5193
G1 Y54.731
G1 X217.1277 Y55.0697
G1 X216.6197 Y55.5777
G1 X216.281 Y55.6623
G1 X216.0693
G1 X215.7307 Y55.5777
G1 X215.265 Y55.112
G1 X214.5453
G1 X214.0797 Y55.5777
G1 X213.741 Y55.6623
G1 X213.4447
G1 X213.1907 Y55.5777
G1 X212.6827 Y55.0697
G1 X212.598 Y54.6887
G1 X212.6403 Y54.3077
G1 X212.217 Y53.842
G1 X191.0503
G1 X190.5847 Y54.3077
G1 X190.246 Y54.3923
G1 X190.0343
G1 X189.6957 Y54.3077
G1 X189.23 Y53.842
G1 X165.6503
G1 X165.1847 Y54.3077
G1 X164.846 Y54.3923
G1 X164.6343
G1 X164.2957 Y54.3077
G1 X163.83 Y53.842
G1 X140.2503
G1 X139.7847 Y54.3077
G1 X139.446 Y54.3923
G1 X139.2343
G1 X138.8957 Y54.3077
G1 X138.43 Y53.842
G1 X114.8503
G1 X114.3847 Y54.3077
G1 X114.046 Y54.3923
G1 X113.8343
G1 X113.4957 Y54.3077
G1 X113.03 Y53.842
G1 X89.4503
G1 X88.9847 Y54.3077
G1 X88.646 Y54.3923
G1 X88.4343
G1 X88.0957 Y54.3077
G1 X87.63 Y53.842
G1 X64.0503
G1 X63.5847 Y54.3077
G1 X63.246 Y54.3923
G1 X63.0343
G1 X62.6957 Y54.3077
G1 X62.23 Y53.842
G1 X38.6503
G1 X38.1847 Y54.3077
G1 X37.846 Y54.3923
G1 X37.6343
G1 X37.2957 Y54.3077
G1 X36.83 Y53.842
G1 X13.2503
G1 X12.7847 Y54.3077
G1 X12.446 Y54.3923
G1 X12.2343
G1 X11.8957 Y54.3077
G1 X11.3877 Y53.7997
G1 X11.303 Y53.461
G1 Y53.2493
G1 X11.3877 Y52.9107
G1 X11.8957 Y52.4027
G1 X12.2343 Y52.318
G1 X12.446
G1 X12.7847 Y52.4027
G1 X13.2503 Y52.8683
G1 X36.83
G1 X37.2957 Y52.4027
G1 X37.6343 Y52.318
G1 X37.846
G1 X37.9257 Y52.3379
G0 Z3.0
G0 Y54.7733
G0 Z1.275
G1 Z-0.125
G1 X52.705
G1 X53.1707 Y54.3077
G1 X53.5093 Y54.223
G1 X53.721
G1 X54.0597 Y54.3077
G1 X54.5253 Y54.7733
G1 X78.105
G1 X78.5707 Y54.3077
G1 X78.9093 Y54.223
G1 X79.121
G1 X79.4597 Y54.3077
G1 X79.9253 Y54.7733
G1 X103.505
G1 X103.9707 Y54.3077
G1 X104.3093 Y54.223
G1 X104.521
G1 X104.8597 Y54.3077
G1 X105.3253 Y54.7733
G1 X128.905
G1 X129.3707 Y54.3077
G1 X129.7093 Y54.223
G1 X129.921
G1 X130.2597 Y54.3077
G1 X130.7253 Y54.7733
G1 X154.305
G1 X154.7707 Y54.3077
G1 X155.1093 Y54.223
G1 X155.321
G1 X155.6597 Y54.3077
G1 X156.1253 Y54.7733
G1 X179.705
G1 X180.1707 Y54.3077
G1 X180.5093 Y54.223
G1 X180.721
G1 X181.0597 Y54.3077
G1 X181.5253 Y54.7733
G1 X211.9207 Y54.8157
G1 X213.3177 Y56.1703
G1 X213.6987 Y56.128
G1 X214.0797 Y56.2127
G1 X214.5453 Y56.6783
G1 X215.265
G1 X215.7307 Y56.2127
G1 X216.0693 Y56.128
G1 X216.281
G1 X216.6197 Y56.2127
G1 X217.1277 Y56.7207
G1 X217.2123 Y57.0593
G1 Y57.271
G1 X217.1277 Y57.6097
G1 X216.6197 Y58.1177
G1 X216.281 Y58.2023
G1 X216.0693
G1 X215.7307 Y58.1177
G1 X215.265 Y57.652
G1 X214.5453
G1 X214.0797 Y58.1177
G1 X213.741 Y58.2023
G1 X213.4447
G1 X213.1907 Y58.1177
G1 X212.6827 Y57.6097
G1 X212.598 Y57.2287
G1 X212.6403 Y56.8477
G1 X211.582 Y55.747
G1 X181.5253
G1 X181.0597 Y56.2127
G1 X180.721 Y56.2973
G1 X180.5093
G1 X180.1707 Y56.2127
G1 X179.705 Y55.747
G1 X156.1253
G1 X155.6597 Y56.2127
G1 X155.321 Y56.2973
G1 X155.1093
G1 X154.7707 Y56.2127
G1 X154.305 Y55.747
G1 X130.7253
G1 X130.2597 Y56.2127
G1 X129.921 Y56.2973
G1 X129.7093
G1 X129.3707 Y56.2127
G1 X128.905 Y55.747
G1 X105.3253
G1 X104.8597 Y56.2127
G1 X104.521 Y56.2973
G1 X104.3093
G1 X103.9707 Y56.2127
G1 X103.505 Y55.747
G1 X79.9253
G1 X79.4597 Y56.2127
G1 X79.121 Y56.2973
G1 X78.9093
G1 X78.5707 Y56.2127
G1 X78.105 Y55.747
G1 X54.5253
G1 X54.0597 Y56.2127
G1 X53.721 Y56.2973
G1 X53.5093
G1 X53.1707 Y56.2127
G1 X52.705 Y55.747
G1 X29.1253
G1 X28.6597 Y56.2127
G1 X28.321 Y56.2973
G1 X28.1093
G1 X27.7707 Y56.2127
G1 X27.305 Y55.747
G1 X3.7253
G1 X3.2597 Y56.2127
G1 X2.921 Y56.2973
G1 X2.7093
G1 X2.3707 Y56.2127
G1 X1.8627 Y55.7047
G1 X1.778 Y55.366
G1 Y55.1543
G1 X1.8627 Y54.8157
G1 X2.3707 Y54.3077
G1 X2.7093 Y54.223
G1 X2.921
G1 X3.2597 Y54.3077
G1 X3.7253 Y54.7733
G1 X27.305
G1 X27.7707 Y54.3077
G1 X28.1093 Y54.223
G1 X28.321
G1 X28.6597 Y54.3077
G1 X29.1253 Y54.7733
G1 X37.9257
G0 Z3.0
G0 Y56.6783
G0 Z1.275
G1 Z-0.125
G1 X40.005
G1 X40.4707 Y56.2127
G1 X40.8093 Y56.128
G1 X41.021
G1 X41.3597 Y56.2127
G1 X41.8253 Y56.6783
G1 X65.405
G1 X65.8707 Y56.2127
G1 X66.2093 Y56.128
G1 X66.421
G1 X66.7597 Y56.2127
G1 X67.2253 Y56.6783
G1 X90.805
G1 X91.2707 Y56.2127
G1 X91.6093 Y56.128
G1 X91.821
G1 X92.1597 Y56.2127
G1 X92.6253 Y56.6783
G1 X116.205
G1 X116.6707 Y56.2127
G1 X117.0093 Y56.128
G1 X117.221
G1 X117.5597 Y56.2127
G1 X118.0253 Y56.6783
G1 X141.605
G1 X142.0707 Y56.2127
G1 X142.4093 Y56.128
G1 X142.621
G1 X142.9597 Y56.2127
G1 X143.4253 Y56.6783
G1 X167.005
G1 X167.4707 Y56.2127
G1 X167.8093 Y56.128
G1 X168.021
G1 X168.3597 Y56.2127
G1 X168.8253 Y56.6783
G1 X192.405
G1 X192.8707 Y56.2127
G1 X193.2093 Y56.128
G1 X193.421
G1 X193.7597 Y56.2127
G1 X194.2253 Y56.6783
G1 X211.2857 Y56.7207
G1 X213.3177 Y58.7103
G1 X213.6987 Y58.668
G1 X214.0797 Y58.7527
G1 X214.5453 Y59.2183
G1 X215.265
G1 X215.7307 Y58.7527
G1 X216.0693 Y58.668
G1 X216.281
G1 X216.6197 Y58.7527
G1 X217.1277 Y59.2607
G1 X217.2123 Y59.5993
G1 Y59.811
G1 X217.1277 Y60.1497
G1 X216.6197 Y60.6577
G1 X216.281 Y60.7423
G1 X216.0693
G1 X215.7307 Y60.6577
G1 X215.265 Y60.192
G1 X214.5453
G1 X214.0797 Y60.6577
G1 X213.741 Y60.7423
G1 X213.4447
G1 X213.1907 Y60.6577
G1 X212.6827 Y60.1497
G1 X212.598 Y59.7687
G1 X212.6403 Y59.3877
G1 X210.947 Y57.652
G1 X194.2253
G1 X193.7597 Y58.1177
G1 X193.421 Y58.2023
G1 X193.2093
G1 X192.8707 Y58.1177
G1 X192.405 Y57.652
G1 X168.8253
G1 X168.3597 Y58.1177
G1 X168.021 Y58.2023
G1 X167.8093
G1 X167.4707 Y58.1177
G1 X167.005 Y57.652
G1 X143.4253
G1 X142.9597 Y58.1177
G1 X142.621 Y58.2023
G1 X142.4093
G1 X142.0707 Y58.1177
G1 X141.605 Y57.652
G1 X118.0253
G1 X117.5597 Y58.1177
G1 X117.221 Y58.2023
G1 X117.0093
G1 X116.6707 Y58.1177
G1 X116.205 Y57.652
G1 X92.6253
G1 X92.1597 Y58.1177
G1 X91.821 Y58.2023
G1 X91.6093
G1 X91.2707 Y58.1177
G1 X90.805 Y57.652
G1 X67.2253
G1 X66.7597 Y58.1177
G1 X66.421 Y58.2023
G1 X66.2093
G1 X65.8707 Y58.1177
G1 X65.405 Y57.652
G1 X41.8253
G1 X41.3597 Y58.1177
G1 X41.021 Y58.2023
G1 X40.8093
G1 X40.4707 Y58.1177
G1 X40.005 Y57.652
G1 X16.4253
G1 X15.9597 Y58.1177
G1 X15.621 Y58.2023
G1 X15.4093
G1 X15.0707 Y58.1177
G1 X14.5627 Y57.6097
G1 X14.478 Y57.271
G1 Y57.0593
G1 X14.5627 Y56.7207
G1 X15.0707 Y56.2127
G1 X15.4093 Y56.128
G1 X15.621
G1 X15.9597 Y56.2127
G1 X16.4253 Y56.6783
G1 X37.9257
G0 Z3.0
G0 Y58.5833
G0 Z1.275
G1 Z-0.125
G1 X55.88
G1 X56.3457 Y58.1177
G1 X56.6843 Y58.033
G1 X56.896
G1 X57.2347 Y58.1177
G1 X57.7003 Y58.5833
G1 X81.28
G1 X81.7457 Y58.1177
G1 X82.0843 Y58.033
G1 X82.296
G1 X82.6347 Y58.1177
G1 X83.1003 Y58.5833
G1 X106.68
G1 X107.1457 Y58.1177
G1 X107.4843 Y58.033
G1 X107.696
G1 X108.0347 Y58.1177
G1 X108.5003 Y58.5833
G1 X132.08
G1 X132.5457 Y58.1177
G1 X132.8843 Y58.033
G1 X133.096
G1 X133.4347 Y58.1177
G1 X133.9003 Y58.5833
G1 X157.48
G1 X157.9457 Y58.1177
G1 X158.2843 Y58.033
G1 X158.496
G1 X158.8347 Y58.1177
G1 X159.3003 Y58.5833
G1 X182.88
G1 X183.3457 Y58.1177
G1 X183.6843 Y58.033
G1 X183.896
G1 X184.2347 Y58.1177
G1 X184.7003 Y58.5833
G1 X210.6507 Y58.6257
G1 X213.3177 Y61.2503
G1 X213.6987 Y61.208
G1 X214.0797 Y61.2927
G1 X214.5453 Y61.7583
G1 X215.265
G1 X215.7307 Y61.2927
G1 X216.0693 Y61.208
G1 X216.281
G1 X216.6197 Y61.2927
G1 X217.1277 Y61.8007
G1 X217.2123 Y62.1393
G1 Y62.351
G1 X217.1277 Y62.6897
G1 X216.6197 Y63.1977
G1 X216.281 Y63.2823
G1 X216.0693
G1 X215.7307 Y63.1977
G1 X215.265 Y62.732
G1 X214.5453
G1 X214.0797 Y63.1977
G1 X213.741 Y63.2823
G1 X213.4447
G1 X213.1907 Y63.1977
G1 X212.6827 Y62.6897
G1 X212.598 Y62.3087
G1 X212.6403 Y61.9277
G1 X210.312 Y59.557
G1 X184.7003
G1 X184.2347 Y60.0227
G1 X183.896 Y60.1073
G1 X183.6843
G1 X183.3457 Y60.0227
G1 X182.88 Y59.557
G1 X159.3003
G1 X158.8347 Y60.0227
G1 X158.496 Y60.1073
G1 X158.2843
G1 X157.9457 Y60.0227
G1 X157.48 Y59.557
G1 X133.9003
G1 X133.4347 Y60.0227
G1 X133.096 Y60.1073
G1 X132.8843
G1 X132.5457 Y60.0227
G1 X132.08 Y59.557
G1 X108.5003
G1 X108.0347 Y60.0227
G1 X107.696 Y60.1073
G1 X107.4843
G1 X107.1457 Y60.0227
G1 X106.68 Y59.557
G1 X83.1003
G1 X82.6347 Y60.0227
G1 X82.296 Y60.1073
G1 X82.0843
G1 X81.7457 Y60.0227
G1 X81.28 Y59.557
G1 X57.7003
G1 X57.2347 Y60.0227
G1 X56.896 Y60.1073
G1 X56.6843
G1 X56.3457 Y60.0227
G1 X55.88 Y59.557
G1 X32.3003
G1 X31.8347 Y60.0227
G1 X31.496 Y60.1073
G1 X31.2843
G1 X30.9457 Y60.0227
G1 X30.48 Y59.557
G1 X6.9003
G1 X6.4347 Y60.0227
G1 X6.096 Y60.1073
G1 X5.8843
G1 X5.5457 Y60.0227
G1 X5.0377 Y59.5147
G1 X4.953 Y59.176
G1 Y58.9643
G1 X5.0377 Y58.6257
G1 X5.5457 Y58.1177
G1 X5.8843 Y58.033
G1 X6.096
G1 X6.4347 Y58.1177
G1 X6.9003 Y58.5833
G1 X30.48
G1 X30.9457 Y58.1177
G1 X31.2843 Y58.033
G1 X31.496
G1 X31.8347 Y58.1177
G1 X32.3003 Y58.5833
G1 X37.9257
G0 Z3.0
G0 Y60.4883
G0 Z1.275
G1 Z-0.125
G1 X43.18
G1 X43.6457 Y60.0227
G1 X43.9843 Y59.938
G1 X44.196
G1 X44.5347 Y60.0227
G1 X45.0003 Y60.4883
G1 X68.58
G1 X69.0457 Y60.0227
G1 X69.3843 Y59.938
G1 X69.596
G1 X69.9347 Y60.0227
G1 X70.4003 Y60.4883
G1 X93.98
G1 X94.4457 Y60.0227
G1 X94.7843 Y59.938
G1 X94.996
G1 X95.3347 Y60.0227
G1 X95.8003 Y60.4883
G1 X119.38
G1 X119.8457 Y60.0227
G1 X120.1843 Y59.938
G1 X120.396
G1 X120.7347 Y60.0227
G1 X121.2003 Y60.4883
G1 X144.78
G1 X145.2457 Y60.0227
G1 X145.5843 Y59.938
G1 X145.796
G1 X146.1347 Y60.0227
G1 X146.6003 Y60.4883
G1 X170.18
G1 X170.6457 Y60.0227
G1 X170.9843 Y59.938
G1 X171.196
G1 X171.5347 Y60.0227
G1 X172.0003 Y60.4883
G1 X195.58
G1 X196.0457 Y60.0227
G1 X196.3843 Y59.938
G1 X196.596
G1 X196.9347 Y60.0227
G1 X197.4003 Y60.4883
G1 X210.0157 Y60.5307
G1 X213.3177 Y63.7903
G1 X213.6987 Y63.748
G1 X214.0797 Y63.8327
G1 X214.5453 Y64.2983
G1 X215.265
G1 X215.7307 Y63.8327
G1 X216.0693 Y63.748
G1 X216.281
G1 X216.6197 Y63.8327
G1 X217.1277 Y64.3407
G1 X217.2123 Y64.6793
G1 Y64.891
G1 X217.1277 Y65.2297
G1 X216.6197 Y65.7377
G1 X216.281 Y65.8223
G1 X216.0693
G1 X215.7307 Y65.7377
G1 X215.265 Y65.272
G1 X214.5453
G1 X214.0797 Y65.7377
G1 X213.741 Y65.8223
G1 X213.4447
G1 X213.1907 Y65.7377
G1 X212.6827 Y65.2297
G1 X212.598 Y64.8487
G1 X212.6403 Y64.4677
G1 X209.677 Y61.462
G1 X197.4003
G1 X196.9347 Y61.9277
G1 X196.596 Y62.0123
G1 X196.3843
G1 X196.0457 Y61.9277
G1 X195.58 Y61.462
G1 X172.0003
G1 X171.5347 Y61.9277
G1 X171.196 Y62.0123
G1 X170.9843
G1 X170.6457 Y61.9277
G1 X170.18 Y61.462
G1 X146.6003
G1 X146.1347 Y61.9277
G1 X145.796 Y62.0123
G1 X145.5843
G1 X145.2457 Y61.9277
G1 X144.78 Y61.462
G1 X121.2003
G1 X120.7347 Y61.9277
G1 X120.396 Y62.0123
G1 X120.1843
G1 X119.8457 Y61.9277
G1 X119.38 Y61.462
G1 X95.8003
G1 X95.3347 Y61.9277
G1 X94.996 Y62.0123
G1 X94.7843
G1 X94.4457 Y61.9277
G1 X93.98 Y61.462
G1 X70.4003
G1 X69.9347 Y61.9277
G1 X69.596 Y62.0123
G1 X69.3843
G1 X69.0457 Y61.9277
G1 X68.58 Y61.462
G1 X45.0003
G1 X44.5347 Y61.9277
G1 X44.196 Y62.0123
G1 X43.9843
G1 X43.6457 Y61.9277
G1 X43.18 Y61.462
G1 X19.6003
G1 X19.1347 Y61.9277
G1 X18.796 Y62.0123
G1 X18.5843
G1 X18.2457 Y61.9277
G1 X17.7377 Y61.4197
G1 X17.653 Y61.081
G1 Y60.8693
G1 X17.7377 Y60.5307
G1 X18.2457 Y60.0227
G1 X18.5843 Y59.938
G1 X18.796
G1 X19.1347 Y60.0227
G1 X19.6003 Y60.4883
G1 X37.9257
G0 Z3.0
G0 Y62.3933
G0 Z1.275
G1 Z-0.125
G1 X59.055
G1 X59.5207 Y61.9277
G1 X59.8593 Y61.843
G1 X60.071
G1 X60.4097 Y61.9277
G1 X60.8753 Y62.3933
G1 X84.455
G1 X84.9207 Y61.9277
G1 X85.2593 Y61.843
G1 X85.471
G1 X85.8097 Y61.9277
G1 X86.2753 Y62.3933
G1 X109.855
G1 X110.3207 Y61.9277
G1 X110.6593 Y61.843
G1 X110.871
G1 X111.2097 Y61.9277
G1 X111.6753 Y62.3933
G1 X135.255
G1 X135.7207 Y61.9277
G1 X136.0593 Y61.843
G1 X136.271
G1 X136.6097 Y61.9277
G1 X137.0753 Y62.3933
G1 X160.655
G1 X161.1207 Y61.9277
G1 X161.4593 Y61.843
G1 X161.671
G1 X162.0097 Y61.9277
G1 X162.4753 Y62.3933
G1 X186.055
G1 X186.5207 Y61.9277
G1 X186.8593 Y61.843
G1 X187.071
G1 X187.4097 Y61.9277
G1 X187.8753 Y62.3933
G1 X209.3807 Y62.4357
G1 X213.3177 Y66.3303
G1 X213.6987 Y66.288
G1 X214.0797 Y66.3727
G1 X214.5453 Y66.8383
G1 X215.265
G1 X215.7307 Y66.3727
G1 X216.0693 Y66.288
G1 X216.281
G1 X216.6197 Y66.3727
G1 X217.1277 Y66.8807
G1 X217.2123 Y67.2193
G1 Y67.431
G1 X217.1277 Y67.7697
G1 X216.6197 Y68.2777
G1 X216.281 Y68.3623
G1 X216.0693
G1 X215.7307 Y68.2777
G1 X215.265 Y67.812
G1 X214.5453
G1 X214.0797 Y68.2777
G1 X213.741 Y68.3623
G1 X213.4447
G1 X213.1907 Y68.2777
G1 X212.6827 Y67.7697
G1 X212.598 Y67.3887
G1 X212.6403 Y67.0077
G1 X209.042 Y63.367
G1 X187.8753
G1 X187.4097 Y63.8327
G1 X187.071 Y63.9173
G1 X186.8593
G1 X186.5207 Y63.8327
G1 X186.055 Y63.367
G1 X162.4753
G1 X162.0097 Y63.8327
G1 X161.671 Y63.9173
G1 X161.4593
G1 X161.1207 Y63.8327
G1 X160.655 Y63.367
G1 X137.0753
G1 X136.6097 Y63.8327
G1 X136.271 Y63.9173
G1 X136.0593
G1 X135.7207 Y63.8327
G1 X135.255 Y63.367
G1 X111.6753
G1 X111.2097 Y63.8327
G1 X110.871 Y63.9173
G1 X110.6593
G1 X110.3207 Y63.8327
G1 X109.855 Y63.367
G1 X86.2753
G1 X85.8097 Y63.8327
G1 X85.471 Y63.9173
G1 X85.2593
G1 X84.9207 Y63.8327
G1 X84.455 Y63.367
G1 X60.8753
G1 X60.4097 Y63.8327
G1 X60.071 Y63.9173
G1 X59.8593
G1 X59.5207 Y63.8327
G1 X59.055 Y63.367
G1 X35.4753
G1 X35.0097 Y63.8327
G1 X34.671 Y63.9173
G1 X34.4593
G1 X34.1207 Y63.8327
G1 X33.655 Y63.367
G1 X10.0753
G1 X9.6097 Y63.8327
G1 X9.271 Y63.9173
G1 X9.0593
G1 X8.7207 Y63.8327
G1 X8.2127 Y63.3247
G1 X8.128 Y62.986
G1 Y62.7743
G1 X8.2127 Y62.4357
G1 X8.7207 Y61.9277
G1 X9.0593 Y61.843
G1 X9.271
G1 X9.6097 Y61.9277
G1 X10.0753 Y62.3933
G1 X33.655
G1 X34.1207 Y61.9277
G1 X34.4593 Y61.843
G1 X34.671
G1 X35.0097 Y61.9277
G1 X35.4753 Y62.3933
G1 X37.9257
G0 Z3.0
G0 Y64.2983
G0 Z1.275
G1 Z-0.125
G1 X46.355
G1 X46.8207 Y63.8327
G1 X47.1593 Y63.748
G1 X47.371
G1 X47.7097 Y63.8327
G1 X48.1753 Y64.2983
G1 X71.755
G1 X72.2207 Y63.8327
G1 X72.5593 Y63.748
G1 X72.771
G1 X73.1097 Y63.8327
G1 X73.5753 Y64.2983
G1 X97.155
G1 X97.6207 Y63.8327
G1 X97.9593 Y63.748
G1 X98.171
G1 X98.5097 Y63.8327
G1 X98.9753 Y64.2983
G1 X122.555
G1 X123.0207 Y63.8327
G1 X123.3593 Y63.748
G1 X123.571
G1 X123.9097 Y63.8327
G1 X124.3753 Y64.2983
G1 X147.955
G1 X148.4207 Y63.8327
G1 X148.7593 Y63.748
G1 X148.971
G1 X149.3097 Y63.8327
G1 X149.7753 Y64.2983
G1 X173.355
G1 X173.8207 Y63.8327
G1 X174.1593 Y63.748
G1 X174.371
G1 X174.7097 Y63.8327
G1 X175.1753 Y64.2983
G1 X198.755
G1 X199.2207 Y63.8327
G1 X199.5593 Y63.748
G1 X199.771
G1 X200.1097 Y63.8327
G1 X200.5753 Y64.2983
G1 X208.7457 Y64.3407
G1 X213.233 Y68.7857
G1 X214.7147
G1 Y69.3783
G1 X215.0957
G1 Y68.7857
G1 X217.2547
G1 Y70.9447
G1 X215.0957
G1 Y70.352
G1 X214.7147
G1 Y70.9447
G1 X212.5557
G1 Y69.4207
G1 X208.3647 Y65.272
G1 X200.5753
G1 X200.1097 Y65.7377
G1 X199.771 Y65.8223
G1 X199.5593
G1 X199.2207 Y65.7377
G1 X198.755 Y65.272
G1 X175.1753
G1 X174.7097 Y65.7377
G1 X174.371 Y65.8223
G1 X174.1593
G1 X173.8207 Y65.7377
G1 X173.355 Y65.272
G1 X149.7753
G1 X149.3097 Y65.7377
G1 X148.971 Y65.8223
G1 X148.7593
G1 X148.4207 Y65.7377
G1 X147.955 Y65.272
G1 X124.3753
G1 X123.9097 Y65.7377
G1 X123.571 Y65.8223
G1 X123.3593
G1 X123.0207 Y65.7377
G1 X122.555 Y65.272
G1 X98.9753
G1 X98.5097 Y65.7377
G1 X98.171 Y65.8223
G1 X97.9593
G1 X97.6207 Y65.7377
G1 X97.155 Y65.272
G1 X73.5753
G1 X73.1097 Y65.7377
G1 X72.771 Y65.8223
G1 X72.5593
G1 X72.2207 Y65.7377
G1 X71.755 Y65.272
G1 X48.1753
G1 X47.7097 Y65.7377
G1 X47.371 Y65.8223
G1 X47.1593
G1 X46.8207 Y65.7377
G1 X46.355 Y65.272
G1 X22.7753
G1 X22.3097 Y65.7377
G1 X21.971 Y65.8223
G1 X21.7593
G1 X21.4207 Y65.7377
G1 X20.9127 Y65.2297
G1 X20.828 Y64.891
G1 Y64.6793
G1 X20.9127 Y64.3407
G1 X21.4207 Y63.8327
G1 X21.7593 Y63.748
G1 X21.971
G1 X22.3097 Y63.8327
G1 X22.7753 Y64.2983
G1 X37.9257
G0 Z3.0
G0 X37.846 Y71.368
G0 Z1.275
G1 Z-0.125
G1 X38.1847 Y71.4527
G1 X38.6927 Y71.9607
G1 X38.7773 Y72.2993
G1 Y72.511
G1 X38.6927 Y72.8497
G1 X38.227 Y73.3153
G1 Y74.035
G1 X38.6927 Y74.5007
G1 X38.7773 Y74.8393
G1 Y75.051
G1 X38.6927 Y75.3897
G1 X38.1847 Y75.8977
G1 X37.846 Y75.9823
G1 X37.5497
G1 X37.2957 Y75.8977
G1 X36.7877 Y75.3897
G1 X36.703 Y75.051
G1 Y74.8393
G1 X36.7877 Y74.5007
G1 X37.2533 Y74.035
G1 Y73.3153
G1 X36.7877 Y72.8497
G1 X36.703 Y72.511
G1 Y72.2993
G1 X36.7877 Y71.9607
G1 X37.2957 Y71.4527
G1 X37.6343 Y71.368
G1 X37.846
G0 Z3.0
G0 X39.9627 Y71.9607
G0 Z1.275
G1 Z-0.125
G1 X40.4707 Y71.4527
G1 X40.8093 Y71.368
G1 X41.021
G1 X41.3597 Y71.4527
G1 X41.8677 Y71.9607
G1 X41.9523 Y72.2993
G1 Y72.511
G1 X41.8677 Y72.8497
G1 X41.402 Y73.3153
G1 Y74.035
G1 X41.8677 Y74.5007
G1 X41.9523 Y74.8393
G1 Y75.051
G1 X41.8677 Y75.3897
G1 X41.3597 Y75.8977
G1 X41.021 Y75.9823
G1 X40.7247
G1 X40.4707 Y75.8977
G1 X39.9627 Y75.3897
G1 X39.878 Y75.051
G1 Y74.8393
G1 X39.9627 Y74.5007
G1 X40.4283 Y74.035
G1 Y73.3153
G1 X39.9627 Y72.8497
G1 X39.878 Y72.511
G1 Y72.2993
G1 X39.9627 Y71.9607
G0 Z3.0
G0 X43.053 Y72.2993
G0 Z1.275
G1 Z-0.125
G1 X43.1377 Y71.9607
G1 X43.6457 Y71.4527
G1 X43.9843 Y71.368
G1 X44.196
G1 X44.5347 Y71.4527
G1 X45.0427 Y71.9607
G1 X45.1273 Y72.2993
G1 Y72.511
G1 X45.0427 Y72.8497
G1 X44.577 Y73.3153
G1 Y74.035
G1 X45.0427 Y74.5007
G1 X45.1273 Y74.8393
G1 Y75.051
G1 X45.0427 Y75.3897
G1 X44.5347 Y75.8977
G1 X44.196 Y75.9823
G1 X43.8997
G1 X43.6457 Y75.8977
G1 X43.1377 Y75.3897
G1 X43.053 Y75.051
G1 Y74.8393
G1 X43.1377 Y74.5007
G1 X43.6033 Y74.035
G1 Y73.3153
G1 X43.1377 Y72.8497
G1 X43.053 Y72.511
G1 Y72.2993
G0 Z3.0
G0 X46.228
G0 Z1.275
G1 Z-0.125
G1 X46.3127 Y71.9607
G1 X46.8207 Y71.4527
G1 X47.1593 Y71.368
G1 X47.371
G1 X47.7097 Y71.4527
G1 X48.2177 Y71.9607
G1 X48.3023 Y72.2993
G1 Y72.511
G1 X48.2177 Y72.8497
G1 X47.752 Y73.3153
G1 Y74.035
G1 X48.2177 Y74.5007
G1 X48.3023 Y74.8393
G1 Y75.051
G1 X48.2177 Y75.3897
G1 X47.7097 Y75.8977
G1 X47.371 Y75.9823
G1 X47.0747
G1 X46.8207 Y75.8977
G1 X46.3127 Y75.3897
G1 X46.228 Y75.051
G1 Y74.8393
G1 X46.3127 Y74.5007
G1 X46.7783 Y74.035
G1 Y73.3153
G1 X46.3127 Y72.8497
G1 X46.228 Y72.511
G1 Y72.2993
G0 Z3.0
G0 X49.403
G0 Z1.275
G1 Z-0.125
G1 X49.4877 Y71.9607
G1 X49.9957 Y71.4527
G1 X50.3343 Y71.368
G1 X50.546
G1 X50.8847 Y71.4527
G1 X51.3927 Y71.9607
G1 X51.4773 Y72.2993
G1 Y72.511
G1 X51.3927 Y72.8497
G1 X50.927 Y73.3153
G1 Y74.035
G1 X51.3927 Y74.5007
G1 X51.4773 Y74.8393
G1 Y75.051
G1 X51.3927 Y75.3897
G1 X50.8847 Y75.8977
G1 X50.546 Y75.9823
G1 X50.2497
G1 X49.9957 Y75.8977
G1 X49.4877 Y75.3897
G1 X49.403 Y75.051
G1 Y74.8393
G1 X49.4877 Y74.5007
G1 X49.9533 Y74.035
G1 Y73.3153
G1 X49.4877 Y72.8497
G1 X49.403 Y72.511
G1 Y72.2993
G0 Z3.0
G0 X52.578
G0 Z1.275
G1 Z-0.125
G1 X52.6627 Y71.9607
G1 X53.1707 Y71.4527
G1 X53.5093 Y71.368
G1 X53.721
G1 X54.0597 Y71.4527
G1 X54.5677 Y71.9607
G1 X54.6523 Y72.2993
G1 Y72.511
G1 X54.5677 Y72.8497
G1 X54.102 Y73.3153
G1 Y74.035
G1 X54.5677 Y74.5007
G1 X54.6523 Y74.8393
G1 Y75.051
G1 X54.5677 Y75.3897
G1 X54.0597 Y75.8977
G1 X53.721 Y75.9823
G1 X53.4247
G1 X53.1707 Y75.8977
G1 X52.6627 Y75.3897
G1 X52.578 Y75.051
G1 Y74.8393
G1 X52.6627 Y74.5007
G1 X53.1283 Y74.035
G1 Y73.3153
G1 X52.6627 Y72.8497
G1 X52.578 Y72.511
G1 Y72.2993
G0 Z3.0
G0 X55.753
G0 Z1.275
G1 Z-0.125
G1 X55.8377 Y71.9607
G1 X56.3457 Y71.4527
G1 X56.6843 Y71.368
G1 X56.896
G1 X57.2347 Y71.4527
G1 X57.7427 Y71.9607
G1 X57.8273 Y72.2993
G1 Y72.511
G1 X57.7427 Y72.8497
G1 X57.277 Y73.3153
G1 Y74.035
G1 X57.7427 Y74.5007
G1 X57.8273 Y74.8393
G1 Y75.051
G1 X57.7427 Y75.3897
G1 X57.2347 Y75.8977
G1 X56.896 Y75.9823
G1 X56.5997
G1 X56.3457 Y75.8977
G1 X55.8377 Y75.3897
G1 X55.753 Y75.051
G1 Y74.8393
G1 X55.8377 Y74.5007
G1 X56.3033 Y74.035
G1 Y73.3153
G1 X55.8377 Y72.8497
G1 X55.753 Y72.511
G1 Y72.2993
G0 Z3.0
G0 X58.928
G0 Z1.275
G1 Z-0.125
G1 X59.0127 Y71.9607
G1 X59.5207 Y71.4527
G1 X59.8593 Y71.368
G1 X60.071
G1 X60.4097 Y71.4527
G1 X60.9177 Y71.9607
G1 X61.0023 Y72.2993
G1 Y72.511
G1 X60.9177 Y72.8497
G1 X60.452 Y73.3153
G1 Y74.035
G1 X60.9177 Y74.5007
G1 X61.0023 Y74.8393
G1 Y75.051
G1 X60.9177 Y75.3897
G1 X60.4097 Y75.8977
G1 X60.071 Y75.9823
G1 X59.7747
G1 X59.5207 Y75.8977
G1 X59.0127 Y75.3897
G1 X58.928 Y75.051
G1 Y74.8393
G1 X59.0127 Y74.5007
G1 X59.4783 Y74.035
G1 Y73.3153
G1 X59.0127 Y72.8497
G1 X58.928 Y72.511
G1 Y72.2993
G0 Z3.0
G0 X62.103
G0 Z1.275
G1 Z-0.125
G1 X62.1877 Y71.9607
G1 X62.6957 Y71.4527
G1 X63.0343 Y71.368
G1 X63.246
G1 X63.5847 Y71.4527
G1 X64.0927 Y71.9607
G1 X64.1773 Y72.2993
G1 Y72.511
G1 X64.0927 Y72.8497
G1 X63.627 Y73.3153
G1 Y74.035
G1 X64.0927 Y74.5007
G1 X64.1773 Y74.8393
G1 Y75.051
G1 X64.0927 Y75.3897
G1 X63.5847 Y75.8977
G1 X63.246 Y75.9823
G1 X62.9497
G1 X62.6957 Y75.8977
G1 X62.1877 Y75.3897
G1 X62.103 Y75.051
G1 Y74.8393
G1 X62.1877 Y74.5007
G1 X62.6533 Y74.035
G1 Y73.3153
G1 X62.1877 Y72.8497
G1 X62.103 Y72.511
G1 Y72.2993
G0 Z3.0
G0 X65.278
G0 Z1.275
G1 Z-0.125
G1 X65.3627 Y71.9607
G1 X65.8707 Y71.4527
G1 X66.2093 Y71.368
G1 X66.421
G1 X66.7597 Y71.4527
G1 X67.2677 Y71.9607
G1 X67.3523 Y72.2993
G1 Y72.511
G1 X67.2677 Y72.8497
G1 X66.802 Y73.3153
G1 Y74.035
G1 X67.2677 Y74.5007
G1 X67.3523 Y74.8393
G1 Y75.051
G1 X67.2677 Y75.3897
G1 X66.7597 Y75.8977
G1 X66.421 Y75.9823
G1 X66.1247
G1 X65.8707 Y75.8977
G1 X65.3627 Y75.3897
G1 X65.278 Y75.051
G1 Y74.8393
G1 X65.3627 Y74.5007
G1 X65.8283 Y74.035
G1 Y73.3153
G1 X65.3627 Y72.8497
G1 X65.278 Y72.511
G1 Y72.2993
G0 Z3.0
G0 X68.453
G0 Z1.275
G1 Z-0.125
G1 X68.5377 Y71.9607
G1 X69.0457 Y71.4527
G1 X69.3843 Y71.368
G1 X69.596
G1 X69.9347 Y71.4527
G1 X70.4427 Y71.9607
G1 X70.5273 Y72.2993
G1 Y72.511
G1 X70.4427 Y72.8497
G1 X69.977 Y73.3153
G1 Y74.035
G1 X70.4427 Y74.5007
G1 X70.5273 Y74.8393
G1 Y75.051
G1 X70.4427 Y75.3897
G1 X69.9347 Y75.8977
G1 X69.596 Y75.9823
G1 X69.2997
G1 X69.0457 Y75.8977
G1 X68.5377 Y75.3897
G1 X68.453 Y75.051
G1 Y74.8393
G1 X68.5377 Y74.5007
G1 X69.0033 Y74.035
G1 Y73.3153
G1 X68.5377 Y72.8497
G1 X68.453 Y72.511
G1 Y72.2993
G0 Z3.0
G0 X71.628
G0 Z1.275
G1 Z-0.125
G1 X71.7127 Y71.9607
G1 X72.2207 Y71.4527
G1 X72.5593 Y71.368
G1 X72.771
G1 X73.1097 Y71.4527
G1 X73.6177 Y71.9607
G1 X73.7023 Y72.2993
G1 Y72.511
G1 X73.6177 Y72.8497
G1 X73.152 Y73.3153
G1 Y74.035
G1 X73.6177 Y74.5007
G1 X73.7023 Y74.8393
G1 Y75.051
G1 X73.6177 Y75.3897
G1 X73.1097 Y75.8977
G1 X72.771 Y75.9823
G1 X72.4747
G1 X72.2207 Y75.8977
G1 X71.7127 Y75.3897
G1 X71.628 Y75.051
G1 Y74.8393
G1 X71.7127 Y74.5007
G1 X72.1783 Y74.035
G1 Y73.3153
G1 X71.7127 Y72.8497
G1 X71.628 Y72.511
G1 Y72.2993
G0 Z3.0
G0 X74.803
G0 Z1.275
G1 Z-0.125
G1 X74.8877 Y71.9607
G1 X75.3957 Y71.4527
G1 X75.7343 Y71.368
G1 X75.946
G1 X76.2847 Y71.4527
G1 X76.7927 Y71.9607
G1 X76.8773 Y72.2993
G1 Y72.511
G1 X76.7927 Y72.8497
G1 X76.327 Y73.3153
G1 Y74.035
G1 X76.7927 Y74.5007
G1 X76.8773 Y74.8393
G1 Y75.051
G1 X76.7927 Y75.3897
G1 X76.2847 Y75.8977
G1 X75.946 Y75.9823
G1 X75.6497
G1 X75.3957 Y75.8977
G1 X74.8877 Y75.3897
G1 X74.803 Y75.051
G1 Y74.8393
G1 X74.8877 Y74.5007
G1 X75.3533 Y74.035
G1 Y73.3153
G1 X74.8877 Y72.8497
G1 X74.803 Y72.511
G1 Y72.2993
G0 Z3.0
G0 X77.978
G0 Z1.275
G1 Z-0.125
G1 X78.0627 Y71.9607
G1 X78.5707 Y71.4527
G1 X78.9093 Y71.368
G1 X79.121
G1 X79.4597 Y71.4527
G1 X79.9677 Y71.9607
G1 X80.0523 Y72.2993
G1 Y72.511
G1 X79.9677 Y72.8497
G1 X79.502 Y73.3153
G1 Y74.035
G1 X79.9677 Y74.5007
G1 X80.0523 Y74.8393
G1 Y75.051
G1 X79.9677 Y75.3897
G1 X79.4597 Y75.8977
G1 X79.121 Y75.9823
G1 X78.8247
G1 X78.5707 Y75.8977
G1 X78.0627 Y75.3897
G1 X77.978 Y75.051
G1 Y74.8393
G1 X78.0627 Y74.5007
G1 X78.5283 Y74.035
G1 Y73.3153
G1 X78.0627 Y72.8497
G1 X77.978 Y72.511
G1 Y72.2993
G0 Z3.0
G0 X81.153
G0 Z1.275
G1 Z-0.125
G1 X81.2377 Y71.9607
G1 X81.7457 Y71.4527
G1 X82.0843 Y71.368
G1 X82.296
G1 X82.6347 Y71.4527
G1 X83.1427 Y71.9607
G1 X83.2273 Y72.2993
G1 Y72.511
G1 X83.1427 Y72.8497
G1 X82.677 Y73.3153
G1 Y74.035
G1 X83.1427 Y74.5007
G1 X83.2273 Y74.8393
G1 Y75.051
G1 X83.1427 Y75.3897
G1 X82.6347 Y75.8977
G1 X82.296 Y75.9823
G1 X81.9997
G1 X81.7457 Y75.8977
G1 X81.2377 Y75.3897
G1 X81.153 Y75.051
G1 Y74.8393
G1 X81.2377 Y74.5007
G1 X81.7033 Y74.035
G1 Y73.3153
G1 X81.2377 Y72.8497
G1 X81.153 Y72.511
G1 Y72.2993
G0 Z3.0
G0 X84.328
G0 Z1.275
G1 Z-0.125
G1 X84.4127 Y71.9607
G1 X84.9207 Y71.4527
G1 X85.2593 Y71.368
G1 X85.471
G1 X85.8097 Y71.4527
G1 X86.3177 Y71.9607
G1 X86.4023 Y72.2993
G1 Y72.511
G1 X86.3177 Y72.8497
G1 X85.852 Y73.3153
G1 Y74.035
G1 X86.3177 Y74.5007
G1 X86.4023 Y74.8393
G1 Y75.051
G1 X86.3177 Y75.3897
G1 X85.8097 Y75.8977
G1 X85.471 Y75.9823
G1 X85.1747
G1 X84.9207 Y75.8977
G1 X84.4127 Y75.3897
G1 X84.328 Y75.051
G1 Y74.8393
G1 X84.4127 Y74.5007
G1 X84.8783 Y74.035
G1 Y73.3153
G1 X84.4127 Y72.8497
G1 X84.328 Y72.511
G1 Y72.2993
G0 Z3.0
G0 X87.503
G0 Z1.275
G1 Z-0.125
G1 X87.5877 Y71.9607
G1 X88.0957 Y71.4527
G1 X88.4343 Y71.368
G1 X88.646
G1 X88.9847 Y71.4527
G1 X89.4927 Y71.9607
G1 X89.5773 Y72.2993
G1 Y72.511
G1 X89.4927 Y72.8497
G1 X89.027 Y73.3153
G1 Y74.035
G1 X89.4927 Y74.5007
G1 X89.5773 Y74.8393
G1 Y75.051
G1 X89.4927 Y75.3897
G1 X88.9847 Y75.8977
G1 X88.646 Y75.9823
G1 X88.3497
G1 X88.0957 Y75.8977
G1 X87.5877 Y75.3897
G1 X87.503 Y75.051
G1 Y74.8393
G1 X87.5877 Y74.5007
G1 X88.0533 Y74.035
G1 Y73.3153
G1 X87.5877 Y72.8497
G1 X87.503 Y72.511
G1 Y72.2993
G0 Z3.0
G0 X90.678
G0 Z1.275
G1 Z-0.125
G1 X90.7627 Y71.9607
G1 X91.2707 Y71.4527
G1 X91.6093 Y71.368
G1 X91.821
G1 X92.1597 Y71.4527
G1 X92.6677 Y71.9607
G1 X92.7523 Y72.2993
G1 Y72.511
G1 X92.6677 Y72.8497
G1 X92.202 Y73.3153
G1 Y74.035
G1 X92.6677 Y74.5007
G1 X92.7523 Y74.8393
G1 Y75.051
G1 X92.6677 Y75.3897
G1 X92.1597 Y75.8977
G1 X91.821 Y75.9823
G1 X91.5247
G1 X91.2707 Y75.8977
G1 X90.7627 Y75.3897
G1 X90.678 Y75.051
G1 Y74.8393
G1 X90.7627 Y74.5007
G1 X91.2283 Y74.035
G1 Y73.3153
G1 X90.7627 Y72.8497
G1 X90.678 Y72.511
G1 Y72.2993
G0 Z3.0
G0 X93.853
G0 Z1.275
G1 Z-0.125
G1 X93.9377 Y71.9607
G1 X94.4457 Y71.4527
G1 X94.7843 Y71.368
G1 X94.996
G1 X95.3347 Y71.4527
G1 X95.8427 Y71.9607
G1 X95.9273 Y72.2993
G1 Y72.511
G1 X95.8427 Y72.8497
G1 X95.377 Y73.3153
G1 Y74.035
G1 X95.8427 Y74.5007
G1 X95.9273 Y74.8393
G1 Y75.051
G1 X95.8427 Y75.3897
G1 X95.3347 Y75.8977
G1 X94.996 Y75.9823
G1 X94.6997
G1 X94.4457 Y75.8977
G1 X93.9377 Y75.3897
G1 X93.853 Y75.051
G1 Y74.8393
G1 X93.9377 Y74.5007
G1 X94.4033 Y74.035
G1 Y73.3153
G1 X93.9377 Y72.8497
G1 X93.853 Y72.511
G1 Y72.2993
G0 Z3.0
G0 X97.028
G0 Z1.275
G1 Z-0.125
G1 X97.1127 Y71.9607
G1 X97.6207 Y71.4527
G1 X97.9593 Y71.368
G1 X98.171
G1 X98.5097 Y71.4527
G1 X99.0177 Y71.9607
G1 X99.1023 Y72.2993
G1 Y72.511
G1 X99.0177 Y72.8497
G1 X98.552 Y73.3153
G1 Y74.035
G1 X99.0177 Y74.5007
G1 X99.1023 Y74.8393
G1 Y75.051
G1 X99.0177 Y75.3897
G1 X98.5097 Y75.8977
G1 X98.171 Y75.9823
G1 X97.8747
G1 X97.6207 Y75.8977
G1 X97.1127 Y75.3897
G1 X97.028 Y75.051
G1 Y74.8393
G1 X97.1127 Y74.5007
G1 X97.5783 Y74.035
G1 Y73.3153
G1 X97.1127 Y72.8497
G1 X97.028 Y72.511
G1 Y72.2993
G0 Z3.0
G0 X100.203
G0 Z1.275
G1 Z-0.125
G1 X100.2877 Y71.9607
G1 X100.7957 Y71.4527
G1 X101.1343 Y71.368
G1 X101.346
G1 X101.6847 Y71.4527
G1 X102.1927 Y71.9607
G1 X102.2773 Y72.2993
G1 Y72.511
G1 X102.1927 Y72.8497
G1 X101.727 Y73.3153
G1 Y74.035
G1 X102.1927 Y74.5007
G1 X102.2773 Y74.8393
G1 Y75.051
G1 X102.1927 Y75.3897
G1 X101.6847 Y75.8977
G1 X101.346 Y75.9823
G1 X101.0497
G1 X100.7957 Y75.8977
G1 X100.2877 Y75.3897
G1 X100.203 Y75.051
G1 Y74.8393
G1 X100.2877 Y74.5007
G1 X100.7533 Y74.035
G1 Y73.3153
G1 X100.2877 Y72.8497
G1 X100.203 Y72.511
G1 Y72.2993
G0 Z3.0
G0 X103.378
G0 Z1.275
G1 Z-0.125
G1 X103.4627 Y71.9607
G1 X103.9707 Y71.4527
G1 X104.3093 Y71.368
G1 X104.521
G1 X104.8597 Y71.4527
G1 X105.3677 Y71.9607
G1 X105.4523 Y72.2993
G1 Y72.511
G1 X105.3677 Y72.8497
G1 X104.902 Y73.3153
G1 Y74.035
G1 X105.3677 Y74.5007
G1 X105.4523 Y74.8393
G1 Y75.051
G1 X105.3677 Y75.3897
G1 X104.8597 Y75.8977
G1 X104.521 Y75.9823
G1 X104.2247
G1 X103.9707 Y75.8977
G1 X103.4627 Y75.3897
G1 X103.378 Y75.051
G1 Y74.8393
G1 X103.4627 Y74.5007
G1 X103.9283 Y74.035
G1 Y73.3153
G1 X103.4627 Y72.8497
G1 X103.378 Y72.511
G1 Y72.2993
G0 Z3.0
G0 X106.553
G0 Z1.275
G1 Z-0.125
G1 X106.6377 Y71.9607
G1 X107.1457 Y71.4527
G1 X107.4843 Y71.368
G1 X107.696
G1 X108.0347 Y71.4527
G1 X108.5427 Y71.9607
G1 X108.6273 Y72.2993
G1 Y72.511
G1 X108.5427 Y72.8497
G1 X108.077 Y73.3153
G1 Y74.035
G1 X108.5427 Y74.5007
G1 X108.6273 Y74.8393
G1 Y75.051
G1 X108.5427 Y75.3897
G1 X108.0347 Y75.8977
G1 X107.696 Y75.9823
G1 X107.3997
G1 X107.1457 Y75.8977
G1 X106.6377 Y75.3897
G1 X106.553 Y75.051
G1 Y74.8393
G1 X106.6377 Y74.5007
G1 X107.1033 Y74.035
G1 Y73.3153
G1 X106.6377 Y72.8497
G1 X106.553 Y72.511
G1 Y72.2993
G0 Z3.0
G0 X109.728
G0 Z1.275
G1 Z-0.125
G1 X109.8127 Y71.9607
G1 X110.3207 Y71.4527
G1 X110.6593 Y71.368
G1 X110.871
G1 X111.2097 Y71.4527
G1 X111.7177 Y71.9607
G1 X111.8023 Y72.2993
G1 Y72.511
G1 X111.7177 Y72.8497
G1 X111.252 Y73.3153
G1 Y74.035
G1 X111.7177 Y74.5007
G1 X111.8023 Y74.8393
G1 Y75.051
G1 X111.7177 Y75.3897
G1 X111.2097 Y75.8977
G1 X110.871 Y75.9823
G1 X110.5747
G1 X110.3207 Y75.8977
G1 X109.8127 Y75.3897
G1 X109.728 Y75.051
G1 Y74.8393
G1 X109.8127 Y74.5007
G1 X110.2783 Y74.035
G1 Y73.3153
G1 X109.8127 Y72.8497
G1 X109.728 Y72.511
G1 Y72.2993
G0 Z3.0
G0 X112.903
G0 Z1.275
G1 Z-0.125
G1 X112.9877 Y71.9607
G1 X113.4957 Y71.4527
G1 X113.8343 Y71.368
G1 X114.046
G1 X114.3847 Y71.4527
G1 X114.8927 Y71.9607
G1 X114.9773 Y72.2993
G1 Y72.511
G1 X114.8927 Y72.8497
G1 X114.427 Y73.3153
G1 Y74.035
G1 X114.8927 Y74.5007
G1 X114.9773 Y74.8393
G1 Y75.051
G1 X114.8927 Y75.3897
G1 X114.3847 Y75.8977
G1 X114.046 Y75.9823
G1 X113.7497
G1 X113.4957 Y75.8977
G1 X112.9877 Y75.3897
G1 X112.903 Y75.051
G1 Y74.8393
G1 X112.9877 Y74.5007
G1 X113.4533 Y74.035
G1 Y73.3153
G1 X112.9877 Y72.8497
G1 X112.903 Y72.511
G1 Y72.2993
G0 Z3.0
G0 X116.078
G0 Z1.275
G1 Z-0.125
G1 X116.1627 Y71.9607
G1 X116.6707 Y71.4527
G1 X117.0093 Y71.368
G1 X117.221
G1 X117.5597 Y71.4527
G1 X118.0677 Y71.9607
G1 X118.1523 Y72.2993
G1 Y72.511
G1 X118.0677 Y72.8497
G1 X117.602 Y73.3153
G1 Y74.035
G1 X118.0677 Y74.5007
G1 X118.1523 Y74.8393
G1 Y75.051
G1 X118.0677 Y75.3897
G1 X117.5597 Y75.8977
G1 X117.221 Y75.9823
G1 X116.9247
G1 X116.6707 Y75.8977
G1 X116.1627 Y75.3897
G1 X116.078 Y75.051
G1 Y74.8393
G1 X116.1627 Y74.5007
G1 X116.6283 Y74.035
G1 Y73.3153
G1 X116.1627 Y72.8497
G1 X116.078 Y72.511
G1 Y72.2993
G0 Z3.0
G0 X119.253
G0 Z1.275
G1 Z-0.125
G1 X119.3377 Y71.9607
G1 X119.8457 Y71.4527
G1 X120.1843 Y71.368
G1 X120.396
G1 X120.7347 Y71.4527
G1 X121.2427 Y71.9607
G1 X121.3273 Y72.2993
G1 Y72.511
G1 X121.2427 Y72.8497
G1 X120.777 Y73.3153
G1 Y74.035
G1 X121.2427 Y74.5007
G1 X121.3273 Y74.8393
G1 Y75.051
G1 X121.2427 Y75.3897
G1 X120.7347 Y75.8977
G1 X120.396 Y75.9823
G1 X120.0997
G1 X119.8457 Y75.8977
G1 X119.3377 Y75.3897
G1 X119.253 Y75.051
G1 Y74.8393
G1 X119.3377 Y74.5007
G1 X119.8033 Y74.035
G1 Y73.3153
G1 X119.3377 Y72.8497
G1 X119.253 Y72.511
G1 Y72.2993
G0 Z3.0
G0 X122.428
G0 Z1.275
G1 Z-0.125
G1 X122.5127 Y71.9607
G1 X123.0207 Y71.4527
G1 X123.3593 Y71.368
G1 X123.571
G1 X123.9097 Y71.4527
G1 X124.4177 Y71.9607
G1 X124.5023 Y72.2993
G1 Y72.511
G1 X124.4177 Y72.8497
G1 X123.952 Y73.3153
G1 Y74.035
G1 X124.4177 Y74.5007
G1 X124.5023 Y74.8393
G1 Y75.051
G1 X124.4177 Y75.3897
G1 X123.9097 Y75.8977
G1 X123.571 Y75.9823
G1 X123.2747
G1 X123.0207 Y75.8977
G1 X122.5127 Y75.3897
G1 X122.428 Y75.051
G1 Y74.8393
G1 X122.5127 Y74.5007
G1 X122.9783 Y74.035
G1 Y73.3153
G1 X122.5127 Y72.8497
G1 X122.428 Y72.511
G1 Y72.2993
G0 Z3.0
G0 X125.603
G0 Z1.275
G1 Z-0.125
G1 X125.6877 Y71.9607
G1 X126.1957 Y71.4527
G1 X126.5343 Y71.368
G1 X126.746
G1 X127.0847 Y71.4527
G1 X127.5927 Y71.9607
G1 X127.6773 Y72.2993
G1 Y72.511
G1 X127.5927 Y72.8497
G1 X127.127 Y73.3153
G1 Y74.035
G1 X127.5927 Y74.5007
G1 X127.6773 Y74.8393
G1 Y75.051
G1 X127.5927 Y75.3897
G1 X127.0847 Y75.8977
G1 X126.746 Y75.9823
G1 X126.4497
G1 X126.1957 Y75.8977
G1 X125.6877 Y75.3897
G1 X125.603 Y75.051
G1 Y74.8393
G1 X125.6877 Y74.5007
G1 X126.1533 Y74.035
G1 Y73.3153
G1 X125.6877 Y72.8497
G1 X125.603 Y72.511
G1 Y72.2993
G0 Z3.0
G0 X128.778
G0 Z1.275
G1 Z-0.125
G1 X128.8627 Y71.9607
G1 X129.3707 Y71.4527
G1 X129.7093 Y71.368
G1 X129.921
G1 X130.2597 Y71.4527
G1 X130.7677 Y71.9607
G1 X130.8523 Y72.2993
G1 Y72.511
G1 X130.7677 Y72.8497
G1 X130.302 Y73.3153
G1 Y74.035
G1 X130.7677 Y74.5007
G1 X130.8523 Y74.8393
G1 Y75.051
G1 X130.7677 Y75.3897
G1 X130.2597 Y75.8977
G1 X129.921 Y75.9823
G1 X129.6247
G1 X129.3707 Y75.8977
G1 X128.8627 Y75.3897
G1 X128.778 Y75.051
G1 Y74.8393
G1 X128.8627 Y74.5007
G1 X129.3283 Y74.035
G1 Y73.3153
G1 X128.8627 Y72.8497
G1 X128.778 Y72.511
G1 Y72.2993
G0 Z3.0
G0 X131.953
G0 Z1.275
G1 Z-0.125
G1 X132.0377 Y71.9607
G1 X132.5457 Y71.4527
G1 X132.8843 Y71.368
G1 X133.096
G1 X133.4347 Y71.4527
G1 X133.9427 Y71.9607
G1 X134.0273 Y72.2993
G1 Y72.511
G1 X133.9427 Y72.8497
G1 X133.477 Y73.3153
G1 Y74.035
G1 X133.9427 Y74.5007
G1 X134.0273 Y74.8393
G1 Y75.051
G1 X133.9427 Y75.3897
G1 X133.4347 Y75.8977
G1 X133.096 Y75.9823
G1 X132.7997
G1 X132.5457 Y75.8977
G1 X132.0377 Y75.3897
G1 X131.953 Y75.051
G1 Y74.8393
G1 X132.0377 Y74.5007
G1 X132.5033 Y74.035
G1 Y73.3153
G1 X132.0377 Y72.8497
G1 X131.953 Y72.511
G1 Y72.2993
G0 Z3.0
G0 X135.128
G0 Z1.275
G1 Z-0.125
G1 X135.2127 Y71.9607
G1 X135.7207 Y71.4527
G1 X136.0593 Y71.368
G1 X136.271
G1 X136.6097 Y71.4527
G1 X137.1177 Y71.9607
G1 X137.2023 Y72.2993
G1 Y72.511
G1 X137.1177 Y72.8497
G1 X136.652 Y73.3153
G1 Y74.035
G1 X137.1177 Y74.5007
G1 X137.2023 Y74.8393
G1 Y75.051
G1 X137.1177 Y75.3897
G1 X136.6097 Y75.8977
G1 X136.271 Y75.9823
G1 X135.9747
G1 X135.7207 Y75.8977
G1 X135.2127 Y75.3897
G1 X135.128 Y75.051
G1 Y74.8393
G1 X135.2127 Y74.5007
G1 X135.6783 Y74.035
G1 Y73.3153
G1 X135.2127 Y72.8497
G1 X135.128 Y72.511
G1 Y72.2993
G0 Z3.0
G0 X138.303
G0 Z1.275
G1 Z-0.125
G1 X138.3877 Y71.9607
G1 X138.8957 Y71.4527
G1 X139.2343 Y71.368
G1 X139.446
G1 X139.7847 Y71.4527
G1 X140.2927 Y71.9607
G1 X140.3773 Y72.2993
G1 Y72.511
G1 X140.2927 Y72.8497
G1 X139.827 Y73.3153
G1 Y74.035
G1 X140.2927 Y74.5007
G1 X140.3773 Y74.8393
G1 Y75.051
G1 X140.2927 Y75.3897
G1 X139.7847 Y75.8977
G1 X139.446 Y75.9823
G1 X139.1497
G1 X138.8957 Y75.8977
G1 X138.3877 Y75.3897
G1 X138.303 Y75.051
G1 Y74.8393
G1 X138.3877 Y74.5007
G1 X138.8533 Y74.035
G1 Y73.3153
G1 X138.3877 Y72.8497
G1 X138.303 Y72.511
G1 Y72.2993
G0 Z3.0
G0 X141.478
G0 Z1.275
G1 Z-0.125
G1 X141.5627 Y71.9607
G1 X142.0707 Y71.4527
G1 X142.4093 Y71.368
G1 X142.621
G1 X142.9597 Y71.4527
G1 X143.4677 Y71.9607
G1 X143.5523 Y72.2993
G1 Y72.511
G1 X143.4677 Y72.8497
G1 X143.002 Y73.3153
G1 Y74.035
G1 X143.4677 Y74.5007
G1 X143.5523 Y74.8393
G1 Y75.051
G1 X143.4677 Y75.3897
G1 X142.9597 Y75.8977
G1 X142.621 Y75.9823
G1 X142.3247
G1 X142.0707 Y75.8977
G1 X141.5627 Y75.3897
G1 X141.478 Y75.051
G1 Y74.8393
G1 X141.5627 Y74.5007
G1 X142.0283 Y74.035
G1 Y73.3153
G1 X141.5627 Y72.8497
G1 X141.478 Y72.511
G1 Y72.2993
G0 Z3.0
G0 X144.653
G0 Z1.275
G1 Z-0.125
G1 X144.7377 Y71.9607
G1 X145.2457 Y71.4527
G1 X145.5843 Y71.368
G1 X145.796
G1 X146.1347 Y71.4527
G1 X146.6427 Y71.9607
G1 X146.7273 Y72.2993
G1 Y72.511
G1 X146.6427 Y72.8497
G1 X146.177 Y73.3153
G1 Y74.035
G1 X146.6427 Y74.5007
G1 X146.7273 Y74.8393
G1 Y75.051
G1 X146.6427 Y75.3897
G1 X146.1347 Y75.8977
G1 X145.796 Y75.9823
G1 X145.4997
G1 X145.2457 Y75.8977
G1 X144.7377 Y75.3897
G1 X144.653 Y75.051
G1 Y74.8393
G1 X144.7377 Y74.5007
G1 X145.2033 Y74.035
G1 Y73.3153
G1 X144.7377 Y72.8497
G1 X144.653 Y72.511
G1 Y72.2993
G0 Z3.0
G0 X147.828
G0 Z1.275
G1 Z-0.125
G1 X147.9127 Y71.9607
G1 X148.4207 Y71.4527
G1 X148.7593 Y71.368
G1 X148.971
G1 X149.3097 Y71.4527
G1 X149.8177 Y71.9607
G1 X149.9023 Y72.2993
G1 Y72.511
G1 X149.8177 Y72.8497
G1 X149.352 Y73.3153
G1 Y74.035
G1 X149.8177 Y74.5007
G1 X149.9023 Y74.8393
G1 Y75.051
G1 X149.8177 Y75.3897
G1 X149.3097 Y75.8977
G1 X148.971 Y75.9823
G1 X148.6747
G1 X148.4207 Y75.8977
G1 X147.9127 Y75.3897
G1 X147.828 Y75.051
G1 Y74.8393
G1 X147.9127 Y74.5007
G1 X148.3783 Y74.035
G1 Y73.3153
G1 X147.9127 Y72.8497
G1 X147.828 Y72.511
G1 Y72.2993
G0 Z3.0
G0 X151.003
G0 Z1.275
G1 Z-0.125
G1 X151.0877 Y71.9607
G1 X151.5957 Y71.4527
G1 X151.9343 Y71.368
G1 X152.146
G1 X152.4847 Y71.4527
G1 X152.9927 Y71.9607
G1 X153.0773 Y72.2993
G1 Y72.511
G1 X152.9927 Y72.8497
G1 X152.527 Y73.3153
G1 Y74.035
G1 X152.9927 Y74.5007
G1 X153.0773 Y74.8393
G1 Y75.051
G1 X152.9927 Y75.3897
G1 X152.4847 Y75.8977
G1 X152.146 Y75.9823
G1 X151.8497
G1 X151.5957 Y75.8977
G1 X151.0877 Y75.3897
G1 X151.003 Y75.051
G1 Y74.8393
G1 X151.0877 Y74.5007
G1 X151.5533 Y74.035
G1 Y73.3153
G1 X151.0877 Y72.8497
G1 X151.003 Y72.511
G1 Y72.2993
G0 Z3.0
G0 X154.178
G0 Z1.275
G1 Z-0.125
G1 X154.2627 Y71.9607
G1 X154.7707 Y71.4527
G1 X155.1093 Y71.368
G1 X155.321
G1 X155.6597 Y71.4527
G1 X156.1677 Y71.9607
G1 X156.2523 Y72.2993
G1 Y72.511
G1 X156.1677 Y72.8497
G1 X155.702 Y73.3153
G1 Y74.035
G1 X156.1677 Y74.5007
G1 X156.2523 Y74.8393
G1 Y75.051
G1 X156.1677 Y75.3897
G1 X155.6597 Y75.8977
G1 X155.321 Y75.9823
G1 X155.0247
G1 X154.7707 Y75.8977
G1 X154.2627 Y75.3897
G1 X154.178 Y75.051
G1 Y74.8393
G1 X154.2627 Y74.5007
G1 X154.7283 Y74.035
G1 Y73.3153
G1 X154.2627 Y72.8497
G1 X154.178 Y72.511
G1 Y72.2993
G0 Z3.0
G0 X157.353
G0 Z1.275
G1 Z-0.125
G1 X157.4377 Y71.9607
G1 X157.9457 Y71.4527
G1 X158.2843 Y71.368
G1 X158.496
G1 X158.8347 Y71.4527
G1 X159.3427 Y71.9607
G1 X159.4273 Y72.2993
G1 Y72.511
G1 X159.3427 Y72.8497
G1 X158.877 Y73.3153
G1 Y74.035
G1 X159.3427 Y74.5007
G1 X159.4273 Y74.8393
G1 Y75.051
G1 X159.3427 Y75.3897
G1 X158.8347 Y75.8977
G1 X158.496 Y75.9823
G1 X158.1997
G1 X157.9457 Y75.8977
G1 X157.4377 Y75.3897
G1 X157.353 Y75.051
G1 Y74.8393
G1 X157.4377 Y74.5007
G1 X157.9033 Y74.035
G1 Y73.3153
G1 X157.4377 Y72.8497
G1 X157.353 Y72.511
G1 Y72.2993
G0 Z3.0
G0 X160.528
G0 Z1.275
G1 Z-0.125
G1 X160.6127 Y71.9607
G1 X161.1207 Y71.4527
G1 X161.4593 Y71.368
G1 X161.671
G1 X162.0097 Y71.4527
G1 X162.5177 Y71.9607
G1 X162.6023 Y72.2993
G1 Y72.511
G1 X162.5177 Y72.8497
G1 X162.052 Y73.3153
G1 Y74.035
G1 X162.5177 Y74.5007
G1 X162.6023 Y74.8393
G1 Y75.051
G1 X162.5177 Y75.3897
G1 X162.0097 Y75.8977
G1 X161.671 Y75.9823
G1 X161.3747
G1 X161.1207 Y75.8977
G1 X160.6127 Y75.3897
G1 X160.528 Y75.051
G1 Y74.8393
G1 X160.6127 Y74.5007
G1 X161.0783 Y74.035
G1 Y73.3153
G1 X160.6127 Y72.8497
G1 X160.528 Y72.511
G1 Y72.2993
G0 Z3.0
G0 X163.703
G0 Z1.275
G1 Z-0.125
G1 X163.7877 Y71.9607
G1 X164.2957 Y71.4527
G1 X164.6343 Y71.368
G1 X164.846
G1 X165.1847 Y71.4527
G1 X165.6927 Y71.9607
G1 X165.7773 Y72.2993
G1 Y72.511
G1 X165.6927 Y72.8497
G1 X165.227 Y73.3153
G1 Y74.035
G1 X165.6927 Y74.5007
G1 X165.7773 Y74.8393
G1 Y75.051
G1 X165.6927 Y75.3897
G1 X165.1847 Y75.8977
G1 X164.846 Y75.9823
G1 X164.5497
G1 X164.2957 Y75.8977
G1 X163.7877 Y75.3897
G1 X163.703 Y75.051
G1 Y74.8393
G1 X163.7877 Y74.5007
G1 X164.2533 Y74.035
G1 Y73.3153
G1 X163.7877 Y72.8497
G1 X163.703 Y72.511
G1 Y72.2993
G0 Z3.0
G0 X166.878
G0 Z1.275
G1 Z-0.125
G1 X166.9627 Y71.9607
G1 X167.4707 Y71.4527
G1 X167.8093 Y71.368
G1 X168.021
G1 X168.3597 Y71.4527
G1 X168.8677 Y71.9607
G1 X168.9523 Y72.2993
G1 Y72.511
G1 X168.8677 Y72.8497
G1 X168.402 Y73.3153
G1 Y74.035
G1 X168.8677 Y74.5007
G1 X168.9523 Y74.8393
G1 Y75.051
G1 X168.8677 Y75.3897
G1 X168.3597 Y75.8977
G1 X168.021 Y75.9823
G1 X167.7247
G1 X167.4707 Y75.8977
G1 X166.9627 Y75.3897
G1 X166.878 Y75.051
G1 Y74.8393
G1 X166.9627 Y74.5007
G1 X167.4283 Y74.035
G1 Y73.3153
G1 X166.9627 Y72.8497
G1 X166.878 Y72.511
G1 Y72.2993
G0 Z3.0
G0 X170.053
G0 Z1.275
G1 Z-0.125
G1 X170.1377 Y71.9607
G1 X170.6457 Y71.4527
G1 X170.9843 Y71.368
G1 X171.196
G1 X171.5347 Y71.4527
G1 X172.0427 Y71.9607
G1 X172.1273 Y72.2993
G1 Y72.511
G1 X172.0427 Y72.8497
G1 X171.577 Y73.3153
G1 Y74.035
G1 X172.0427 Y74.5007
G1 X172.1273 Y74.8393
G1 Y75.051
G1 X172.0427 Y75.3897
G1 X171.5347 Y75.8977
G1 X171.196 Y75.9823
G1 X170.8997
G1 X170.6457 Y75.8977
G1 X170.1377 Y75.3897
G1 X170.053 Y75.051
G1 Y74.8393
G1 X170.1377 Y74.5007
G1 X170.6033 Y74.035
G1 Y73.3153
G1 X170.1377 Y72.8497
G1 X170.053 Y72.511
G1 Y72.2993
G0 Z3.0
G0 X173.228
G0 Z1.275
G1 Z-0.125
G1 X173.3127 Y71.9607
G1 X173.8207 Y71.4527
G1 X174.1593 Y71.368
G1 X174.371
G1 X174.7097 Y71.4527
G1 X175.2177 Y71.9607
G1 X175.3023 Y72.2993
G1 Y72.511
G1 X175.2177 Y72.8497
G1 X174.752 Y73.3153
G1 Y74.035
G1 X175.2177 Y74.5007
G1 X175.3023 Y74.8393
G1 Y75.051
G1 X175.2177 Y75.3897
G1 X174.7097 Y75.8977
G1 X174.371 Y75.9823
G1 X174.0747
G1 X173.8207 Y75.8977
G1 X173.3127 Y75.3897
G1 X173.228 Y75.051
G1 Y74.8393
G1 X173.3127 Y74.5007
G1 X173.7783 Y74.035
G1 Y73.3153
G1 X173.3127 Y72.8497
G1 X173.228 Y72.511
G1 Y72.2993
G0 Z3.0
G0 X176.403
G0 Z1.275
G1 Z-0.125
G1 X176.4877 Y71.9607
G1 X176.9957 Y71.4527
G1 X177.3343 Y71.368
G1 X177.546
G1 X177.8847 Y71.4527
G1 X178.3927 Y71.9607
G1 X178.4773 Y72.2993
G1 Y72.511
G1 X178.3927 Y72.8497
G1 X177.927 Y73.3153
G1 Y74.035
G1 X178.3927 Y74.5007
G1 X178.4773 Y74.8393
G1 Y75.051
G1 X178.3927 Y75.3897
G1 X177.8847 Y75.8977
G1 X177.546 Y75.9823
G1 X177.2497
G1 X176.9957 Y75.8977
G1 X176.4877 Y75.3897
G1 X176.403 Y75.051
G1 Y74.8393
G1 X176.4877 Y74.5007
G1 X176.9533 Y74.035
G1 Y73.3153
G1 X176.4877 Y72.8497
G1 X176.403 Y72.511
G1 Y72.2993
G0 Z3.0
G0 X179.578
G0 Z1.275
G1 Z-0.125
G1 X179.6627 Y71.9607
G1 X180.1707 Y71.4527
G1 X180.5093 Y71.368
G1 X180.721
G1 X181.0597 Y71.4527
G1 X181.5677 Y71.9607
G1 X181.6523 Y72.2993
G1 Y72.511
G1 X181.5677 Y72.8497
G1 X181.102 Y73.3153
G1 Y74.035
G1 X181.5677 Y74.5007
G1 X181.6523 Y74.8393
G1 Y75.051
G1 X181.5677 Y75.3897
G1 X181.0597 Y75.8977
G1 X180.721 Y75.9823
G1 X180.4247
G1 X180.1707 Y75.8977
G1 X179.6627 Y75.3897
G1 X179.578 Y75.051
G1 Y74.8393
G1 X179.6627 Y74.5007
G1 X180.1283 Y74.035
G1 Y73.3153
G1 X179.6627 Y72.8497
G1 X179.578 Y72.511
G1 Y72.2993
G0 Z3.0
G0 X182.753
G0 Z1.275
G1 Z-0.125
G1 X182.8377 Y71.9607
G1 X183.3457 Y71.4527
G1 X183.6843 Y71.368
G1 X183.896
G1 X184.2347 Y71.4527
G1 X184.7427 Y71.9607
G1 X184.8273 Y72.2993
G1 Y72.511
G1 X184.7427 Y72.8497
G1 X184.277 Y73.3153
G1 Y74.035
G1 X184.7427 Y74.5007
G1 X184.8273 Y74.8393
G1 Y75.051
G1 X184.7427 Y75.3897
G1 X184.2347 Y75.8977
G1 X183.896 Y75.9823
G1 X183.5997
G1 X183.3457 Y75.8977
G1 X182.8377 Y75.3897
G1 X182.753 Y75.051
G1 Y74.8393
G1 X182.8377 Y74.5007
G1 X183.3033 Y74.035
G1 Y73.3153
G1 X182.8377 Y72.8497
G1 X182.753 Y72.511
G1 Y72.2993
G0 Z3.0
G0 X185.928
G0 Z1.275
G1 Z-0.125
G1 X186.0127 Y71.9607
G1 X186.5207 Y71.4527
G1 X186.8593 Y71.368
G1 X187.071
G1 X187.4097 Y71.4527
G1 X187.9177 Y71.9607
G1 X188.0023 Y72.2993
G1 Y72.511
G1 X187.9177 Y72.8497
G1 X187.452 Y73.3153
G1 Y74.035
G1 X187.9177 Y74.5007
G1 X188.0023 Y74.8393
G1 Y75.051
G1 X187.9177 Y75.3897
G1 X187.4097 Y75.8977
G1 X187.071 Y75.9823
G1 X186.7747
G1 X186.5207 Y75.8977
G1 X186.0127 Y75.3897
G1 X185.928 Y75.051
G1 Y74.8393
G1 X186.0127 Y74.5007
G1 X186.4783 Y74.035
G1 Y73.3153
G1 X186.0127 Y72.8497
G1 X185.928 Y72.511
G1 Y72.2993
G0 Z3.0
G0 X189.103
G0 Z1.275
G1 Z-0.125
G1 X189.1877 Y71.9607
G1 X189.6957 Y71.4527
G1 X190.0343 Y71.368
G1 X190.246
G1 X190.5847 Y71.4527
G1 X191.0927 Y71.9607
G1 X191.1773 Y72.2993
G1 Y72.511
G1 X191.0927 Y72.8497
G1 X190.627 Y73.3153
G1 Y74.035
G1 X191.0927 Y74.5007
G1 X191.1773 Y74.8393
G1 Y75.051
G1 X191.0927 Y75.3897
G1 X190.5847 Y75.8977
G1 X190.246 Y75.9823
G1 X189.9497
G1 X189.6957 Y75.8977
G1 X189.1877 Y75.3897
G1 X189.103 Y75.051
G1 Y74.8393
G1 X189.1877 Y74.5007
G1 X189.6533 Y74.035
G1 Y73.3153
G1 X189.1877 Y72.8497
G1 X189.103 Y72.511
G1 Y72.2993
G0 Z3.0
G0 X192.278
G0 Z1.275
G1 Z-0.125
G1 X192.3627 Y71.9607
G1 X192.8707 Y71.4527
G1 X193.2093 Y71.368
G1 X193.421
G1 X193.7597 Y71.4527
G1 X194.2677 Y71.9607
G1 X194.3523 Y72.2993
G1 Y72.511
G1 X194.2677 Y72.8497
G1 X193.802 Y73.3153
G1 Y74.035
G1 X194.2677 Y74.5007
G1 X194.3523 Y74.8393
G1 Y75.051
G1 X194.2677 Y75.3897
G1 X193.7597 Y75.8977
G1 X193.421 Y75.9823
G1 X193.1247
G1 X192.8707 Y75.8977
G1 X192.3627 Y75.3897
G1 X192.278 Y75.051
G1 Y74.8393
G1 X192.3627 Y74.5007
G1 X192.8283 Y74.035
G1 Y73.3153
G1 X192.3627 Y72.8497
G1 X192.278 Y72.511
G1 Y72.2993
G0 Z3.0
G0 X195.453
G0 Z1.275
G1 Z-0.125
G1 X195.5377 Y71.9607
G1 X196.0457 Y71.4527
G1 X196.3843 Y71.368
G1 X196.596
G1 X196.9347 Y71.4527
G1 X197.4427 Y71.9607
G1 X197.5273 Y72.2993
G1 Y72.511
G1 X197.4427 Y72.8497
G1 X196.977 Y73.3153
G1 Y74.035
G1 X197.4427 Y74.5007
G1 X197.5273 Y74.8393
G1 Y75.051
G1 X197.4427 Y75.3897
G1 X196.9347 Y75.8977
G1 X196.596 Y75.9823
G1 X196.2997
G1 X196.0457 Y75.8977
G1 X195.5377 Y75.3897
G1 X195.453 Y75.051
G1 Y74.8393
G1 X195.5377 Y74.5007
G1 X196.0033 Y74.035
G1 Y73.3153
G1 X195.5377 Y72.8497
G1 X195.453 Y72.511
G1 Y72.2993
G0 Z3.0
G0 X198.628
G0 Z1.275
G1 Z-0.125
G1 X198.7127 Y71.9607
G1 X199.2207 Y71.4527
G1 X199.5593 Y71.368
G1 X199.771
G1 X200.1097 Y71.4527
G1 X200.6177 Y71.9607
G1 X200.7023 Y72.2993
G1 Y72.511
G1 X200.6177 Y72.8497
G1 X200.152 Y73.3153
G1 Y74.035
G1 X200.6177 Y74.5007
G1 X200.7023 Y74.8393
G1 Y75.051
G1 X200.6177 Y75.3897
G1 X200.1097 Y75.8977
G1 X199.771 Y75.9823
G1 X199.4747
G1 X199.2207 Y75.8977
G1 X198.7127 Y75.3897
G1 X198.628 Y75.051
G1 Y74.8393
G1 X198.7127 Y74.5007
G1 X199.1783 Y74.035
G1 Y73.3153
G1 X198.7127 Y72.8497
G1 X198.628 Y72.511
G1 Y72.2993
G0 Z3.0
G0 X201.803
G0 Z1.275
G1 Z-0.125
G1 X201.8877 Y71.9607
G1 X202.3957 Y71.4527
G1 X202.7343 Y71.368
G1 X202.946
G1 X203.2847 Y71.4527
G1 X203.7927 Y71.9607
G1 X203.8773 Y72.2993
G1 Y72.511
G1 X203.7927 Y72.8497
G1 X203.327 Y73.3153
G1 Y74.035
G1 X203.7927 Y74.5007
G1 X203.8773 Y74.8393
G1 Y75.051
G1 X203.7927 Y75.3897
G1 X203.2847 Y75.8977
G1 X202.946 Y75.9823
G1 X202.6497
G1 X202.3957 Y75.8977
G1 X201.8877 Y75.3897
G1 X201.803 Y75.051
G1 Y74.8393
G1 X201.8877 Y74.5007
G1 X202.3533 Y74.035
G1 Y73.3153
G1 X201.8877 Y72.8497
G1 X201.803 Y72.511
G1 Y72.2993
G0 Z3.0
G0 X202.7343 Y76.448
G0 Z1.275
G1 Z-0.125
G1 X202.946
G1 X203.2847 Y76.5327
G1 X203.7503 Y76.9983
G1 X208.3647
G1 X212.5557 Y72.8497
G1 Y71.3257
G1 X214.7147
G1 Y71.9183
G1 X215.0957
G1 Y71.3257
G1 X217.2547
G1 Y73.4847
G1 X215.0957
G1 Y72.892
G1 X214.7147
G1 Y73.4847
G1 X213.233
G1 X208.7457 Y77.9297
G1 X203.7503 Y77.972
G1 X203.2847 Y78.4377
G1 X202.946 Y78.5223
G1 X202.7343
G1 X202.3957 Y78.4377
G1 X201.93 Y77.972
G1 X200.5753
G1 X200.1097 Y78.4377
G1 X199.771 Y78.5223
G1 X199.5593
G1 X199.2207 Y78.4377
G1 X198.755 Y77.972
G1 X197.4003
G1 X196.9347 Y78.4377
G1 X196.596 Y78.5223
G1 X196.3843
G1 X196.0457 Y78.4377
G1 X195.58 Y77.972
G1 X194.2253
G1 X193.7597 Y78.4377
G1 X193.421 Y78.5223
G1 X193.2093
G1 X192.8707 Y78.4377
G1 X192.405 Y77.972
G1 X191.0503
G1 X190.5847 Y78.4377
G1 X190.246 Y78.5223
G1 X190.0343
G1 X189.6957 Y78.4377
G1 X189.23 Y77.972
G1 X187.8753
G1 X187.4097 Y78.4377
G1 X187.071 Y78.5223
G1 X186.8593
G1 X186.5207 Y78.4377
G1 X186.055 Y77.972
G1 X184.7003
G1 X184.2347 Y78.4377
G1 X183.896 Y78.5223
G1 X183.6843
G1 X183.3457 Y78.4377
G1 X182.88 Y77.972
G1 X181.5253
G1 X181.0597 Y78.4377
G1 X180.721 Y78.5223
G1 X180.4247
G1 X180.1707 Y78.4377
G1 X179.6627 Y77.9297
G1 X179.578 Y77.591
G1 Y77.3793
G1 X179.6627 Y77.0407
G1 X180.1707 Y76.5327
G1 X180.5093 Y76.448
G1 X180.721
G1 X181.0597 Y76.5327
G1 X181.5253 Y76.9983
G1 X182.88
G1 X183.3457 Y76.5327
G1 X183.6843 Y76.448
G1 X183.896
G1 X184.2347 Y76.5327
G1 X184.7003 Y76.9983
G1 X186.055
G1 X186.5207 Y76.5327
G1 X186.8593 Y76.448
G1 X187.071
G1 X187.4097 Y76.5327
G1 X187.8753 Y76.9983
G1 X189.23
G1 X189.6957 Y76.5327
G1 X190.0343 Y76.448
G1 X190.246
G1 X190.5847 Y76.5327
G1 X191.0503 Y76.9983
G1 X192.405
G1 X192.8707 Y76.5327
G1 X193.2093 Y76.448
G1 X193.421
G1 X193.7597 Y76.5327
G1 X194.2253 Y76.9983
G1 X195.58
G1 X196.0457 Y76.5327
G1 X196.3843 Y76.448
G1 X196.596
G1 X196.9347 Y76.5327
G1 X197.4003 Y76.9983
G1 X198.755
G1 X199.2207 Y76.5327
G1 X199.5593 Y76.448
G1 X199.771
G1 X200.1097 Y76.5327
G1 X200.5753 Y76.9983
G1 X201.93
G1 X202.3957 Y76.5327
G1 X202.7343 Y76.448
G0 Z3.0
G0 Y78.9033
G0 Z1.275
G1 Z-0.125
G1 X209.042
G1 X212.6403 Y75.2627
G1 X212.598 Y74.8817
G1 X212.6827 Y74.5007
G1 X213.1907 Y73.9927
G1 X213.5293 Y73.908
G1 X213.741
G1 X214.0797 Y73.9927
G1 X214.5453 Y74.4583
G1 X215.265
G1 X215.7307 Y73.9927
G1 X216.0693 Y73.908
G1 X216.281
G1 X216.6197 Y73.9927
G1 X217.1277 Y74.5007
G1 X217.2123 Y74.8393
G1 Y75.051
G1 X217.1277 Y75.3897
G1 X216.6197 Y75.8977
G1 X216.281 Y75.9823
G1 X216.0693
G1 X215.7307 Y75.8977
G1 X215.265 Y75.432
G1 X214.5453
G1 X214.0797 Y75.8977
G1 X213.6987 Y75.9823
G1 X213.3177 Y75.94
G1 X209.3807 Y79.8347
G1 X179.2393 Y79.877
G1 X179.07 Y79.7923
G1 X177.8 Y78.48
G1 X177.3767 Y78.5223
G1 X176.9957 Y78.4377
G1 X176.53 Y77.972
G1 X175.1753
G1 X174.7097 Y78.4377
G1 X174.371 Y78.5223
G1 X174.1593
G1 X173.8207 Y78.4377
G1 X173.355 Y77.972
G1 X172.0003
G1 X171.5347 Y78.4377
G1 X171.196 Y78.5223
G1 X170.9843
G1 X170.6457 Y78.4377
G1 X170.18 Y77.972
G1 X168.8253
G1 X168.3597 Y78.4377
G1 X168.021 Y78.5223
G1 X167.8093
G1 X167.4707 Y78.4377
G1 X167.005 Y77.972
G1 X165.6503
G1 X165.1847 Y78.4377
G1 X164.846 Y78.5223
G1 X164.6343
G1 X164.2957 Y78.4377
G1 X163.83 Y77.972
G1 X162.4753
G1 X162.0097 Y78.4377
G1 X161.671 Y78.5223
G1 X161.4593
G1 X161.1207 Y78.4377
G1 X160.655 Y77.972
G1 X159.3003
G1 X158.8347 Y78.4377
G1 X158.496 Y78.5223
G1 X158.2843
G1 X157.9457 Y78.4377
G1 X157.48 Y77.972
G1 X156.1253
G1 X155.6597 Y78.4377
G1 X155.321 Y78.5223
G1 X155.1093
G1 X154.7707 Y78.4377
G1 X154.2627 Y77.9297
G1 X154.178 Y77.591
G1 Y77.3793
G1 X154.2627 Y77.0407
G1 X154.7707 Y76.5327
G1 X155.1093 Y76.448
G1 X155.321
G1 X155.6597 Y76.5327
G1 X156.1253 Y76.9983
G1 X157.48
G1 X157.9457 Y76.5327
G1 X158.2843 Y76.448
G1 X158.496
G1 X158.8347 Y76.5327
G1 X159.3003 Y76.9983
G1 X160.655
G1 X161.1207 Y76.5327
G1 X161.4593 Y76.448
G1 X161.671
G1 X162.0097 Y76.5327
G1 X162.4753 Y76.9983
G1 X163.83
G1 X164.2957 Y76.5327
G1 X164.6343 Y76.448
G1 X164.846
G1 X165.1847 Y76.5327
G1 X165.6503 Y76.9983
G1 X167.005
G1 X167.4707 Y76.5327
G1 X167.8093 Y76.448
G1 X168.021
G1 X168.3597 Y76.5327
G1 X168.8253 Y76.9983
G1 X170.18
G1 X170.6457 Y76.5327
G1 X170.9843 Y76.448
G1 X171.196
G1 X171.5347 Y76.5327
G1 X172.0003 Y76.9983
G1 X173.355
G1 X173.8207 Y76.5327
G1 X174.1593 Y76.448
G1 X174.371
G1 X174.7097 Y76.5327
G1 X175.1753 Y76.9983
G1 X176.53
G1 X176.9957 Y76.5327
G1 X177.3343 Y76.448
G1 X177.546
G1 X177.8847 Y76.5327
G1 X178.3927 Y77.0407
G1 X178.4773 Y77.4217
G1 X178.435 Y77.8027
G1 X179.4933 Y78.9033
G1 X202.7343
G0 Z3.0
G0 Y80.8083
G0 Z1.275
G1 Z-0.125
G1 X209.677
G1 X212.6403 Y77.8027
G1 X212.598 Y77.4217
G1 X212.6827 Y77.0407
G1 X213.1907 Y76.5327
G1 X213.5293 Y76.448
G1 X213.741
G1 X214.0797 Y76.5327
G1 X214.5453 Y76.9983
G1 X215.265
G1 X215.7307 Y76.5327
G1 X216.0693 Y76.448
G1 X216.281
G1 X216.6197 Y76.5327
G1 X217.1277 Y77.0407
G1 X217.2123 Y77.3793
G1 Y77.591
G1 X217.1277 Y77.9297
G1 X216.6197 Y78.4377
G1 X216.281 Y78.5223
G1 X216.0693
G1 X215.7307 Y78.4377
G1 X215.265 Y77.972
G1 X214.5453
G1 X214.0797 Y78.4377
G1 X213.6987 Y78.5223
G1 X213.3177 Y78.48
G1 X210.0157 Y81.7397
G1 X155.7443 Y81.782
G1 X155.575 Y81.6973
G1 X152.4 Y78.48
G1 X151.9767 Y78.5223
G1 X151.5957 Y78.4377
G1 X151.13 Y77.972
G1 X149.7753
G1 X149.3097 Y78.4377
G1 X148.971 Y78.5223
G1 X148.7593
G1 X148.4207 Y78.4377
G1 X147.955 Y77.972
G1 X146.6003
G1 X146.1347 Y78.4377
G1 X145.796 Y78.5223
G1 X145.5843
G1 X145.2457 Y78.4377
G1 X144.78 Y77.972
G1 X143.4253
G1 X142.9597 Y78.4377
G1 X142.621 Y78.5223
G1 X142.4093
G1 X142.0707 Y78.4377
G1 X141.605 Y77.972
G1 X140.2503
G1 X139.7847 Y78.4377
G1 X139.446 Y78.5223
G1 X139.2343
G1 X138.8957 Y78.4377
G1 X138.43 Y77.972
G1 X137.0753
G1 X136.6097 Y78.4377
G1 X136.271 Y78.5223
G1 X136.0593
G1 X135.7207 Y78.4377
G1 X135.255 Y77.972
G1 X133.9003
G1 X133.4347 Y78.4377
G1 X133.096 Y78.5223
G1 X132.8843
G1 X132.5457 Y78.4377
G1 X132.08 Y77.972
G1 X130.7253
G1 X130.2597 Y78.4377
G1 X129.921 Y78.5223
G1 X129.7093
G1 X129.3707 Y78.4377
G1 X128.8627 Y77.9297
G1 X128.778 Y77.591
G1 Y77.3793
G1 X128.8627 Y77.0407
G1 X129.3707 Y76.5327
G1 X129.7093 Y76.448
G1 X129.921
G1 X130.2597 Y76.5327
G1 X130.7253 Y76.9983
G1 X132.08
G1 X132.5457 Y76.5327
G1 X132.8843 Y76.448
G1 X133.096
G1 X133.4347 Y76.5327
G1 X133.9003 Y76.9983
G1 X135.255
G1 X135.7207 Y76.5327
G1 X136.0593 Y76.448
G1 X136.271
G1 X136.6097 Y76.5327
G1 X137.0753 Y76.9983
G1 X138.43
G1 X138.8957 Y76.5327
G1 X139.2343 Y76.448
G1 X139.446
G1 X139.7847 Y76.5327
G1 X140.2503 Y76.9983
G1 X141.605
G1 X142.0707 Y76.5327
G1 X142.4093 Y76.448
G1 X142.621
G1 X142.9597 Y76.5327
G1 X143.4253 Y76.9983
G1 X144.78
G1 X145.2457 Y76.5327
G1 X145.5843 Y76.448
G1 X145.796
G1 X146.1347 Y76.5327
G1 X146.6003 Y76.9983
G1 X147.955
G1 X148.4207 Y76.5327
G1 X148.7593 Y76.448
G1 X148.971
G1 X149.3097 Y76.5327
G1 X149.7753 Y76.9983
G1 X151.13
G1 X151.5957 Y76.5327
G1 X151.9343 Y76.448
G1 X152.146
G1 X152.4847 Y76.5327
G1 X152.9927 Y77.0407
G1 X153.0773 Y77.4217
G1 X153.035 Y77.8027
G1 X155.9983 Y80.8083
G1 X202.7343
G0 Z3.0
G0 Y82.7133
G0 Z1.275
G1 Z-0.125
G1 X210.312
G1 X212.6403 Y80.3427
G1 X212.598 Y79.9617
G1 X212.6827 Y79.5807
G1 X213.1907 Y79.0727
G1 X213.5293 Y78.988
G1 X213.741
G1 X214.0797 Y79.0727
G1 X214.5453 Y79.5383
G1 X215.265
G1 X215.7307 Y79.0727
G1 X216.0693 Y78.988
G1 X216.281
G1 X216.6197 Y79.0727
G1 X217.1277 Y79.5807
G1 X217.2123 Y79.9193
G1 Y80.131
G1 X217.1277 Y80.4697
G1 X216.6197 Y80.9777
G1 X216.281 Y81.0623
G1 X216.0693
G1 X215.7307 Y80.9777
G1 X215.265 Y80.512
G1 X214.5453
G1 X214.0797 Y80.9777
G1 X213.6987 Y81.0623
G1 X213.3177 Y81.02
G1 X210.6507 Y83.6447
G1 X132.2493 Y83.687
G1 X132.08 Y83.6023
G1 X127.0 Y78.48
G1 X126.5767 Y78.5223
G1 X126.1957 Y78.4377
G1 X125.73 Y77.972
G1 X124.3753
G1 X123.9097 Y78.4377
G1 X123.571 Y78.5223
G1 X123.3593
G1 X123.0207 Y78.4377
G1 X122.555 Y77.972
G1 X121.2003
G1 X120.7347 Y78.4377
G1 X120.396 Y78.5223
G1 X120.1843
G1 X119.8457 Y78.4377
G1 X119.38 Y77.972
G1 X118.0253
G1 X117.5597 Y78.4377
G1 X117.221 Y78.5223
G1 X117.0093
G1 X116.6707 Y78.4377
G1 X116.205 Y77.972
G1 X114.8503
G1 X114.3847 Y78.4377
G1 X114.046 Y78.5223
G1 X113.8343
G1 X113.4957 Y78.4377
G1 X113.03 Y77.972
G1 X111.6753
G1 X111.2097 Y78.4377
G1 X110.871 Y78.5223
G1 X110.6593
G1 X110.3207 Y78.4377
G1 X109.855 Y77.972
G1 X108.5003
G1 X108.0347 Y78.4377
G1 X107.696 Y78.5223
G1 X107.4843
G1 X107.1457 Y78.4377
G1 X106.68 Y77.972
G1 X105.3253
G1 X104.8597 Y78.4377
G1 X104.521 Y78.5223
G1 X104.3093
G1 X103.9707 Y78.4377
G1 X103.4627 Y77.9297
G1 X103.378 Y77.591
G1 Y77.3793
G1 X103.4627 Y77.0407
G1 X103.9707 Y76.5327
G1 X104.3093 Y76.448
G1 X104.521
G1 X104.8597 Y76.5327
G1 X105.3253 Y76.9983
G1 X106.68
G1 X107.1457 Y76.5327
G1 X107.4843 Y76.448
G1 X107.696
G1 X108.0347 Y76.5327
G1 X108.5003 Y76.9983
G1 X109.855
G1 X110.3207 Y76.5327
G1 X110.6593 Y76.448
G1 X110.871
G1 X111.2097 Y76.5327
G1 X111.6753 Y76.9983
G1 X113.03
G1 X113.4957 Y76.5327
G1 X113.8343 Y76.448
G1 X114.046
G1 X114.3847 Y76.5327
G1 X114.8503 Y76.9983
G1 X116.205
G1 X116.6707 Y76.5327
G1 X117.0093 Y76.448
G1 X117.221
G1 X117.5597 Y76.5327
G1 X118.0253 Y76.9983
G1 X119.38
G1 X119.8457 Y76.5327
G1 X120.1843 Y76.448
G1 X120.396
G1 X120.7347 Y76.5327
G1 X121.2003 Y76.9983
G1 X122.555
G1 X123.0207 Y76.5327
G1 X123.3593 Y76.448
G1 X123.571
G1 X123.9097 Y76.5327
G1 X124.3753 Y76.9983
G1 X125.73
G1 X126.1957 Y76.5327
G1 X126.5343 Y76.448
G1 X126.746
G1 X127.0847 Y76.5327
G1 X127.5927 Y77.0407
G1 X127.6773 Y77.4217
G1 X127.635 Y77.8027
G1 X132.5033 Y82.7133
G1 X202.7343
G0 Z3.0
G0 Y84.6183
G0 Z1.275
G1 Z-0.125
G1 X210.947
G1 X212.6403 Y82.8827
G1 X212.598 Y82.5017
G1 X212.6827 Y82.1207
G1 X213.1907 Y81.6127
G1 X213.5293 Y81.528
G1 X213.741
G1 X214.0797 Y81.6127
G1 X214.5453 Y82.0783
G1 X215.265
G1 X215.7307 Y81.6127
G1 X216.0693 Y81.528
G1 X216.281
G1 X216.6197 Y81.6127
G1 X217.1277 Y82.1207
G1 X217.2123 Y82.4593
G1 Y82.671
G1 X217.1277 Y83.0097
G1 X216.6197 Y83.5177
G1 X216.281 Y83.6023
G1 X216.0693
G1 X215.7307 Y83.5177
G1 X215.265 Y83.052
G1 X214.5453
G1 X214.0797 Y83.5177
G1 X213.6987 Y83.6023
G1 X213.3177 Y83.56
G1 X211.2857 Y85.5497
G1 X108.7543 Y85.592
G1 X108.585 Y85.5073
G1 X101.6 Y78.48
G1 X101.1767 Y78.5223
G1 X100.7957 Y78.4377
G1 X100.33 Y77.972
G1 X98.9753
G1 X98.5097 Y78.4377
G1 X98.171 Y78.5223
G1 X97.9593
G1 X97.6207 Y78.4377
G1 X97.155 Y77.972
G1 X95.8003
G1 X95.3347 Y78.4377
G1 X94.996 Y78.5223
G1 X94.7843
G1 X94.4457 Y78.4377
G1 X93.98 Y77.972
G1 X92.6253
G1 X92.1597 Y78.4377
G1 X91.821 Y78.5223
G1 X91.6093
G1 X91.2707 Y78.4377
G1 X90.805 Y77.972
G1 X89.4503
G1 X88.9847 Y78.4377
G1 X88.646 Y78.5223
G1 X88.4343
G1 X88.0957 Y78.4377
G1 X87.63 Y77.972
G1 X86.2753
G1 X85.8097 Y78.4377
G1 X85.471 Y78.5223
G1 X85.2593
G1 X84.9207 Y78.4377
G1 X84.455 Y77.972
G1 X83.1003
G1 X82.6347 Y78.4377
G1 X82.296 Y78.5223
G1 X82.0843
G1 X81.7457 Y78.4377
G1 X81.28 Y77.972
G1 X79.9253
G1 X79.4597 Y78.4377
G1 X79.121 Y78.5223
G1 X78.9093
G1 X78.5707 Y78.4377
G1 X78.0627 Y77.9297
G1 X77.978 Y77.591
G1 Y77.3793
G1 X78.0627 Y77.0407
G1 X78.5707 Y76.5327
G1 X78.9093 Y76.448
G1 X79.121
G1 X79.4597 Y76.5327
G1 X79.9253 Y76.9983
G1 X81.28
G1 X81.7457 Y76.5327
G1 X82.0843 Y76.448
G1 X82.296
G1 X82.6347 Y76.5327
G1 X83.1003 Y76.9983
G1 X84.455
G1 X84.9207 Y76.5327
G1 X85.2593 Y76.448
G1 X85.471
G1 X85.8097 Y76.5327
G1 X86.2753 Y76.9983
G1 X87.63
G1 X88.0957 Y76.5327
G1 X88.4343 Y76.448
G1 X88.646
G1 X88.9847 Y76.5327
G1 X89.4503 Y76.9983
G1 X90.805
G1 X91.2707 Y76.5327
G1 X91.6093 Y76.448
G1 X91.821
G1 X92.1597 Y76.5327
G1 X92.6253 Y76.9983
G1 X93.98
G1 X94.4457 Y76.5327
G1 X94.7843 Y76.448
G1 X94.996
G1 X95.3347 Y76.5327
G1 X95.8003 Y76.9983
G1 X97.155
G1 X97.6207 Y76.5327
G1 X97.9593 Y76.448
G1 X98.171
G1 X98.5097 Y76.5327
G1 X98.9753 Y76.9983
G1 X100.33
G1 X100.7957 Y76.5327
G1 X101.1343 Y76.448
G1 X101.346
G1 X101.6847 Y76.5327
G1 X102.1927 Y77.0407
G1 X102.2773 Y77.4217
G1 X102.235 Y77.8027
G1 X109.0083 Y84.6183
G1 X202.7343
G0 Z3.0
G0 Y86.5233
G0 Z1.275
G1 Z-0.125
G1 X211.582
G1 X212.6403 Y85.4227
G1 X212.598 Y85.0417
G1 X212.6827 Y84.6607
G1 X213.1907 Y84.1527
G1 X213.5293 Y84.068
G1 X213.741
G1 X214.0797 Y84.1527
G1 X214.5453 Y84.6183
G1 X215.265
G1 X215.7307 Y84.1527
G1 X216.0693 Y84.068
G1 X216.281
G1 X216.6197 Y84.1527
G1 X217.1277 Y84.6607
G1 X217.2123 Y84.9993
G1 Y85.211
G1 X217.1277 Y85.5497
G1 X216.6197 Y86.0577
G1 X216.281 Y86.1423
G1 X216.0693
G1 X215.7307 Y86.0577
G1 X215.265 Y85.592
G1 X214.5453
G1 X214.0797 Y86.0577
G1 X213.6987 Y86.1423
G1 X213.3177 Y86.1
G1 X211.9207 Y87.4547
G1 X85.2593 Y87.497
G1 X85.09 Y87.4123
G1 X76.2 Y78.48
G1 X75.7767 Y78.5223
G1 X75.3957 Y78.4377
G1 X74.93 Y77.972
G1 X73.5753
G1 X73.1097 Y78.4377
G1 X72.771 Y78.5223
G1 X72.5593
G1 X72.2207 Y78.4377
G1 X71.755 Y77.972
G1 X70.4003
G1 X69.9347 Y78.4377
G1 X69.596 Y78.5223
G1 X69.3843
G1 X69.0457 Y78.4377
G1 X68.58 Y77.972
G1 X67.2253
G1 X66.7597 Y78.4377
G1 X66.421 Y78.5223
G1 X66.2093
G1 X65.8707 Y78.4377
G1 X65.405 Y77.972
G1 X64.0503
G1 X63.5847 Y78.4377
G1 X63.246 Y78.5223
G1 X63.0343
G1 X62.6957 Y78.4377
G1 X62.23 Y77.972
G1 X60.8753
G1 X60.4097 Y78.4377
G1 X60.071 Y78.5223
G1 X59.8593
G1 X59.5207 Y78.4377
G1 X59.055 Y77.972
G1 X57.7003
G1 X57.2347 Y78.4377
G1 X56.896 Y78.5223
G1 X56.6843
G1 X56.3457 Y78.4377
G1 X55.88 Y77.972
G1 X54.5253
G1 X54.0597 Y78.4377
G1 X53.721 Y78.5223
G1 X53.5093
G1 X53.1707 Y78.4377
G1 X52.6627 Y77.9297
G1 X52.578 Y77.591
G1 Y77.3793
G1 X52.6627 Y77.0407
G1 X53.1707 Y76.5327
G1 X53.5093 Y76.448
G1 X53.721
G1 X54.0597 Y76.5327
G1 X54.5253 Y76.9983
G1 X55.88
G1 X56.3457 Y76.5327
G1 X56.6843 Y76.448
G1 X56.896
G1 X57.2347 Y76.5327
G1 X57.7003 Y76.9983
G1 X59.055
G1 X59.5207 Y76.5327
G1 X59.8593 Y76.448
G1 X60.071
G1 X60.4097 Y76.5327
G1 X60.8753 Y76.9983
G1 X62.23
G1 X62.6957 Y76.5327
G1 X63.0343 Y76.448
G1 X63.246
G1 X63.5847 Y76.5327
G1 X64.0503 Y76.9983
G1 X65.405
G1 X65.8707 Y76.5327
G1 X66.2093 Y76.448
G1 X66.421
G1 X66.7597 Y76.5327
G1 X67.2253 Y76.9983
G1 X68.58
G1 X69.0457 Y76.5327
G1 X69.3843 Y76.448
G1 X69.596
G1 X69.9347 Y76.5327
G1 X70.4003 Y76.9983
G1 X71.755
G1 X72.2207 Y76.5327
G1 X72.5593 Y76.448
G1 X72.771
G1 X73.1097 Y76.5327
G1 X73.5753 Y76.9983
G1 X74.93
G1 X75.3957 Y76.5327
G1 X75.7343 Y76.448
G1 X75.946
G1 X76.2847 Y76.5327
G1 X76.7927 Y77.0407
G1 X76.8773 Y77.4217
G1 X76.835 Y77.8027
G1 X85.5133 Y86.5233
G1 X202.7343
G0 Z3.0
G0 Y88.4283
G0 Z1.275
G1 Z-0.125
G1 X212.217
G1 X212.6403 Y87.9627
G1 X212.598 Y87.5817
G1 X212.6827 Y87.2007
G1 X213.1907 Y86.6927
G1 X213.5293 Y86.608
G1 X213.741
G1 X214.0797 Y86.6927
G1 X214.5453 Y87.1583
G1 X215.265
G1 X215.7307 Y86.6927
G1 X216.0693 Y86.608
G1 X216.281
G1 X216.6197 Y86.6927
G1 X217.1277 Y87.2007
G1 X217.2123 Y87.5393
G1 Y87.751
G1 X217.1277 Y88.0897
G1 X216.6197 Y88.5977
G1 X216.281 Y88.6823
G1 X216.0693
G1 X215.7307 Y88.5977
G1 X215.265 Y88.132
G1 X214.5453
G1 X214.0797 Y88.5977
G1 X213.6987 Y88.6823
G1 X213.3177 Y88.64
G1 X212.5557 Y89.3597
G1 X61.7643 Y89.402
G1 X61.595 Y89.3173
G1 X50.8 Y78.48
G1 X50.3767 Y78.5223
G1 X49.9957 Y78.4377
G1 X49.53 Y77.972
G1 X48.1753
G1 X47.7097 Y78.4377
G1 X47.371 Y78.5223
G1 X47.1593
G1 X46.8207 Y78.4377
G1 X46.355 Y77.972
G1 X45.0003
G1 X44.5347 Y78.4377
G1 X44.196 Y78.5223
G1 X43.9843
G1 X43.6457 Y78.4377
G1 X43.18 Y77.972
G1 X41.8253
G1 X41.3597 Y78.4377
G1 X41.021 Y78.5223
G1 X40.8093
G1 X40.4707 Y78.4377
G1 X40.005 Y77.972
G1 X38.6503
G1 X38.1847 Y78.4377
G1 X37.846 Y78.5223
G1 X37.6343
G1 X37.2957 Y78.4377
G1 X36.83 Y77.972
G1 X35.4753
G1 X35.0097 Y78.4377
G1 X34.671 Y78.5223
G1 X34.4593
G1 X34.1207 Y78.4377
G1 X33.655 Y77.972
G1 X32.3003
G1 X31.8347 Y78.4377
G1 X31.496 Y78.5223
G1 X31.2843
G1 X30.9457 Y78.4377
G1 X30.48 Y77.972
G1 X29.1253
G1 X28.6597 Y78.4377
G1 X28.321 Y78.5223
G1 X28.1093
G1 X27.7707 Y78.4377
G1 X27.2627 Y77.9297
G1 X27.178 Y77.591
G1 Y77.3793
G1 X27.2627 Y77.0407
G1 X27.7707 Y76.5327
G1 X28.1093 Y76.448
G1 X28.321
G1 X28.6597 Y76.5327
G1 X29.1253 Y76.9983
G1 X30.48
G1 X30.9457 Y76.5327
G1 X31.2843 Y76.448
G1 X31.496
G1 X31.8347 Y76.5327
G1 X32.3003 Y76.9983
G1 X33.655
G1 X34.1207 Y76.5327
G1 X34.4593 Y76.448
G1 X34.671
G1 X35.0097 Y76.5327
G1 X35.4753 Y76.9983
G1 X36.83
G1 X37.2957 Y76.5327
G1 X37.6343 Y76.448
G1 X37.846
G1 X38.1847 Y76.5327
G1 X38.6503 Y76.9983
G1 X40.005
G1 X40.4707 Y76.5327
G1 X40.8093 Y76.448
G1 X41.021
G1 X41.3597 Y76.5327
G1 X41.8253 Y76.9983
G1 X43.18
G1 X43.6457 Y76.5327
G1 X43.9843 Y76.448
G1 X44.196
G1 X44.5347 Y76.5327
G1 X45.0003 Y76.9983
G1 X46.355
G1 X46.8207 Y76.5327
G1 X47.1593 Y76.448
G1 X47.371
G1 X47.7097 Y76.5327
G1 X48.1753 Y76.9983
G1 X49.53
G1 X49.9957 Y76.5327
G1 X50.3343 Y76.448
G1 X50.546
G1 X50.8847 Y76.5327
G1 X51.3927 Y77.0407
G1 X51.4773 Y77.4217
G1 X51.435 Y77.8027
G1 X62.0183 Y88.4283
G1 X202.7343
G0 Z3.0
G0 Y90.3333
G0 Z1.275
G1 Z-0.125
G1 X212.598
G1 Y90.0793
G1 X212.6827 Y89.7407
G1 X213.1907 Y89.2327
G1 X213.5293 Y89.148
G1 X213.741
G1 X214.0797 Y89.2327
G1 X214.5453 Y89.6983
G1 X215.265
G1 X215.7307 Y89.2327
G1 X216.0693 Y89.148
G1 X216.281
G1 X216.6197 Y89.2327
G1 X217.1277 Y89.7407
G1 X217.2123 Y90.0793
G1 Y90.291
G1 X217.1277 Y90.6297
G1 X216.6197 Y91.1377
G1 X216.281 Y91.2223
G1 X216.0693
G1 X215.7307 Y91.1377
G1 X215.265 Y90.672
G1 X214.5453
G1 X214.0797 Y91.1377
G1 X213.6987 Y91.2223
G1 X213.3177 Y91.18
G1 X213.106 Y91.307
G1 X38.2693
G1 X38.1 Y91.2223
G1 X25.4 Y78.48
G1 X24.9767 Y78.5223
G1 X24.5957 Y78.4377
G1 X24.13 Y77.972
G1 X22.7753
G1 X22.3097 Y78.4377
G1 X21.971 Y78.5223
G1 X21.7593
G1 X21.4207 Y78.4377
G1 X20.955 Y77.972
G1 X19.6003
G1 X19.1347 Y78.4377
G1 X18.796 Y78.5223
G1 X18.5843
G1 X18.2457 Y78.4377
G1 X17.78 Y77.972
G1 X16.4253
G1 X15.9597 Y78.4377
G1 X15.621 Y78.5223
G1 X15.4093
G1 X15.0707 Y78.4377
G1 X14.605 Y77.972
G1 X13.2503
G1 X12.7847 Y78.4377
G1 X12.446 Y78.5223
G1 X12.2343
G1 X11.8957 Y78.4377
G1 X11.43 Y77.972
G1 X10.0753
G1 X9.6097 Y78.4377
G1 X9.271 Y78.5223
G1 X9.0593
G1 X8.7207 Y78.4377
G1 X8.255 Y77.972
G1 X6.9003
G1 X6.4347 Y78.4377
G1 X6.096 Y78.5223
G1 X5.8843
G1 X5.5457 Y78.4377
G1 X5.08 Y77.972
G1 X3.7253
G1 X3.2597 Y78.4377
G1 X2.921 Y78.5223
G1 X2.7093
G1 X2.3707 Y78.4377
G1 X1.8627 Y77.9297
G1 X1.778 Y77.591
G1 Y77.3793
G1 X1.8627 Y77.0407
G1 X2.3707 Y76.5327
G1 X2.7093 Y76.448
G1 X2.921
G1 X3.2597 Y76.5327
G1 X3.7253 Y76.9983
G1 X5.08
G1 X5.5457 Y76.5327
G1 X5.8843 Y76.448
G1 X6.096
G1 X6.4347 Y76.5327
G1 X6.9003 Y76.9983
G1 X8.255
G1 X8.7207 Y76.5327
G1 X9.0593 Y76.448
G1 X9.271
G1 X9.6097 Y76.5327
G1 X10.0753 Y76.9983
G1 X11.43
G1 X11.8957 Y76.5327
G1 X12.2343 Y76.448
G1 X12.446
G1 X12.7847 Y76.5327
G1 X13.2503 Y76.9983
G1 X14.605
G1 X15.0707 Y76.5327
G1 X15.4093 Y76.448
G1 X15.621
G1 X15.9597 Y76.5327
G1 X16.4253 Y76.9983
G1 X17.78
G1 X18.2457 Y76.5327
G1 X18.5843 Y76.448
G1 X18.796
G1 X19.1347 Y76.5327
G1 X19.6003 Y76.9983
G1 X20.955
G1 X21.4207 Y76.5327
G1 X21.7593 Y76.448
G1 X21.971
G1 X22.3097 Y76.5327
G1 X22.7753 Y76.9983
G1 X24.13
G1 X24.5957 Y76.5327
G1 X24.9343 Y76.448
G1 X25.146
G1 X25.4847 Y76.5327
G1 X25.9927 Y77.0407
G1 X26.0773 Y77.4217
G1 X26.035 Y77.8027
G1 X38.5233 Y90.3333
G1 X202.7343
G0 Z3.0
G0 Y98.413
G0 Z1.275
G1 Z-0.125
G1 X202.946
G1 X203.2847 Y98.4977
G1 X203.7503 Y98.9633
G1 X213.106
G1 X213.3177 Y99.0903
G1 X213.6987 Y99.048
G1 X214.0797 Y99.1327
G1 X214.5453 Y99.5983
G1 X215.265
G1 X215.7307 Y99.1327
G1 X216.0693 Y99.048
G1 X216.281
G1 X216.6197 Y99.1327
G1 X217.1277 Y99.6407
G1 X217.2123 Y99.9793
G1 Y100.191
G1 X217.1277 Y100.5297
G1 X216.6197 Y101.0377
G1 X216.281 Y101.1223
G1 X216.0693
G1 X215.7307 Y101.0377
G1 X215.265 Y100.572
G1 X214.5453
G1 X214.0797 Y101.0377
G1 X213.741 Y101.1223
G1 X213.4447
G1 X213.1907 Y101.0377
G1 X212.6827 Y100.5297
G1 X212.598 Y100.191
G1 Y99.937
G1 X203.7503
G1 X203.2847 Y100.4027
G1 X202.946 Y100.4873
G1 X202.7343
G1 X202.3957 Y100.4027
G1 X201.93 Y99.937
G1 X178.3503
G1 X177.8847 Y100.4027
G1 X177.546 Y100.4873
G1 X177.3343
G1 X176.9957 Y100.4027
G1 X176.53 Y99.937
G1 X152.9503
G1 X152.4847 Y100.4027
G1 X152.146 Y100.4873
G1 X151.9343
G1 X151.5957 Y100.4027
G1 X151.13 Y99.937
G1 X127.5503
G1 X127.0847 Y100.4027
G1 X126.746 Y100.4873
G1 X126.5343
G1 X126.1957 Y100.4027
G1 X125.73 Y99.937
G1 X102.1503
G1 X101.6847 Y100.4027
G1 X101.346 Y100.4873
G1 X101.1343
G1 X100.7957 Y100.4027
G1 X100.33 Y99.937
G1 X76.7503
G1 X76.2847 Y100.4027
G1 X75.946 Y100.4873
G1 X75.7343
G1 X75.3957 Y100.4027
G1 X74.93 Y99.937
G1 X51.3503
G1 X50.8847 Y100.4027
G1 X50.546 Y100.4873
G1 X50.3343
G1 X49.9957 Y100.4027
G1 X49.53 Y99.937
G1 X25.9503
G1 X25.4847 Y100.4027
G1 X25.146 Y100.4873
G1 X24.9343
G1 X24.5957 Y100.4027
G1 X24.0877 Y99.8947
G1 X24.003 Y99.556
G1 Y99.3443
G1 X24.0877 Y99.0057
G1 X24.5957 Y98.4977
G1 X24.9343 Y98.413
G1 X25.146
G1 X25.4847 Y98.4977
G1 X25.9503 Y98.9633
G1 X49.53
G1 X49.9957 Y98.4977
G1 X50.3343 Y98.413
G1 X50.546
G1 X50.8847 Y98.4977
G1 X51.3503 Y98.9633
G1 X74.93
G1 X75.3957 Y98.4977
G1 X75.7343 Y98.413
G1 X75.946
G1 X76.2847 Y98.4977
G1 X76.7503 Y98.9633
G1 X100.33
G1 X100.7957 Y98.4977
G1 X101.1343 Y98.413
G1 X101.346
G1 X101.6847 Y98.4977
G1 X102.1503 Y98.9633
G1 X125.73
G1 X126.1957 Y98.4977
G1 X126.5343 Y98.413
G1 X126.746
G1 X127.0847 Y98.4977
G1 X127.5503 Y98.9633
G1 X151.13
G1 X151.5957 Y98.4977
G1 X151.9343 Y98.413
G1 X152.146
G1 X152.4847 Y98.4977
G1 X152.9503 Y98.9633
G1 X176.53
G1 X176.9957 Y98.4977
G1 X177.3343 Y98.413
G1 X177.546
G1 X177.8847 Y98.4977
G1 X178.3503 Y98.9633
G1 X201.93
G1 X202.3957 Y98.4977
G1 X202.7343 Y98.413
G0 Z3.0
G0 X202.7295 Y100.8913
G0 Z1.275
G1 Z-0.125
G1 X212.5557 Y100.9107
G1 X213.3177 Y101.6303
G1 X213.6987 Y101.588
G1 X214.0797 Y101.6727
G1 X214.5453 Y102.1383
G1 X215.265
G1 X215.7307 Y101.6727
G1 X216.0693 Y101.588
G1 X216.281
G1 X216.6197 Y101.6727
G1 X217.1277 Y102.1807
G1 X217.2123 Y102.5193
G1 Y102.731
G1 X217.1277 Y103.0697
G1 X216.6197 Y103.5777
G1 X216.281 Y103.6623
G1 X216.0693
G1 X215.7307 Y103.5777
G1 X215.265 Y103.112
G1 X214.5453
G1 X214.0797 Y103.5777
G1 X213.741 Y103.6623
G1 X213.4447
G1 X213.1907 Y103.5777
G1 X212.6827 Y103.0697
G1 X212.598 Y102.6887
G1 X212.6403 Y102.3077
G1 X212.217 Y101.842
G1 X191.0503
G1 X190.5847 Y102.3077
G1 X190.246 Y102.3923
G1 X190.0343
G1 X189.6957 Y102.3077
G1 X189.23 Y101.842
G1 X165.6503
G1 X165.1847 Y102.3077
G1 X164.846 Y102.3923
G1 X164.6343
G1 X164.2957 Y102.3077
G1 X163.83 Y101.842
G1 X140.2503
G1 X139.7847 Y102.3077
G1 X139.446 Y102.3923
G1 X139.2343
G1 X138.8957 Y102.3077
G1 X138.43 Y101.842
G1 X114.8503
G1 X114.3847 Y102.3077
G1 X114.046 Y102.3923
G1 X113.8343
G1 X113.4957 Y102.3077
G1 X113.03 Y101.842
G1 X89.4503
G1 X88.9847 Y102.3077
G1 X88.646 Y102.3923
G1 X88.4343
G1 X88.0957 Y102.3077
G1 X87.63 Y101.842
G1 X64.0503
G1 X63.5847 Y102.3077
G1 X63.246 Y102.3923
G1 X63.0343
G1 X62.6957 Y102.3077
G1 X62.23 Y101.842
G1 X38.6503
G1 X38.1847 Y102.3077
G1 X37.846 Y102.3923
G1 X37.6343
G1 X37.2957 Y102.3077
G1 X36.83 Y101.842
G1 X13.2503
G1 X12.7847 Y102.3077
G1 X12.446 Y102.3923
G1 X12.2343
G1 X11.8957 Y102.3077
G1 X11.3877 Y101.7997
G1 X11.303 Y101.461
G1 Y101.2493
G1 X11.3877 Y100.9107
G1 X11.8957 Y100.4027
G1 X12.2343 Y100.318
G1 X12.446
G1 X12.7847 Y100.4027
G1 X13.2503 Y100.8683
G1 X36.83
G1 X37.2957 Y100.4027
G1 X37.6343 Y100.318
G1 X37.846
G1 X38.1847 Y100.4027
G1 X38.6503 Y100.8683
G1 X62.23
G1 X62.6957 Y100.4027
G1 X63.0343 Y100.318
G1 X63.246
G1 X63.5847 Y100.4027
G1 X64.0503 Y100.8683
G1 X87.63
G1 X88.0957 Y100.4027
G1 X88.4343 Y100.318
G1 X88.646
G1 X88.9847 Y100.4027
G1 X89.4503 Y100.8683
G1 X113.03
G1 X113.4957 Y100.4027
G1 X113.8343 Y100.318
G1 X114.046
G1 X114.3847 Y100.4027
G1 X114.8503 Y100.8683
G1 X138.43
G1 X138.8957 Y100.4027
G1 X139.2343 Y100.318
G1 X139.446
G1 X139.7847 Y100.4027
G1 X140.2503 Y100.8683
G1 X163.83
G1 X164.2957 Y100.4027
G1 X164.6343 Y100.318
G1 X164.846
G1 X165.1847 Y100.4027
G1 X165.6503 Y100.8683
G1 X189.23
G1 X189.6957 Y100.4027
G1 X190.0343 Y100.318
G1 X190.246
G1 X190.5847 Y100.4027
G1 X191.0503 Y100.8683
G1 X202.7295 Y100.8913
G0 Z3.0
G0 X202.7268 Y102.8029
G0 Z1.275
G1 Z-0.125
G1 X211.9207 Y102.8157
G1 X213.3177 Y104.1703
G1 X213.6987 Y104.128
G1 X214.0797 Y104.2127
G1 X214.5453 Y104.6783
G1 X215.265
G1 X215.7307 Y104.2127
G1 X216.0693 Y104.128
G1 X216.281
G1 X216.6197 Y104.2127
G1 X217.1277 Y104.7207
G1 X217.2123 Y105.0593
G1 Y105.271
G1 X217.1277 Y105.6097
G1 X216.6197 Y106.1177
G1 X216.281 Y106.2023
G1 X216.0693
G1 X215.7307 Y106.1177
G1 X215.265 Y105.652
G1 X214.5453
G1 X214.0797 Y106.1177
G1 X213.741 Y106.2023
G1 X213.4447
G1 X213.1907 Y106.1177
G1 X212.6827 Y105.6097
G1 X212.598 Y105.2287
G1 X212.6403 Y104.8477
G1 X211.582 Y103.747
G1 X181.5253
G1 X181.0597 Y104.2127
G1 X180.721 Y104.2973
G1 X180.5093
G1 X180.1707 Y104.2127
G1 X179.705 Y103.747
G1 X156.1253
G1 X155.6597 Y104.2127
G1 X155.321 Y104.2973
G1 X155.1093
G1 X154.7707 Y104.2127
G1 X154.305 Y103.747
G1 X130.7253
G1 X130.2597 Y104.2127
G1 X129.921 Y104.2973
G1 X129.7093
G1 X129.3707 Y104.2127
G1 X128.905 Y103.747
G1 X105.3253
G1 X104.8597 Y104.2127
G1 X104.521 Y104.2973
G1 X104.3093
G1 X103.9707 Y104.2127
G1 X103.505 Y103.747
G1 X79.9253
G1 X79.4597 Y104.2127
G1 X79.121 Y104.2973
G1 X78.9093
G1 X78.5707 Y104.2127
G1 X78.105 Y103.747
G1 X54.5253
G1 X54.0597 Y104.2127
G1 X53.721 Y104.2973
G1 X53.5093
G1 X53.1707 Y104.2127
G1 X52.705 Y103.747
G1 X29.1253
G1 X28.6597 Y104.2127
G1 X28.321 Y104.2973
G1 X28.1093
G1 X27.7707 Y104.2127
G1 X27.305 Y103.747
G1 X3.7253
G1 X3.2597 Y104.2127
G1 X2.921 Y104.2973
G1 X2.7093
G1 X2.3707 Y104.2127
G1 X1.8627 Y103.7047
G1 X1.778 Y103.366
G1 Y103.1543
G1 X1.8627 Y102.8157
G1 X2.3707 Y102.3077
G1 X2.7093 Y102.223
G1 X2.921
G1 X3.2597 Y102.3077
G1 X3.7253 Y102.7733
G1 X27.305
G1 X27.7707 Y102.3077
G1 X28.1093 Y102.223
G1 X28.321
G1 X28.6597 Y102.3077
G1 X29.1253 Y102.7733
G1 X52.705
G1 X53.1707 Y102.3077
G1 X53.5093 Y102.223
G1 X53.721
G1 X54.0597 Y102.3077
G1 X54.5253 Y102.7733
G1 X78.105
G1 X78.5707 Y102.3077
G1 X78.9093 Y102.223
G1 X79.121
G1 X79.4597 Y102.3077
G1 X79.9253 Y102.7733
G1 X103.505
G1 X103.9707 Y102.3077
G1 X104.3093 Y102.223
G1 X104.521
G1 X104.8597 Y102.3077
G1 X105.3253 Y102.7733
G1 X128.905
G1 X129.3707 Y102.3077
G1 X129.7093 Y102.223
G1 X129.921
G1 X130.2597 Y102.3077
G1 X130.7253 Y102.7733
G1 X154.305
G1 X154.7707 Y102.3077
G1 X155.1093 Y102.223
G1 X155.321
G1 X155.6597 Y102.3077
G1 X156.1253 Y102.7733
G1 X179.705
G1 X180.1707 Y102.3077
G1 X180.5093 Y102.223
G1 X180.721
G1 X181.0597 Y102.3077
G1 X181.5253 Y102.7733
G1 X202.7268 Y102.8029
G0 Z3.0
G0 X202.7221 Y104.6994
G0 Z1.275
G1 Z-0.125
G1 X211.2857 Y104.7207
G1 X213.3177 Y106.7103
G1 X213.6987 Y106.668
G1 X214.0797 Y106.7527
G1 X214.5453 Y107.2183
G1 X215.265
G1 X215.7307 Y106.7527
G1 X216.0693 Y106.668
G1 X216.281
G1 X216.6197 Y106.7527
G1 X217.1277 Y107.2607
G1 X217.2123 Y107.5993
G1 Y107.811
G1 X217.1277 Y108.1497
G1 X216.6197 Y108.6577
G1 X216.281 Y108.7423
G1 X216.0693
G1 X215.7307 Y108.6577
G1 X215.265 Y108.192
G1 X214.5453
G1 X214.0797 Y108.6577
G1 X213.741 Y108.7423
G1 X213.4447
G1 X213.1907 Y108.6577
G1 X212.6827 Y108.1497
G1 X212.598 Y107.7687
G1 X212.6403 Y107.3877
G1 X210.947 Y105.652
G1 X194.2253
G1 X193.7597 Y106.1177
G1 X193.421 Y106.2023
G1 X193.2093
G1 X192.8707 Y106.1177
G1 X192.405 Y105.652
G1 X168.8253
G1 X168.3597 Y106.1177
G1 X168.021 Y106.2023
G1 X167.8093
G1 X167.4707 Y106.1177
G1 X167.005 Y105.652
G1 X143.4253
G1 X142.9597 Y106.1177
G1 X142.621 Y106.2023
G1 X142.4093
G1 X142.0707 Y106.1177
G1 X141.605 Y105.652
G1 X118.0253
G1 X117.5597 Y106.1177
G1 X117.221 Y106.2023
G1 X117.0093
G1 X116.6707 Y106.1177
G1 X116.205 Y105.652
G1 X92.6253
G1 X92.1597 Y106.1177
G1 X91.821 Y106.2023
G1 X91.6093
G1 X91.2707 Y106.1177
G1 X90.805 Y105.652
G1 X67.2253
G1 X66.7597 Y106.1177
G1 X66.421 Y106.2023
G1 X66.2093
G1 X65.8707 Y106.1177
G1 X65.405 Y105.652
G1 X41.8253
G1 X41.3597 Y106.1177
G1 X41.021 Y106.2023
G1 X40.8093
G1 X40.4707 Y106.1177
G1 X40.005 Y105.652
G1 X16.4253
G1 X15.9597 Y106.1177
G1 X15.621 Y106.2023
G1 X15.4093
G1 X15.0707 Y106.1177
G1 X14.5627 Y105.6097
G1 X14.478 Y105.271
G1 Y105.0593
G1 X14.5627 Y104.7207
G1 X15.0707 Y104.2127
G1 X15.4093 Y104.128
G1 X15.621
G1 X15.9597 Y104.2127
G1 X16.4253 Y104.6783
G1 X40.005
G1 X40.4707 Y104.2127
G1 X40.8093 Y104.128
G1 X41.021
G1 X41.3597 Y104.2127
G1 X41.8253 Y104.6783
G1 X65.405
G1 X65.8707 Y104.2127
G1 X66.2093 Y104.128
G1 X66.421
G1 X66.7597 Y104.2127
G1 X67.2253 Y104.6783
G1 X90.805
G1 X91.2707 Y104.2127
G1 X91.6093 Y104.128
G1 X91.821
G1 X92.1597 Y104.2127
G1 X92.6253 Y104.6783
G1 X116.205
G1 X116.6707 Y104.2127
G1 X117.0093 Y104.128
G1 X117.221
G1 X117.5597 Y104.2127
G1 X118.0253 Y104.6783
G1 X141.605
G1 X142.0707 Y104.2127
G1 X142.4093 Y104.128
G1 X142.621
G1 X142.9597 Y104.2127
G1 X143.4253 Y104.6783
G1 X167.005
G1 X167.4707 Y104.2127
G1 X167.8093 Y104.128
G1 X168.021
G1 X168.3597 Y104.2127
G1 X168.8253 Y104.6783
G1 X192.405
G1 X192.8707 Y104.2127
G1 X193.2093 Y104.128
G1 X193.421
G1 X193.7597 Y104.2127
G1 X194.2253 Y104.6783
G1 X202.7221 Y104.6994
G0 Z3.0
G0 X202.719 Y106.6127
G0 Z1.275
G1 Z-0.125
G1 X210.6507 Y106.6257
G1 X213.3177 Y109.2503
G1 X213.6987 Y109.208
G1 X214.0797 Y109.2927
G1 X214.5453 Y109.7583
G1 X215.265
G1 X215.7307 Y109.2927
G1 X216.0693 Y109.208
G1 X216.281
G1 X216.6197 Y109.2927
G1 X217.1277 Y109.8007
G1 X217.2123 Y110.1393
G1 Y110.351
G1 X217.1277 Y110.6897
G1 X216.6197 Y111.1977
G1 X216.281 Y111.2823
G1 X216.0693
G1 X215.7307 Y111.1977
G1 X215.265 Y110.732
G1 X214.5453
G1 X214.0797 Y111.1977
G1 X213.741 Y111.2823
G1 X213.4447
G1 X213.1907 Y111.1977
G1 X212.6827 Y110.6897
G1 X212.598 Y110.3087
G1 X212.6403 Y109.9277
G1 X210.312 Y107.557
G1 X184.7003
G1 X184.2347 Y108.0227
G1 X183.896 Y108.1073
G1 X183.6843
G1 X183.3457 Y108.0227
G1 X182.88 Y107.557
G1 X159.3003
G1 X158.8347 Y108.0227
G1 X158.496 Y108.1073
G1 X158.2843
G1 X157.9457 Y108.0227
G1 X157.48 Y107.557
G1 X133.9003
G1 X133.4347 Y108.0227
G1 X133.096 Y108.1073
G1 X132.8843
G1 X132.5457 Y108.0227
G1 X132.08 Y107.557
G1 X108.5003
G1 X108.0347 Y108.0227
G1 X107.696 Y108.1073
G1 X107.4843
G1 X107.1457 Y108.0227
G1 X106.68 Y107.557
G1 X83.1003
G1 X82.6347 Y108.0227
G1 X82.296 Y108.1073
G1 X82.0843
G1 X81.7457 Y108.0227
G1 X81.28 Y107.557
G1 X57.7003
G1 X57.2347 Y108.0227
G1 X56.896 Y108.1073
G1 X56.6843
G1 X56.3457 Y108.0227
G1 X55.88 Y107.557
G1 X32.3003
G1 X31.8347 Y108.0227
G1 X31.496 Y108.1073
G1 X31.2843
G1 X30.9457 Y108.0227
G1 X30.48 Y107.557
G1 X6.9003
G1 X6.4347 Y108.0227
G1 X6.096 Y108.1073
G1 X5.8843
G1 X5.5457 Y108.0227
G1 X5.0377 Y107.5147
G1 X4.953 Y107.176
G1 Y106.9643
G1 X5.0377 Y106.6257
G1 X5.5457 Y106.1177
G1 X5.8843 Y106.033
G1 X6.096
G1 X6.4347 Y106.1177
G1 X6.9003 Y106.5833
G1 X30.48
G1 X30.9457 Y106.1177
G1 X31.2843 Y106.033
G1 X31.496
G1 X31.8347 Y106.1177
G1 X32.3003 Y106.5833
G1 X55.88
G1 X56.3457 Y106.1177
G1 X56.6843 Y106.033
G1 X56.896
G1 X57.2347 Y106.1177
G1 X57.7003 Y106.5833
G1 X81.28
G1 X81.7457 Y106.1177
G1 X82.0843 Y106.033
G1 X82.296
G1 X82.6347 Y106.1177
G1 X83.1003 Y106.5833
G1 X106.68
G1 X107.1457 Y106.1177
G1 X107.4843 Y106.033
G1 X107.696
G1 X108.0347 Y106.1177
G1 X108.5003 Y106.5833
G1 X132.08
G1 X132.5457 Y106.1177
G1 X132.8843 Y106.033
G1 X133.096
G1 X133.4347 Y106.1177
G1 X133.9003 Y106.5833
G1 X157.48
G1 X157.9457 Y106.1177
G1 X158.2843 Y106.033
G1 X158.496
G1 X158.8347 Y106.1177
G1 X159.3003 Y106.5833
G1 X182.88
G1 X183.3457 Y106.1177
G1 X183.6843 Y106.033
G1 X183.896
G1 X184.2347 Y106.1177
G1 X184.7003 Y106.5833
G1 X202.719 Y106.6127
G0 Z3.0
G0 X202.7126 Y108.5062
G0 Z1.275
G1 Z-0.125
G1 X210.0157 Y108.5307
G1 X213.3177 Y111.7903
G1 X213.6987 Y111.748
G1 X214.0797 Y111.8327
G1 X214.5453 Y112.2983
G1 X215.265
G1 X215.7307 Y111.8327
G1 X216.0693 Y111.748
G1 X216.281
G1 X216.6197 Y111.8327
G1 X217.1277 Y112.3407
G1 X217.2123 Y112.6793
G1 Y112.891
G1 X217.1277 Y113.2297
G1 X216.6197 Y113.7377
G1 X216.281 Y113.8223
G1 X216.0693
G1 X215.7307 Y113.7377
G1 X215.265 Y113.272
G1 X214.5453
G1 X214.0797 Y113.7377
G1 X213.741 Y113.8223
G1 X213.4447
G1 X213.1907 Y113.7377
G1 X212.6827 Y113.2297
G1 X212.598 Y112.8487
G1 X212.6403 Y112.4677
G1 X209.677 Y109.462
G1 X197.4003
G1 X196.9347 Y109.9277
G1 X196.596 Y110.0123
G1 X196.3843
G1 X196.0457 Y109.9277
G1 X195.58 Y109.462
G1 X172.0003
G1 X171.5347 Y109.9277
G1 X171.196 Y110.0123
G1 X170.9843
G1 X170.6457 Y109.9277
G1 X170.18 Y109.462
G1 X146.6003
G1 X146.1347 Y109.9277
G1 X145.796 Y110.0123
G1 X145.5843
G1 X145.2457 Y109.9277
G1 X144.78 Y109.462
G1 X121.2003
G1 X120.7347 Y109.9277
G1 X120.396 Y110.0123
G1 X120.1843
G1 X119.8457 Y109.9277
G1 X119.38 Y109.462
G1 X95.8003
G1 X95.3347 Y109.9277
G1 X94.996 Y110.0123
G1 X94.7843
G1 X94.4457 Y109.9277
G1 X93.98 Y109.462
G1 X70.4003
G1 X69.9347 Y109.9277
G1 X69.596 Y110.0123
G1 X69.3843
G1 X69.0457 Y109.9277
G1 X68.58 Y109.462
G1 X45.0003
G1 X44.5347 Y109.9277
G1 X44.196 Y110.0123
G1 X43.9843
G1 X43.6457 Y109.9277
G1 X43.18 Y109.462
G1 X19.6003
G1 X19.1347 Y109.9277
G1 X18.796 Y110.0123
G1 X18.5843
G1 X18.2457 Y109.9277
G1 X17.7377 Y109.4197
G1 X17.653 Y109.081
G1 Y108.8693
G1 X17.7377 Y108.5307
G1 X18.2457 Y108.0227
G1 X18.5843 Y107.938
G1 X18.796
G1 X19.1347 Y108.0227
G1 X19.6003 Y108.4883
G1 X43.18
G1 X43.6457 Y108.0227
G1 X43.9843 Y107.938
G1 X44.196
G1 X44.5347 Y108.0227
G1 X45.0003 Y108.4883
G1 X68.58
G1 X69.0457 Y108.0227
G1 X69.3843 Y107.938
G1 X69.596
G1 X69.9347 Y108.0227
G1 X70.4003 Y108.4883
G1 X93.98
G1 X94.4457 Y108.0227
G1 X94.7843 Y107.938
G1 X94.996
G1 X95.3347 Y108.0227
G1 X95.8003 Y108.4883
G1 X119.38
G1 X119.8457 Y108.0227
G1 X120.1843 Y107.938
G1 X120.396
G1 X120.7347 Y108.0227
G1 X121.2003 Y108.4883
G1 X144.78
G1 X145.2457 Y108.0227
G1 X145.5843 Y107.938
G1 X145.796
G1 X146.1347 Y108.0227
G1 X146.6003 Y108.4883
G1 X170.18
G1 X170.6457 Y108.0227
G1 X170.9843 Y107.938
G1 X171.196
G1 X171.5347 Y108.0227
G1 X172.0003 Y108.4883
G1 X195.58
G1 X196.0457 Y108.0227
G1 X196.3843 Y107.938
G1 X196.596
G1 X196.9347 Y108.0227
G1 X197.4003 Y108.4883
G1 X202.7126 Y108.5062
G0 Z3.0
G0 X202.7088 Y110.4225
G0 Z1.275
G1 Z-0.125
G1 X209.3807 Y110.4357
G1 X213.3177 Y114.3303
G1 X213.6987 Y114.288
G1 X214.0797 Y114.3727
G1 X214.5453 Y114.8383
G1 X215.265
G1 X215.7307 Y114.3727
G1 X216.0693 Y114.288
G1 X216.281
G1 X216.6197 Y114.3727
G1 X217.1277 Y114.8807
G1 X217.2123 Y115.2193
G1 Y115.431
G1 X217.1277 Y115.7697
G1 X216.6197 Y116.2777
G1 X216.281 Y116.3623
G1 X216.0693
G1 X215.7307 Y116.2777
G1 X215.265 Y115.812
G1 X214.5453
G1 X214.0797 Y116.2777
G1 X213.741 Y116.3623
G1 X213.4447
G1 X213.1907 Y116.2777
G1 X212.6827 Y115.7697
G1 X212.598 Y115.3887
G1 X212.6403 Y115.0077
G1 X209.042 Y111.367
G1 X187.8753
G1 X187.4097 Y111.8327
G1 X187.071 Y111.9173
G1 X186.8593
G1 X186.5207 Y111.8327
G1 X186.055 Y111.367
G1 X162.4753
G1 X162.0097 Y111.8327
G1 X161.671 Y111.9173
G1 X161.4593
G1 X161.1207 Y111.8327
G1 X160.655 Y111.367
G1 X137.0753
G1 X136.6097 Y111.8327
G1 X136.271 Y111.9173
G1 X136.0593
G1 X135.7207 Y111.8327
G1 X135.255 Y111.367
G1 X111.6753
G1 X111.2097 Y111.8327
G1 X110.871 Y111.9173
G1 X110.6593
G1 X110.3207 Y111.8327
G1 X109.855 Y111.367
G1 X86.2753
G1 X85.8097 Y111.8327
G1 X85.471 Y111.9173
G1 X85.2593
G1 X84.9207 Y111.8327
G1 X84.455 Y111.367
G1 X60.8753
G1 X60.4097 Y111.8327
G1 X60.071 Y111.9173
G1 X59.8593
G1 X59.5207 Y111.8327
G1 X59.055 Y111.367
G1 X35.4753
G1 X35.0097 Y111.8327
G1 X34.671 Y111.9173
G1 X34.4593
G1 X34.1207 Y111.8327
G1 X33.655 Y111.367
G1 X10.0753
G1 X9.6097 Y111.8327
G1 X9.271 Y111.9173
G1 X9.0593
G1 X8.7207 Y111.8327
G1 X8.2127 Y111.3247
G1 X8.128 Y110.986
G1 Y110.7743
G1 X8.2127 Y110.4357
G1 X8.7207 Y109.9277
G1 X9.0593 Y109.843
G1 X9.271
G1 X9.6097 Y109.9277
G1 X10.0753 Y110.3933
G1 X33.655
G1 X34.1207 Y109.9277
G1 X34.4593 Y109.843
G1 X34.671
G1 X35.0097 Y109.9277
G1 X35.4753 Y110.3933
G1 X59.055
G1 X59.5207 Y109.9277
G1 X59.8593 Y109.843
G1 X60.071
G1 X60.4097 Y109.9277
G1 X60.8753 Y110.3933
G1 X84.455
G1 X84.9207 Y109.9277
G1 X85.2593 Y109.843
G1 X85.471
G1 X85.8097 Y109.9277
G1 X86.2753 Y110.3933
G1 X109.855
G1 X110.3207 Y109.9277
G1 X110.6593 Y109.843
G1 X110.871
G1 X111.2097 Y109.9277
G1 X111.6753 Y110.3933
G1 X135.255
G1 X135.7207 Y109.9277
G1 X136.0593 Y109.843
G1 X136.271
G1 X136.6097 Y109.9277
G1 X137.0753 Y110.3933
G1 X160.655
G1 X161.1207 Y109.9277
G1 X161.4593 Y109.843
G1 X161.671
G1 X162.0097 Y109.9277
G1 X162.4753 Y110.3933
G1 X186.055
G1 X186.5207 Y109.9277
G1 X186.8593 Y109.843
G1 X187.071
G1 X187.4097 Y109.9277
G1 X187.8753 Y110.3933
G1 X202.7088 Y110.4225
G0 Z3.0
G0 X202.6991 Y112.3093
G0 Z1.275
G1 Z-0.125
G1 X208.7457 Y112.3407
G1 X213.233 Y116.7857
G1 X214.7147
G1 Y117.3783
G1 X215.0957
G1 Y116.7857
G1 X217.2547
G1 Y118.9447
G1 X215.0957
G1 Y118.352
G1 X214.7147
G1 Y118.9447
G1 X212.5557
G1 Y117.4207
G1 X208.3647 Y113.272
G1 X200.5753
G1 X200.1097 Y113.7377
G1 X199.771 Y113.8223
G1 X199.5593
G1 X199.2207 Y113.7377
G1 X198.755 Y113.272
G1 X175.1753
G1 X174.7097 Y113.7377
G1 X174.371 Y113.8223
G1 X174.1593
G1 X173.8207 Y113.7377
G1 X173.355 Y113.272
G1 X149.7753
G1 X149.3097 Y113.7377
G1 X148.971 Y113.8223
G1 X148.7593
G1 X148.4207 Y113.7377
G1 X147.955 Y113.272
G1 X124.3753
G1 X123.9097 Y113.7377
G1 X123.571 Y113.8223
G1 X123.3593
G1 X123.0207 Y113.7377
G1 X122.555 Y113.272
G1 X98.9753
G1 X98.5097 Y113.7377
G1 X98.171 Y113.8223
G1 X97.9593
G1 X97.6207 Y113.7377
G1 X97.155 Y113.272
G1 X73.5753
G1 X73.1097 Y113.7377
G1 X72.771 Y113.8223
G1 X72.5593
G1 X72.2207 Y113.7377
G1 X71.755 Y113.272
G1 X48.1753
G1 X47.7097 Y113.7377
G1 X47.371 Y113.8223
G1 X47.1593
G1 X46.8207 Y113.7377
G1 X46.355 Y113.272
G1 X22.7753
G1 X22.3097 Y113.7377
G1 X21.971 Y113.8223
G1 X21.7593
G1 X21.4207 Y113.7377
G1 X20.9127 Y113.2297
G1 X20.828 Y112.891
G1 Y112.6793
G1 X20.9127 Y112.3407
G1 X21.4207 Y111.8327
G1 X21.7593 Y111.748
G1 X21.971
G1 X22.3097 Y111.8327
G1 X22.7753 Y112.2983
G1 X46.355
G1 X46.8207 Y111.8327
G1 X47.1593 Y111.748
G1 X47.371
G1 X47.7097 Y111.8327
G1 X48.1753 Y112.2983
G1 X71.755
G1 X72.2207 Y111.8327
G1 X72.5593 Y111.748
G1 X72.771
G1 X73.1097 Y111.8327
G1 X73.5753 Y112.2983
G1 X97.155
G1 X97.6207 Y111.8327
G1 X97.9593 Y111.748
G1 X98.171
G1 X98.5097 Y111.8327
G1 X98.9753 Y112.2983
G1 X122.555
G1 X123.0207 Y111.8327
G1 X123.3593 Y111.748
G1 X123.571
G1 X123.9097 Y111.8327
G1 X124.3753 Y112.2983
G1 X147.955
G1 X148.4207 Y111.8327
G1 X148.7593 Y111.748
G1 X148.971
G1 X149.3097 Y111.8327
G1 X149.7753 Y112.2983
G1 X173.355
G1 X173.8207 Y111.8327
G1 X174.1593 Y111.748
G1 X174.371
G1 X174.7097 Y111.8327
G1 X175.1753 Y112.2983
G1 X198.755
G1 X199.2207 Y111.8327
G1 X199.5593 Y111.748
G1 X199.771
G1 X200.1097 Y111.8327
G1 X200.5753 Y112.2983
G1 X202.6991 Y112.3093
G0 Z3.0
G0 X202.7343 Y119.368
G0 Z1.275
G1 Z-0.125
G1 X202.946
G1 X203.2847 Y119.4527
G1 X203.7927 Y119.9607
G1 X203.8773 Y120.2993
G1 Y120.511
G1 X203.7927 Y120.8497
G1 X203.327 Y121.3153
G1 Y122.035
G1 X203.7927 Y122.5007
G1 X203.8773 Y122.8393
G1 Y123.051
G1 X203.7927 Y123.3897
G1 X203.2847 Y123.8977
G1 X202.946 Y123.9823
G1 X202.6497
G1 X202.3957 Y123.8977
G1 X201.8877 Y123.3897
G1 X201.803 Y123.051
G1 Y122.8393
G1 X201.8877 Y122.5007
G1 X202.3533 Y122.035
G1 Y121.3153
G1 X201.8877 Y120.8497
G1 X201.803 Y120.511
G1 Y120.2993
G1 X201.8877 Y119.9607
G1 X202.3957 Y119.4527
G1 X202.7343 Y119.368
G0 Z3.0
G0 X200.6177 Y119.9607
G0 Z1.275
G1 Z-0.125
G1 X200.7023 Y120.2993
G1 Y120.511
G1 X200.6177 Y120.8497
G1 X200.152 Y121.3153
G1 Y122.035
G1 X200.6177 Y122.5007
G1 X200.7023 Y122.8393
G1 Y123.051
G1 X200.6177 Y123.3897
G1 X200.1097 Y123.8977
G1 X199.771 Y123.9823
G1 X199.4747
G1 X199.2207 Y123.8977
G1 X198.7127 Y123.3897
G1 X198.628 Y123.051
G1 Y122.8393
G1 X198.7127 Y122.5007
G1 X199.1783 Y122.035
G1 Y121.3153
G1 X198.7127 Y120.8497
G1 X198.628 Y120.511
G1 Y120.2993
G1 X198.7127 Y119.9607
G1 X199.2207 Y119.4527
G1 X199.5593 Y119.368
G1 X199.771
G1 X200.1097 Y119.4527
G1 X200.6177 Y119.9607
G0 Z3.0
G0 X197.5273 Y120.2993
G0 Z1.275
G1 Z-0.125
G1 Y120.511
G1 X197.4427 Y120.8497
G1 X196.977 Y121.3153
G1 Y122.035
G1 X197.4427 Y122.5007
G1 X197.5273 Y122.8393
G1 Y123.051
G1 X197.4427 Y123.3897
G1 X196.9347 Y123.8977
G1 X196.596 Y123.9823
G1 X196.2997
G1 X196.0457 Y123.8977
G1 X195.5377 Y123.3897
G1 X195.453 Y123.051
G1 Y122.8393
G1 X195.5377 Y122.5007
G1 X196.0033 Y122.035
G1 Y121.3153
G1 X195.5377 Y120.8497
G1 X195.453 Y120.511
G1 Y120.2993
G1 X195.5377 Y119.9607
G1 X196.0457 Y119.4527
G1 X196.3843 Y119.368
G1 X196.596
G1 X196.9347 Y119.4527
G1 X197.4427 Y119.9607
G1 X197.5273 Y120.2993
G0 Z3.0
G0 X194.3523
G0 Z1.275
G1 Z-0.125
G1 Y120.511
G1 X194.2677 Y120.8497
G1 X193.802 Y121.3153
G1 Y122.035
G1 X194.2677 Y122.5007
G1 X194.3523 Y122.8393
G1 Y123.051
G1 X194.2677 Y123.3897
G1 X193.7597 Y123.8977
G1 X193.421 Y123.9823
G1 X193.1247
G1 X192.8707 Y123.8977
G1 X192.3627 Y123.3897
G1 X192.278 Y123.051
G1 Y122.8393
G1 X192.3627 Y122.5007
G1 X192.8283 Y122.035
G1 Y121.3153
G1 X192.3627 Y120.8497
G1 X192.278 Y120.511
G1 Y120.2993
G1 X192.3627 Y119.9607
G1 X192.8707 Y119.4527
G1 X193.2093 Y119.368
G1 X193.421
G1 X193.7597 Y119.4527
G1 X194.2677 Y119.9607
G1 X194.3523 Y120.2993
G0 Z3.0
G0 X191.1773
G0 Z1.275
G1 Z-0.125
G1 Y120.511
G1 X191.0927 Y120.8497
G1 X190.627 Y121.3153
G1 Y122.035
G1 X191.0927 Y122.5007
G1 X191.1773 Y122.8393
G1 Y123.051
G1 X191.0927 Y123.3897
G1 X190.5847 Y123.8977
G1 X190.246 Y123.9823
G1 X189.9497
G1 X189.6957 Y123.8977
G1 X189.1877 Y123.3897
G1 X189.103 Y123.051
G1 Y122.8393
G1 X189.1877 Y122.5007
G1 X189.6533 Y122.035
G1 Y121.3153
G1 X189.1877 Y120.8497
G1 X189.103 Y120.511
G1 Y120.2993
G1 X189.1877 Y119.9607
G1 X189.6957 Y119.4527
G1 X190.0343 Y119.368
G1 X190.246
G1 X190.5847 Y119.4527
G1 X191.0927 Y119.9607
G1 X191.1773 Y120.2993
G0 Z3.0
G0 X188.0023
G0 Z1.275
G1 Z-0.125
G1 Y120.511
G1 X187.9177 Y120.8497
G1 X187.452 Y121.3153
G1 Y122.035
G1 X187.9177 Y122.5007
G1 X188.0023 Y122.8393
G1 Y123.051
G1 X187.9177 Y123.3897
G1 X187.4097 Y123.8977
G1 X187.071 Y123.9823
G1 X186.7747
G1 X186.5207 Y123.8977
G1 X186.0127 Y123.3897
G1 X185.928 Y123.051
G1 Y122.8393
G1 X186.0127 Y122.5007
G1 X186.4783 Y122.035
G1 Y121.3153
G1 X186.0127 Y120.8497
G1 X185.928 Y120.511
G1 Y120.2993
G1 X186.0127 Y119.9607
G1 X186.5207 Y119.4527
G1 X186.8593 Y119.368
G1 X187.071
G1 X187.4097 Y119.4527
G1 X187.9177 Y119.9607
G1 X188.0023 Y120.2993
G0 Z3.0
G0 X184.8273
G0 Z1.275
G1 Z-0.125
G1 Y120.511
G1 X184.7427 Y120.8497
G1 X184.277 Y121.3153
G1 Y122.035
G1 X184.7427 Y122.5007
G1 X184.8273 Y122.8393
G1 Y123.051
G1 X184.7427 Y123.3897
G1 X184.2347 Y123.8977
G1 X183.896 Y123.9823
G1 X183.5997
G1 X183.3457 Y123.8977
G1 X182.8377 Y123.3897
G1 X182.753 Y123.051
G1 Y122.8393
G1 X182.8377 Y122.5007
G1 X183.3033 Y122.035
G1 Y121.3153
G1 X182.8377 Y120.8497
G1 X182.753 Y120.511
G1 Y120.2993
G1 X182.8377 Y119.9607
G1 X183.3457 Y119.4527
G1 X183.6843 Y119.368
G1 X183.896
G1 X184.2347 Y119.4527
G1 X184.7427 Y119.9607
G1 X184.8273 Y120.2993
G0 Z3.0
G0 X181.6523
G0 Z1.275
G1 Z-0.125
G1 Y120.511
G1 X181.5677 Y120.8497
G1 X181.102 Y121.3153
G1 Y122.035
G1 X181.5677 Y122.5007
G1 X181.6523 Y122.8393
G1 Y123.051
G1 X181.5677 Y123.3897
G1 X181.0597 Y123.8977
G1 X180.721 Y123.9823
G1 X180.4247
G1 X180.1707 Y123.8977
G1 X179.6627 Y123.3897
G1 X179.578 Y123.051
G1 Y122.8393
G1 X179.6627 Y122.5007
G1 X180.1283 Y122.035
G1 Y121.3153
G1 X179.6627 Y120.8497
G1 X179.578 Y120.511
G1 Y120.2993
G1 X179.6627 Y119.9607
G1 X180.1707 Y119.4527
G1 X180.5093 Y119.368
G1 X180.721
G1 X181.0597 Y119.4527
G1 X181.5677 Y119.9607
G1 X181.6523 Y120.2993
G0 Z3.0
G0 X178.4773
G0 Z1.275
G1 Z-0.125
G1 Y120.511
G1 X178.3927 Y120.8497
G1 X177.927 Y121.3153
G1 Y122.035
G1 X178.3927 Y122.5007
G1 X178.4773 Y122.8393
G1 Y123.051
G1 X178.3927 Y123.3897
G1 X177.8847 Y123.8977
G1 X177.546 Y123.9823
G1 X177.2497
G1 X176.9957 Y123.8977
G1 X176.4877 Y123.3897
G1 X176.403 Y123.051
G1 Y122.8393
G1 X176.4877 Y122.5007
G1 X176.9533 Y122.035
G1 Y121.3153
G1 X176.4877 Y120.8497
G1 X176.403 Y120.511
G1 Y120.2993
G1 X176.4877 Y119.9607
G1 X176.9957 Y119.4527
G1 X177.3343 Y119.368
G1 X177.546
G1 X177.8847 Y119.4527
G1 X178.3927 Y119.9607
G1 X178.4773 Y120.2993
G0 Z3.0
G0 X175.3023
G0 Z1.275
G1 Z-0.125
G1 Y120.511
G1 X175.2177 Y120.8497
G1 X174.752 Y121.3153
G1 Y122.035
G1 X175.2177 Y122.5007
G1 X175.3023 Y122.8393
G1 Y123.051
G1 X175.2177 Y123.3897
G1 X174.7097 Y123.8977
G1 X174.371 Y123.9823
G1 X174.0747
G1 X173.8207 Y123.8977
G1 X173.3127 Y123.3897
G1 X173.228 Y123.051
G1 Y122.8393
G1 X173.3127 Y122.5007
G1 X173.7783 Y122.035
G1 Y121.3153
G1 X173.3127 Y120.8497
