( Made using CamBam - http://www.cambam.co.uk )
( matrica_8x8.gcode.bottom_multi 6/5/2014 12:34:30 AM )
( T0 : 0.0 )
G21 G90 G64 G40
G0 Z3.0
( T0 : 0.0 )
T0 M6
( 0.8 )
G17
M3 S1000
G0 X2.8301 Y7.2649
G98
G81 X2.8301 Y7.2649 Z-1.55 R3.0 F300.0
G81 Z-1.55
G81 X6.0051 Y11.0749 Z-1.55
G81 Z-1.55
G81 X9.1801 Y14.8849 Z-1.55
G81 Z-1.55
G81 X15.5301 Y9.1699 Z-1.55
G81 Z-1.55
G81 X12.3551 Y5.3599 Z-1.55
G81 Z-1.55
G81 X18.7051 Y12.9799 Z-1.55
G81 Z-1.55
G81 X21.8801 Y16.7899 Z-1.55
G81 Z-1.55
G81 Y24.4099 Z-1.55
G81 Z-1.55
G81 Y26.9499 Z-1.55
G81 Z-1.55
G81 Y29.4899 Z-1.55
G81 Z-1.55
G81 X25.0551 Z-1.55
G81 Z-1.55
G81 Y26.9499 Z-1.55
G81 Z-1.55
G81 Y24.4099 Z-1.55
G81 Z-1.55
G81 X28.2301 Z-1.55
G81 Z-1.55
G81 Y26.9499 Z-1.55
G81 Z-1.55
G81 Y29.4899 Z-1.55
G81 Z-1.55
G81 X31.4051 Z-1.55
G81 Z-1.55
G81 Y26.9499 Z-1.55
G81 Z-1.55
G81 Y24.4099 Z-1.55
G81 Z-1.55
G81 X34.5801 Z-1.55
G81 Z-1.55
G81 Y26.9499 Z-1.55
G81 Z-1.55
G81 Y29.4899 Z-1.55
G81 Z-1.55
G81 X37.7551 Z-1.55
G81 Z-1.55
G81 Y26.9499 Z-1.55
G81 Z-1.55
G81 Y24.4099 Z-1.55
G81 Z-1.55
G81 X40.9301 Z-1.55
G81 Z-1.55
G81 Y26.9499 Z-1.55
G81 Z-1.55
G81 Y29.4899 Z-1.55
G81 Z-1.55
G81 X44.1051 Z-1.55
G81 Z-1.55
G81 Y26.9499 Z-1.55
G81 Z-1.55
G81 Y24.4099 Z-1.55
G81 Z-1.55
G81 X47.2801 Z-1.55
G81 Z-1.55
G81 Y26.9499 Z-1.55
G81 Z-1.55
G81 Y29.4899 Z-1.55
G81 Z-1.55
G81 X50.4551 Z-1.55
G81 Z-1.55
G81 Y26.9499 Z-1.55
G81 Z-1.55
G81 Y24.4099 Z-1.55
G81 Z-1.55
G81 X53.6301 Z-1.55
G81 Z-1.55
G81 Y26.9499 Z-1.55
G81 Z-1.55
G81 Y29.4899 Z-1.55
G81 Z-1.55
G81 X56.8051 Z-1.55
G81 Z-1.55
G81 Y26.9499 Z-1.55
G81 Z-1.55
G81 Y24.4099 Z-1.55
G81 Z-1.55
G81 X59.9801 Z-1.55
G81 Z-1.55
G81 Y26.9499 Z-1.55
G81 Z-1.55
G81 Y29.4899 Z-1.55
G81 Z-1.55
G81 X63.1551 Z-1.55
G81 Z-1.55
G81 Y26.9499 Z-1.55
G81 Z-1.55
G81 Y24.4099 Z-1.55
G81 Z-1.55
G81 X66.3301 Z-1.55
G81 Z-1.55
G81 Y26.9499 Z-1.55
G81 Z-1.55
G81 Y29.4899 Z-1.55
G81 Z-1.55
G81 X69.5051 Z-1.55
G81 Z-1.55
G81 Y26.9499 Z-1.55
G81 Z-1.55
G81 Y24.4099 Z-1.55
G81 Z-1.55
G81 X72.6801 Z-1.55
G81 Z-1.55
G81 Y26.9499 Z-1.55
G81 Z-1.55
G81 Y29.4899 Z-1.55
G81 Z-1.55
G81 X75.8551 Z-1.55
G81 Z-1.55
G81 Y26.9499 Z-1.55
G81 Z-1.55
G81 Y24.4099 Z-1.55
G81 Z-1.55
G81 X79.0301 Z-1.55
G81 Z-1.55
G81 Y26.9499 Z-1.55
G81 Z-1.55
G81 Y29.4899 Z-1.55
G81 Z-1.55
G81 X82.2051 Z-1.55
G81 Z-1.55
G81 Y26.9499 Z-1.55
G81 Z-1.55
G81 Y24.4099 Z-1.55
G81 Z-1.55
G81 X85.3801 Z-1.55
G81 Z-1.55
G81 Y26.9499 Z-1.55
G81 Z-1.55
G81 Y29.4899 Z-1.55
G81 Z-1.55
G81 X88.5551 Z-1.55
G81 Z-1.55
G81 Y26.9499 Z-1.55
G81 Z-1.55
G81 Y24.4099 Z-1.55
G81 Z-1.55
G81 X91.7301 Z-1.55
G81 Z-1.55
G81 Y26.9499 Z-1.55
G81 Z-1.55
G81 Y29.4899 Z-1.55
G81 Z-1.55
G81 X94.9051 Z-1.55
G81 Z-1.55
G81 Y26.9499 Z-1.55
G81 Z-1.55
G81 Y24.4099 Z-1.55
G81 Z-1.55
G81 X98.0801 Z-1.55
G81 Z-1.55
G81 Y26.9499 Z-1.55
G81 Z-1.55
G81 Y29.4899 Z-1.55
G81 Z-1.55
G81 X101.2551 Z-1.55
G81 Z-1.55
G81 Y26.9499 Z-1.55
G81 Z-1.55
G81 Y24.4099 Z-1.55
G81 Z-1.55
G81 X104.4301 Z-1.55
G81 Z-1.55
G81 Y26.9499 Z-1.55
G81 Z-1.55
G81 Y29.4899 Z-1.55
G81 Z-1.55
G81 X107.6051 Z-1.55
G81 Z-1.55
G81 Y26.9499 Z-1.55
G81 Z-1.55
G81 Y24.4099 Z-1.55
G81 Z-1.55
G81 X110.7801 Z-1.55
G81 Z-1.55
G81 Y26.9499 Z-1.55
G81 Z-1.55
G81 Y29.4899 Z-1.55
G81 Z-1.55
G81 X113.9551 Z-1.55
G81 Z-1.55
G81 Y26.9499 Z-1.55
G81 Z-1.55
G81 Y24.4099 Z-1.55
G81 Z-1.55
G81 X117.1301 Z-1.55
G81 Z-1.55
G81 Y26.9499 Z-1.55
G81 Z-1.55
G81 Y29.4899 Z-1.55
G81 Z-1.55
G81 X120.3051 Z-1.55
G81 Z-1.55
G81 Y26.9499 Z-1.55
G81 Z-1.55
G81 Y24.4099 Z-1.55
G81 Z-1.55
G81 X123.4801 Z-1.55
G81 Z-1.55
G81 Y26.9499 Z-1.55
G81 Z-1.55
G81 Y29.4899 Z-1.55
G81 Z-1.55
G81 X126.6551 Z-1.55
G81 Z-1.55
G81 Y26.9499 Z-1.55
G81 Z-1.55
G81 Y24.4099 Z-1.55
G81 Z-1.55
G81 X129.8301 Z-1.55
G81 Z-1.55
G81 Y26.9499 Z-1.55
G81 Z-1.55
G81 Y29.4899 Z-1.55
G81 Z-1.55
G81 X133.0051 Z-1.55
G81 Z-1.55
G81 Y26.9499 Z-1.55
G81 Z-1.55
G81 Y24.4099 Z-1.55
G81 Z-1.55
G81 X136.1801 Z-1.55
G81 Z-1.55
G81 Y26.9499 Z-1.55
G81 Z-1.55
G81 Y29.4899 Z-1.55
G81 Z-1.55
G81 X139.3551 Z-1.55
G81 Z-1.55
G81 Y26.9499 Z-1.55
G81 Z-1.55
G81 Y24.4099 Z-1.55
G81 Z-1.55
G81 X142.5301 Z-1.55
G81 Z-1.55
G81 Y26.9499 Z-1.55
G81 Z-1.55
G81 Y29.4899 Z-1.55
G81 Z-1.55
G81 X145.7051 Z-1.55
G81 Z-1.55
G81 Y26.9499 Z-1.55
G81 Z-1.55
G81 Y24.4099 Z-1.55
G81 Z-1.55
G81 X148.8801 Z-1.55
G81 Z-1.55
G81 Y26.9499 Z-1.55
G81 Z-1.55
G81 Y29.4899 Z-1.55
G81 Z-1.55
G81 X152.0551 Z-1.55
G81 Z-1.55
G81 Y26.9499 Z-1.55
G81 Z-1.55
G81 Y24.4099 Z-1.55
G81 Z-1.55
G81 X155.2301 Z-1.55
G81 Z-1.55
G81 Y26.9499 Z-1.55
G81 Z-1.55
G81 Y29.4899 Z-1.55
G81 Z-1.55
G81 X158.4051 Z-1.55
G81 Z-1.55
G81 Y26.9499 Z-1.55
G81 Z-1.55
G81 Y24.4099 Z-1.55
G81 Z-1.55
G81 X161.5801 Z-1.55
G81 Z-1.55
G81 Y26.9499 Z-1.55
G81 Z-1.55
G81 Y29.4899 Z-1.55
G81 Z-1.55
G81 X164.7551 Z-1.55
G81 Z-1.55
G81 Y26.9499 Z-1.55
G81 Z-1.55
G81 Y24.4099 Z-1.55
G81 Z-1.55
G81 X167.9301 Z-1.55
G81 Z-1.55
G81 Y26.9499 Z-1.55
G81 Z-1.55
G81 Y29.4899 Z-1.55
G81 Z-1.55
G81 X171.1051 Z-1.55
G81 Z-1.55
G81 Y26.9499 Z-1.55
G81 Z-1.55
G81 Y24.4099 Z-1.55
G81 Z-1.55
G81 X174.2801 Z-1.55
G81 Z-1.55
G81 Y26.9499 Z-1.55
G81 Z-1.55
G81 Y29.4899 Z-1.55
G81 Z-1.55
G81 X177.4551 Z-1.55
G81 Z-1.55
G81 Y26.9499 Z-1.55
G81 Z-1.55
G81 Y24.4099 Z-1.55
G81 Z-1.55
G81 X180.6301 Z-1.55
G81 Z-1.55
G81 Y26.9499 Z-1.55
G81 Z-1.55
G81 Y29.4899 Z-1.55
G81 Z-1.55
G81 X183.8051 Z-1.55
G81 Z-1.55
G81 Y26.9499 Z-1.55
G81 Z-1.55
G81 Y24.4099 Z-1.55
G81 Z-1.55
G81 X186.9801 Z-1.55
G81 Z-1.55
G81 Y26.9499 Z-1.55
G81 Z-1.55
G81 Y29.4899 Z-1.55
G81 Z-1.55
G81 X190.1551 Z-1.55
G81 Z-1.55
G81 Y26.9499 Z-1.55
G81 Z-1.55
G81 Y24.4099 Z-1.55
G81 Z-1.55
G81 X193.3301 Z-1.55
G81 Z-1.55
G81 Y26.9499 Z-1.55
G81 Z-1.55
G81 Y29.4899 Z-1.55
G81 Z-1.55
G81 X196.5051 Z-1.55
G81 Z-1.55
G81 Y26.9499 Z-1.55
G81 Z-1.55
G81 Y24.4099 Z-1.55
G81 Z-1.55
G81 X199.6801 Z-1.55
G81 Z-1.55
G81 Y26.9499 Z-1.55
G81 Z-1.55
G81 Y29.4899 Z-1.55
G81 Z-1.55
G81 X202.8551 Z-1.55
G81 Z-1.55
G81 Y26.9499 Z-1.55
G81 Z-1.55
G81 Y24.4099 Z-1.55
G81 Z-1.55
G81 X199.6801 Y16.7899 Z-1.55
G81 Z-1.55
G81 X196.5051 Y12.9799 Z-1.55
G81 Z-1.55
G81 X193.3301 Y9.1699 Z-1.55
G81 Z-1.55
G81 X190.1551 Y5.3599 Z-1.55
G81 Z-1.55
G81 X183.8051 Y11.0749 Z-1.55
G81 Z-1.55
G81 X186.9801 Y14.8849 Z-1.55
G81 Z-1.55
G81 X180.6301 Y7.2649 Z-1.55
G81 Z-1.55
G81 X177.4551 Y3.4549 Z-1.55
G81 Z-1.55
G81 X167.9301 Y9.1699 Z-1.55
G81 Z-1.55
G81 X171.1051 Y12.9799 Z-1.55
G81 Z-1.55
G81 X174.2801 Y16.7899 Z-1.55
G81 Z-1.55
G81 X161.5801 Y14.8849 Z-1.55
G81 Z-1.55
G81 X158.4051 Y11.0749 Z-1.55
G81 Z-1.55
G81 X155.2301 Y7.2649 Z-1.55
G81 Z-1.55
G81 X152.0551 Y3.4549 Z-1.55
G81 Z-1.55
G81 X142.5301 Y9.1699 Z-1.55
G81 Z-1.55
G81 X145.7051 Y12.9799 Z-1.55
G81 Z-1.55
G81 X148.8801 Y16.7899 Z-1.55
G81 Z-1.55
G81 X136.1801 Y14.8849 Z-1.55
G81 Z-1.55
G81 X133.0051 Y11.0749 Z-1.55
G81 Z-1.55
G81 X129.8301 Y7.2649 Z-1.55
G81 Z-1.55
G81 X126.6551 Y3.4549 Z-1.55
G81 Z-1.55
G81 X117.1301 Y9.1699 Z-1.55
G81 Z-1.55
G81 X113.9551 Y5.3599 Z-1.55
G81 Z-1.55
G81 X107.6051 Y11.0749 Z-1.55
G81 Z-1.55
G81 X110.7801 Y14.8849 Z-1.55
G81 Z-1.55
G81 X120.3051 Y12.9799 Z-1.55
G81 Z-1.55
G81 X123.4801 Y16.7899 Z-1.55
G81 Z-1.55
G81 X139.3551 Y5.3599 Z-1.55
G81 Z-1.55
G81 X164.7551 Z-1.55
G81 Z-1.55
G81 X202.8551 Y3.4549 Z-1.55
G81 Z-1.55
G81 X213.6501 Y4.0899 Z-1.55
G81 Z-1.55
G81 X216.1901 Z-1.55
G81 Z-1.55
G81 Y6.6299 Z-1.55
G81 Z-1.55
G81 X213.6501 Z-1.55
G81 Z-1.55
G81 Y9.1699 Z-1.55
G81 Z-1.55
G81 X216.1901 Z-1.55
G81 Z-1.55
G81 Y11.7099 Z-1.55
G81 Z-1.55
G81 X213.6501 Z-1.55
G81 Z-1.55
G81 Y14.2499 Z-1.55
G81 Z-1.55
G81 X216.1901 Z-1.55
G81 Z-1.55
G81 Y16.7899 Z-1.55
G81 Z-1.55
G81 X213.6501 Z-1.55
G81 Z-1.55
G81 Y19.3299 Z-1.55
G81 Z-1.55
G81 X216.1901 Z-1.55
G81 Z-1.55
G81 Y21.8699 Z-1.55
G81 Z-1.55
G81 X213.6501 Z-1.55
G81 Z-1.55
G81 Y24.4099 Z-1.55
G81 Z-1.55
G81 X216.1901 Z-1.55
G81 Z-1.55
G81 Y26.9499 Z-1.55
G81 Z-1.55
G81 X213.6501 Z-1.55
G81 Z-1.55
G81 Y29.4899 Z-1.55
G81 Z-1.55
G81 X216.1901 Z-1.55
G81 Z-1.55
G81 Y32.0299 Z-1.55
G81 Z-1.55
G81 X213.6501 Z-1.55
G81 Z-1.55
G81 Y34.5699 Z-1.55
G81 Z-1.55
G81 X216.1901 Z-1.55
G81 Z-1.55
G81 Y37.1099 Z-1.55
G81 Z-1.55
G81 X213.6501 Z-1.55
G81 Z-1.55
G81 Y39.6499 Z-1.55
G81 Z-1.55
G81 X216.1901 Z-1.55
G81 Z-1.55
G81 Y42.1899 Z-1.55
G81 Z-1.55
G81 X213.6501 Z-1.55
G81 Z-1.55
G81 Y52.0899 Z-1.55
G81 Z-1.55
G81 X216.1901 Z-1.55
G81 Z-1.55
G81 Y54.6299 Z-1.55
G81 Z-1.55
G81 X213.6501 Z-1.55
G81 Z-1.55
G81 Y57.1699 Z-1.55
G81 Z-1.55
G81 X216.1901 Z-1.55
G81 Z-1.55
G81 Y59.7099 Z-1.55
G81 Z-1.55
G81 X213.6501 Z-1.55
G81 Z-1.55
G81 Y62.2499 Z-1.55
G81 Z-1.55
G81 X216.1901 Z-1.55
G81 Z-1.55
G81 Y64.7899 Z-1.55
G81 Z-1.55
G81 X213.6501 Z-1.55
G81 Z-1.55
G81 Y67.3299 Z-1.55
G81 Z-1.55
G81 X216.1901 Z-1.55
G81 Z-1.55
G81 Y69.8699 Z-1.55
G81 Z-1.55
G81 X213.6501 Z-1.55
G81 Z-1.55
G81 Y72.4099 Z-1.55
G81 Z-1.55
G81 X216.1901 Z-1.55
G81 Z-1.55
G81 Y74.9499 Z-1.55
G81 Z-1.55
G81 X213.6501 Z-1.55
G81 Z-1.55
G81 Y77.4899 Z-1.55
G81 Z-1.55
G81 X216.1901 Z-1.55
G81 Z-1.55
G81 Y80.0299 Z-1.55
G81 Z-1.55
G81 X213.6501 Z-1.55
G81 Z-1.55
G81 Y82.5699 Z-1.55
G81 Z-1.55
G81 X216.1901 Z-1.55
G81 Z-1.55
G81 Y85.1099 Z-1.55
G81 Z-1.55
G81 X213.6501 Z-1.55
G81 Z-1.55
G81 Y87.6499 Z-1.55
G81 Z-1.55
G81 X216.1901 Z-1.55
G81 Z-1.55
G81 Y90.1899 Z-1.55
G81 Z-1.55
G81 X213.6501 Z-1.55
G81 Z-1.55
G81 Y100.0899 Z-1.55
G81 Z-1.55
G81 X216.1901 Z-1.55
G81 Z-1.55
G81 Y102.6299 Z-1.55
G81 Z-1.55
G81 X213.6501 Z-1.55
G81 Z-1.55
G81 Y105.1699 Z-1.55
G81 Z-1.55
G81 X216.1901 Z-1.55
G81 Z-1.55
G81 Y107.7099 Z-1.55
G81 Z-1.55
G81 X213.6501 Z-1.55
G81 Z-1.55
G81 Y110.2499 Z-1.55
G81 Z-1.55
G81 X216.1901 Z-1.55
G81 Z-1.55
G81 Y112.7899 Z-1.55
G81 Z-1.55
G81 X213.6501 Z-1.55
G81 Z-1.55
G81 Y115.3299 Z-1.55
G81 Z-1.55
G81 X216.1901 Z-1.55
G81 Z-1.55
G81 Y117.8699 Z-1.55
G81 Z-1.55
G81 X213.6501 Z-1.55
G81 Z-1.55
G81 Y120.4099 Z-1.55
G81 Z-1.55
G81 X216.1901 Z-1.55
G81 Z-1.55
G81 Y122.9499 Z-1.55
G81 Z-1.55
G81 X213.6501 Z-1.55
G81 Z-1.55
G81 Y125.4899 Z-1.55
G81 Z-1.55
G81 X216.1901 Z-1.55
G81 Z-1.55
G81 Y128.0299 Z-1.55
G81 Z-1.55
G81 X213.6501 Z-1.55
G81 Z-1.55
G81 Y130.5699 Z-1.55
G81 Z-1.55
G81 X216.1901 Z-1.55
G81 Z-1.55
G81 Y133.1099 Z-1.55
G81 Z-1.55
G81 X213.6501 Z-1.55
G81 Z-1.55
G81 Y135.6499 Z-1.55
G81 Z-1.55
G81 X216.1901 Z-1.55
G81 Z-1.55
G81 Y138.1899 Z-1.55
G81 Z-1.55
G81 X213.6501 Z-1.55
G81 Z-1.55
G81 Y148.0899 Z-1.55
G81 Z-1.55
G81 X216.1901 Z-1.55
G81 Z-1.55
G81 Y150.6299 Z-1.55
G81 Z-1.55
G81 X213.6501 Z-1.55
G81 Z-1.55
G81 Y153.1699 Z-1.55
G81 Z-1.55
G81 X216.1901 Z-1.55
G81 Z-1.55
G81 Y155.7099 Z-1.55
G81 Z-1.55
G81 X213.6501 Z-1.55
G81 Z-1.55
G81 Y158.2499 Z-1.55
G81 Z-1.55
G81 X216.1901 Z-1.55
G81 Z-1.55
G81 Y160.7899 Z-1.55
G81 Z-1.55
G81 X213.6501 Z-1.55
G81 Z-1.55
G81 Y163.3299 Z-1.55
G81 Z-1.55
G81 X216.1901 Z-1.55
G81 Z-1.55
G81 Y165.8699 Z-1.55
G81 Z-1.55
G81 X213.6501 Z-1.55
G81 Z-1.55
G81 Y168.4099 Z-1.55
G81 Z-1.55
G81 X216.1901 Z-1.55
G81 Z-1.55
G81 Y170.9499 Z-1.55
G81 Z-1.55
G81 X213.6501 Z-1.55
G81 Z-1.55
G81 Y173.4899 Z-1.55
G81 Z-1.55
G81 X216.1901 Z-1.55
G81 Z-1.55
G81 Y176.0299 Z-1.55
G81 Z-1.55
G81 X213.6501 Z-1.55
G81 Z-1.55
G81 Y178.5699 Z-1.55
G81 Z-1.55
G81 X216.1901 Z-1.55
G81 Z-1.55
G81 Y181.1099 Z-1.55
G81 Z-1.55
G81 X213.6501 Z-1.55
G81 Z-1.55
G81 Y183.6499 Z-1.55
G81 Z-1.55
G81 X216.1901 Z-1.55
G81 Z-1.55
G81 Y186.1899 Z-1.55
G81 Z-1.55
G81 X213.6501 Z-1.55
G81 Z-1.55
G81 Y196.0899 Z-1.55
G81 Z-1.55
G81 X216.1901 Z-1.55
G81 Z-1.55
G81 Y198.6299 Z-1.55
G81 Z-1.55
G81 X213.6501 Z-1.55
G81 Z-1.55
G81 Y201.1699 Z-1.55
G81 Z-1.55
G81 X216.1901 Z-1.55
G81 Z-1.55
G81 Y203.7099 Z-1.55
G81 Z-1.55
G81 X213.6501 Z-1.55
G81 Z-1.55
G81 Y206.2499 Z-1.55
G81 Z-1.55
G81 X216.1901 Z-1.55
G81 Z-1.55
G81 Y208.7899 Z-1.55
G81 Z-1.55
G81 X213.6501 Z-1.55
G81 Z-1.55
G81 Y211.3299 Z-1.55
G81 Z-1.55
G81 X216.1901 Z-1.55
G81 Z-1.55
G81 Y213.8699 Z-1.55
G81 Z-1.55
G81 X213.6501 Z-1.55
G81 Z-1.55
G81 Y216.4099 Z-1.55
G81 Z-1.55
G81 X216.1901 Z-1.55
G81 Z-1.55
G81 Y218.9499 Z-1.55
G81 Z-1.55
G81 X213.6501 Z-1.55
G81 Z-1.55
G81 Y221.4899 Z-1.55
G81 Z-1.55
G81 X216.1901 Z-1.55
G81 Z-1.55
G81 Y224.0299 Z-1.55
G81 Z-1.55
G81 X213.6501 Z-1.55
G81 Z-1.55
G81 Y226.5699 Z-1.55
G81 Z-1.55
G81 X216.1901 Z-1.55
G81 Z-1.55
G81 Y229.1099 Z-1.55
G81 Z-1.55
G81 X213.6501 Z-1.55
G81 Z-1.55
G81 Y231.6499 Z-1.55
G81 Z-1.55
G81 X216.1901 Z-1.55
G81 Z-1.55
G81 Y234.1899 Z-1.55
G81 Z-1.55
G81 Y236.0899 Z-1.55
G81 Z-1.55
G81 Y238.6299 Z-1.55
G81 Z-1.55
G81 X213.6501 Z-1.55
G81 Z-1.55
G81 Y241.1699 Z-1.55
G81 Z-1.55
G81 X216.1901 Z-1.55
G81 Z-1.55
G81 Y243.7099 Z-1.55
G81 Z-1.55
G81 X213.6501 Z-1.55
G81 Z-1.55
G81 Y246.2499 Z-1.55
G81 Z-1.55
G81 X216.1901 Z-1.55
G81 Z-1.55
G81 Y248.7899 Z-1.55
G81 Z-1.55
G81 X213.6501 Z-1.55
G81 Z-1.55
G81 Y251.3299 Z-1.55
G81 Z-1.55
G81 X216.1901 Z-1.55
G81 Z-1.55
G81 Y253.8699 Z-1.55
G81 Z-1.55
G81 Y256.4099 Z-1.55
G81 Z-1.55
G81 X213.6501 Z-1.55
G81 Z-1.55
G81 Y253.8699 Z-1.55
G81 Z-1.55
G81 Y258.9499 Z-1.55
G81 Z-1.55
G81 X216.1901 Z-1.55
G81 Z-1.55
G81 Y261.4899 Z-1.55
G81 Z-1.55
G81 Y264.0299 Z-1.55
G81 Z-1.55
G81 X213.6501 Z-1.55
G81 Z-1.55
G81 Y261.4899 Z-1.55
G81 Z-1.55
G81 Y266.5699 Z-1.55
G81 Z-1.55
G81 X216.1901 Z-1.55
G81 Z-1.55
G81 Y269.1099 Z-1.55
G81 Z-1.55
G81 Y271.6499 Z-1.55
G81 Z-1.55
G81 X213.6501 Z-1.55
G81 Z-1.55
G81 Y269.1099 Z-1.55
G81 Z-1.55
G81 Y274.1899 Z-1.55
G81 Z-1.55
G81 X216.1901 Z-1.55
G81 Z-1.55
G81 X202.8551 Y261.4899 Z-1.55
G81 Z-1.55
G81 Y258.9499 Z-1.55
G81 Z-1.55
G81 Y256.4099 Z-1.55
G81 Z-1.55
G81 X199.6801 Z-1.55
G81 Z-1.55
G81 Y258.9499 Z-1.55
G81 Z-1.55
G81 Y261.4899 Z-1.55
G81 Z-1.55
G81 X196.5051 Z-1.55
G81 Z-1.55
G81 Y258.9499 Z-1.55
G81 Z-1.55
G81 Y256.4099 Z-1.55
G81 Z-1.55
G81 X193.3301 Z-1.55
G81 Z-1.55
G81 Y258.9499 Z-1.55
G81 Z-1.55
G81 Y261.4899 Z-1.55
G81 Z-1.55
G81 X190.1551 Z-1.55
G81 Z-1.55
G81 Y258.9499 Z-1.55
G81 Z-1.55
G81 Y256.4099 Z-1.55
G81 Z-1.55
G81 X186.9801 Z-1.55
G81 Z-1.55
G81 Y258.9499 Z-1.55
G81 Z-1.55
G81 Y261.4899 Z-1.55
G81 Z-1.55
G81 X183.8051 Z-1.55
G81 Z-1.55
G81 Y258.9499 Z-1.55
G81 Z-1.55
G81 Y256.4099 Z-1.55
G81 Z-1.55
G81 X180.6301 Z-1.55
G81 Z-1.55
G81 Y258.9499 Z-1.55
G81 Z-1.55
G81 Y261.4899 Z-1.55
G81 Z-1.55
G81 X177.4551 Z-1.55
G81 Z-1.55
G81 Y258.9499 Z-1.55
G81 Z-1.55
G81 Y256.4099 Z-1.55
G81 Z-1.55
G81 X174.2801 Z-1.55
G81 Z-1.55
G81 Y258.9499 Z-1.55
G81 Z-1.55
G81 Y261.4899 Z-1.55
G81 Z-1.55
G81 X171.1051 Z-1.55
G81 Z-1.55
G81 Y258.9499 Z-1.55
G81 Z-1.55
G81 Y256.4099 Z-1.55
G81 Z-1.55
G81 X167.9301 Z-1.55
G81 Z-1.55
G81 Y258.9499 Z-1.55
G81 Z-1.55
G81 Y261.4899 Z-1.55
G81 Z-1.55
G81 X164.7551 Z-1.55
G81 Z-1.55
G81 Y258.9499 Z-1.55
G81 Z-1.55
G81 Y256.4099 Z-1.55
G81 Z-1.55
G81 X161.5801 Z-1.55
G81 Z-1.55
G81 Y258.9499 Z-1.55
G81 Z-1.55
G81 Y261.4899 Z-1.55
G81 Z-1.55
G81 X158.4051 Z-1.55
G81 Z-1.55
G81 Y258.9499 Z-1.55
G81 Z-1.55
G81 Y256.4099 Z-1.55
G81 Z-1.55
G81 X155.2301 Z-1.55
G81 Z-1.55
G81 Y258.9499 Z-1.55
G81 Z-1.55
G81 Y261.4899 Z-1.55
G81 Z-1.55
G81 X152.0551 Z-1.55
G81 Z-1.55
G81 Y258.9499 Z-1.55
G81 Z-1.55
G81 Y256.4099 Z-1.55
G81 Z-1.55
G81 X148.8801 Z-1.55
G81 Z-1.55
G81 Y258.9499 Z-1.55
G81 Z-1.55
G81 Y261.4899 Z-1.55
G81 Z-1.55
G81 X145.7051 Z-1.55
G81 Z-1.55
G81 Y258.9499 Z-1.55
G81 Z-1.55
G81 Y256.4099 Z-1.55
G81 Z-1.55
G81 X142.5301 Z-1.55
G81 Z-1.55
G81 Y258.9499 Z-1.55
G81 Z-1.55
G81 Y261.4899 Z-1.55
G81 Z-1.55
G81 X139.3551 Z-1.55
G81 Z-1.55
G81 Y258.9499 Z-1.55
G81 Z-1.55
G81 Y256.4099 Z-1.55
G81 Z-1.55
G81 X136.1801 Z-1.55
G81 Z-1.55
G81 Y258.9499 Z-1.55
G81 Z-1.55
G81 Y261.4899 Z-1.55
G81 Z-1.55
G81 X133.0051 Z-1.55
G81 Z-1.55
G81 Y258.9499 Z-1.55
G81 Z-1.55
G81 Y256.4099 Z-1.55
G81 Z-1.55
G81 X129.8301 Z-1.55
G81 Z-1.55
G81 Y258.9499 Z-1.55
G81 Z-1.55
G81 Y261.4899 Z-1.55
G81 Z-1.55
G81 X126.6551 Z-1.55
G81 Z-1.55
G81 Y258.9499 Z-1.55
G81 Z-1.55
G81 Y256.4099 Z-1.55
G81 Z-1.55
G81 X123.4801 Z-1.55
G81 Z-1.55
G81 Y258.9499 Z-1.55
G81 Z-1.55
G81 Y261.4899 Z-1.55
G81 Z-1.55
G81 X120.3051 Z-1.55
G81 Z-1.55
G81 Y258.9499 Z-1.55
G81 Z-1.55
G81 Y256.4099 Z-1.55
G81 Z-1.55
G81 X117.1301 Z-1.55
G81 Z-1.55
G81 Y258.9499 Z-1.55
G81 Z-1.55
G81 Y261.4899 Z-1.55
G81 Z-1.55
G81 X113.9551 Z-1.55
G81 Z-1.55
G81 Y258.9499 Z-1.55
G81 Z-1.55
G81 Y256.4099 Z-1.55
G81 Z-1.55
G81 X110.7801 Z-1.55
G81 Z-1.55
G81 Y258.9499 Z-1.55
G81 Z-1.55
G81 Y261.4899 Z-1.55
G81 Z-1.55
G81 X107.6051 Z-1.55
G81 Z-1.55
G81 Y258.9499 Z-1.55
G81 Z-1.55
G81 Y256.4099 Z-1.55
G81 Z-1.55
G81 X104.4301 Z-1.55
G81 Z-1.55
G81 Y258.9499 Z-1.55
G81 Z-1.55
G81 Y261.4899 Z-1.55
G81 Z-1.55
G81 X98.0801 Y248.7899 Z-1.55
G81 Z-1.55
G81 X94.9051 Y244.9799 Z-1.55
G81 Z-1.55
G81 X91.7301 Y241.1699 Z-1.55
G81 Z-1.55
G81 X88.5551 Y237.3599 Z-1.55
G81 Z-1.55
G81 X82.2051 Y243.0749 Z-1.55
G81 Z-1.55
G81 X79.0301 Y239.2649 Z-1.55
G81 Z-1.55
G81 X75.8551 Y235.4549 Z-1.55
G81 Z-1.55
G81 X66.3301 Y241.1699 Z-1.55
G81 Z-1.55
G81 X69.5051 Y244.9799 Z-1.55
G81 Z-1.55
G81 X72.6801 Y248.7899 Z-1.55
G81 Z-1.55
G81 X85.3801 Y246.8849 Z-1.55
G81 Z-1.55
G81 X101.2551 Y235.4549 Z-1.55
G81 Z-1.55
G81 X104.4301 Y239.2649 Z-1.55
G81 Z-1.55
G81 X107.6051 Y243.0749 Z-1.55
G81 Z-1.55
G81 X110.7801 Y246.8849 Z-1.55
G81 Z-1.55
G81 X117.1301 Y241.1699 Z-1.55
G81 Z-1.55
G81 X113.9551 Y237.3599 Z-1.55
G81 Z-1.55
G81 X120.3051 Y244.9799 Z-1.55
G81 Z-1.55
G81 X123.4801 Y248.7899 Z-1.55
G81 Z-1.55
G81 X133.0051 Y243.0749 Z-1.55
G81 Z-1.55
G81 X129.8301 Y239.2649 Z-1.55
G81 Z-1.55
G81 X126.6551 Y235.4549 Z-1.55
G81 Z-1.55
G81 X139.3551 Y237.3599 Z-1.55
G81 Z-1.55
G81 X142.5301 Y241.1699 Z-1.55
G81 Z-1.55
G81 X145.7051 Y244.9799 Z-1.55
G81 Z-1.55
G81 X148.8801 Y248.7899 Z-1.55
G81 Z-1.55
G81 X158.4051 Y243.0749 Z-1.55
G81 Z-1.55
G81 X155.2301 Y239.2649 Z-1.55
G81 Z-1.55
G81 X152.0551 Y235.4549 Z-1.55
G81 Z-1.55
G81 X164.7551 Y237.3599 Z-1.55
G81 Z-1.55
G81 X167.9301 Y241.1699 Z-1.55
G81 Z-1.55
G81 X171.1051 Y244.9799 Z-1.55
G81 Z-1.55
G81 X174.2801 Y248.7899 Z-1.55
G81 Z-1.55
G81 X183.8051 Y243.0749 Z-1.55
G81 Z-1.55
G81 X186.9801 Y246.8849 Z-1.55
G81 Z-1.55
G81 X193.3301 Y241.1699 Z-1.55
G81 Z-1.55
G81 X196.5051 Y244.9799 Z-1.55
G81 Z-1.55
G81 X199.6801 Y248.7899 Z-1.55
G81 Z-1.55
G81 X202.8551 Y235.4549 Z-1.55
G81 Z-1.55
G81 X213.6501 Y236.0899 Z-1.55
G81 Z-1.55
G81 Y234.1899 Z-1.55
G81 Z-1.55
G81 X202.8551 Y221.4899 Z-1.55
G81 Z-1.55
G81 Y218.9499 Z-1.55
G81 Z-1.55
G81 Y216.4099 Z-1.55
G81 Z-1.55
G81 X199.6801 Z-1.55
G81 Z-1.55
G81 Y218.9499 Z-1.55
G81 Z-1.55
G81 Y221.4899 Z-1.55
G81 Z-1.55
G81 X196.5051 Z-1.55
G81 Z-1.55
G81 Y218.9499 Z-1.55
G81 Z-1.55
G81 Y216.4099 Z-1.55
G81 Z-1.55
G81 X193.3301 Z-1.55
G81 Z-1.55
G81 Y218.9499 Z-1.55
G81 Z-1.55
G81 Y221.4899 Z-1.55
G81 Z-1.55
G81 X190.1551 Z-1.55
G81 Z-1.55
G81 Y218.9499 Z-1.55
G81 Z-1.55
G81 Y216.4099 Z-1.55
G81 Z-1.55
G81 X186.9801 Z-1.55
G81 Z-1.55
G81 Y218.9499 Z-1.55
G81 Z-1.55
G81 Y221.4899 Z-1.55
G81 Z-1.55
G81 X183.8051 Z-1.55
G81 Z-1.55
G81 Y218.9499 Z-1.55
G81 Z-1.55
G81 Y216.4099 Z-1.55
G81 Z-1.55
G81 X180.6301 Z-1.55
G81 Z-1.55
G81 Y218.9499 Z-1.55
G81 Z-1.55
G81 Y221.4899 Z-1.55
G81 Z-1.55
G81 X177.4551 Z-1.55
G81 Z-1.55
G81 Y218.9499 Z-1.55
G81 Z-1.55
G81 Y216.4099 Z-1.55
G81 Z-1.55
G81 X174.2801 Z-1.55
G81 Z-1.55
G81 Y218.9499 Z-1.55
G81 Z-1.55
G81 Y221.4899 Z-1.55
G81 Z-1.55
G81 X171.1051 Z-1.55
G81 Z-1.55
G81 Y218.9499 Z-1.55
G81 Z-1.55
G81 Y216.4099 Z-1.55
G81 Z-1.55
G81 X167.9301 Z-1.55
G81 Z-1.55
G81 Y218.9499 Z-1.55
G81 Z-1.55
G81 Y221.4899 Z-1.55
G81 Z-1.55
G81 X164.7551 Z-1.55
G81 Z-1.55
G81 Y218.9499 Z-1.55
G81 Z-1.55
G81 Y216.4099 Z-1.55
G81 Z-1.55
G81 X161.5801 Z-1.55
G81 Z-1.55
G81 Y218.9499 Z-1.55
G81 Z-1.55
G81 Y221.4899 Z-1.55
G81 Z-1.55
G81 X158.4051 Z-1.55
G81 Z-1.55
G81 Y218.9499 Z-1.55
G81 Z-1.55
G81 Y216.4099 Z-1.55
G81 Z-1.55
G81 X155.2301 Z-1.55
G81 Z-1.55
G81 Y218.9499 Z-1.55
G81 Z-1.55
G81 Y221.4899 Z-1.55
G81 Z-1.55
G81 X152.0551 Z-1.55
G81 Z-1.55
G81 Y218.9499 Z-1.55
G81 Z-1.55
G81 Y216.4099 Z-1.55
G81 Z-1.55
G81 X148.8801 Z-1.55
G81 Z-1.55
G81 Y218.9499 Z-1.55
G81 Z-1.55
G81 Y221.4899 Z-1.55
G81 Z-1.55
G81 X145.7051 Z-1.55
G81 Z-1.55
G81 Y218.9499 Z-1.55
G81 Z-1.55
G81 Y216.4099 Z-1.55
G81 Z-1.55
G81 X142.5301 Z-1.55
G81 Z-1.55
G81 Y218.9499 Z-1.55
G81 Z-1.55
G81 Y221.4899 Z-1.55
G81 Z-1.55
G81 X139.3551 Z-1.55
G81 Z-1.55
G81 Y218.9499 Z-1.55
G81 Z-1.55
G81 Y216.4099 Z-1.55
G81 Z-1.55
G81 X136.1801 Z-1.55
G81 Z-1.55
G81 Y218.9499 Z-1.55
G81 Z-1.55
G81 Y221.4899 Z-1.55
G81 Z-1.55
G81 X133.0051 Z-1.55
G81 Z-1.55
G81 Y218.9499 Z-1.55
G81 Z-1.55
G81 Y216.4099 Z-1.55
G81 Z-1.55
G81 X129.8301 Z-1.55
G81 Z-1.55
G81 Y218.9499 Z-1.55
G81 Z-1.55
G81 Y221.4899 Z-1.55
G81 Z-1.55
G81 X126.6551 Z-1.55
G81 Z-1.55
G81 Y218.9499 Z-1.55
G81 Z-1.55
G81 Y216.4099 Z-1.55
G81 Z-1.55
G81 X123.4801 Z-1.55
G81 Z-1.55
G81 Y218.9499 Z-1.55
G81 Z-1.55
G81 Y221.4899 Z-1.55
G81 Z-1.55
G81 X120.3051 Z-1.55
G81 Z-1.55
G81 Y218.9499 Z-1.55
G81 Z-1.55
G81 Y216.4099 Z-1.55
G81 Z-1.55
G81 X117.1301 Z-1.55
G81 Z-1.55
G81 Y218.9499 Z-1.55
G81 Z-1.55
G81 Y221.4899 Z-1.55
G81 Z-1.55
G81 X113.9551 Z-1.55
G81 Z-1.55
G81 Y218.9499 Z-1.55
G81 Z-1.55
G81 Y216.4099 Z-1.55
G81 Z-1.55
G81 X110.7801 Z-1.55
G81 Z-1.55
G81 Y218.9499 Z-1.55
G81 Z-1.55
G81 Y221.4899 Z-1.55
G81 Z-1.55
G81 X107.6051 Z-1.55
G81 Z-1.55
G81 Y218.9499 Z-1.55
G81 Z-1.55
G81 Y216.4099 Z-1.55
G81 Z-1.55
G81 X104.4301 Z-1.55
G81 Z-1.55
G81 Y218.9499 Z-1.55
G81 Z-1.55
G81 Y221.4899 Z-1.55
G81 Z-1.55
G81 X98.0801 Y208.7899 Z-1.55
G81 Z-1.55
G81 X94.9051 Y204.9799 Z-1.55
G81 Z-1.55
G81 X91.7301 Y201.1699 Z-1.55
G81 Z-1.55
G81 X88.5551 Y197.3599 Z-1.55
G81 Z-1.55
G81 X82.2051 Y203.0749 Z-1.55
G81 Z-1.55
G81 X79.0301 Y199.2649 Z-1.55
G81 Z-1.55
G81 X75.8551 Y195.4549 Z-1.55
G81 Z-1.55
G81 X66.3301 Y201.1699 Z-1.55
G81 Z-1.55
G81 X69.5051 Y204.9799 Z-1.55
G81 Z-1.55
G81 X72.6801 Y208.7899 Z-1.55
G81 Z-1.55
G81 X85.3801 Y206.8849 Z-1.55
G81 Z-1.55
G81 X101.2551 Y195.4549 Z-1.55
G81 Z-1.55
G81 X104.4301 Y199.2649 Z-1.55
G81 Z-1.55
G81 X107.6051 Y203.0749 Z-1.55
G81 Z-1.55
G81 X110.7801 Y206.8849 Z-1.55
G81 Z-1.55
G81 X117.1301 Y201.1699 Z-1.55
G81 Z-1.55
G81 X113.9551 Y197.3599 Z-1.55
G81 Z-1.55
G81 X120.3051 Y204.9799 Z-1.55
G81 Z-1.55
G81 X123.4801 Y208.7899 Z-1.55
G81 Z-1.55
G81 X133.0051 Y203.0749 Z-1.55
G81 Z-1.55
G81 X129.8301 Y199.2649 Z-1.55
G81 Z-1.55
G81 X126.6551 Y195.4549 Z-1.55
G81 Z-1.55
G81 X139.3551 Y197.3599 Z-1.55
G81 Z-1.55
G81 X142.5301 Y201.1699 Z-1.55
G81 Z-1.55
G81 X145.7051 Y204.9799 Z-1.55
G81 Z-1.55
G81 X148.8801 Y208.7899 Z-1.55
G81 Z-1.55
G81 X158.4051 Y203.0749 Z-1.55
G81 Z-1.55
G81 X155.2301 Y199.2649 Z-1.55
G81 Z-1.55
G81 X152.0551 Y195.4549 Z-1.55
G81 Z-1.55
G81 X164.7551 Y197.3599 Z-1.55
G81 Z-1.55
G81 X167.9301 Y201.1699 Z-1.55
G81 Z-1.55
G81 X171.1051 Y204.9799 Z-1.55
G81 Z-1.55
G81 X174.2801 Y208.7899 Z-1.55
G81 Z-1.55
G81 X183.8051 Y203.0749 Z-1.55
G81 Z-1.55
G81 X186.9801 Y206.8849 Z-1.55
G81 Z-1.55
G81 X193.3301 Y201.1699 Z-1.55
G81 Z-1.55
G81 X196.5051 Y204.9799 Z-1.55
G81 Z-1.55
G81 X199.6801 Y208.7899 Z-1.55
G81 Z-1.55
G81 X202.8551 Y195.4549 Z-1.55
G81 Z-1.55
G81 X190.1551 Y197.3599 Z-1.55
G81 Z-1.55
G81 X180.6301 Y199.2649 Z-1.55
G81 Z-1.55
G81 X177.4551 Y195.4549 Z-1.55
G81 Z-1.55
G81 X161.5801 Y206.8849 Z-1.55
G81 Z-1.55
G81 X136.1801 Z-1.55
G81 Z-1.55
G81 Y173.4899 Z-1.55
G81 Z-1.55
G81 Y170.9499 Z-1.55
G81 Z-1.55
G81 Y168.4099 Z-1.55
G81 Z-1.55
G81 X139.3551 Z-1.55
G81 Z-1.55
G81 Y170.9499 Z-1.55
G81 Z-1.55
G81 Y173.4899 Z-1.55
G81 Z-1.55
G81 X142.5301 Z-1.55
G81 Z-1.55
G81 Y170.9499 Z-1.55
G81 Z-1.55
G81 Y168.4099 Z-1.55
G81 Z-1.55
G81 X145.7051 Z-1.55
G81 Z-1.55
G81 Y170.9499 Z-1.55
G81 Z-1.55
G81 Y173.4899 Z-1.55
G81 Z-1.55
G81 X148.8801 Z-1.55
G81 Z-1.55
G81 Y170.9499 Z-1.55
G81 Z-1.55
G81 Y168.4099 Z-1.55
G81 Z-1.55
G81 X152.0551 Z-1.55
G81 Z-1.55
G81 Y170.9499 Z-1.55
G81 Z-1.55
G81 Y173.4899 Z-1.55
G81 Z-1.55
G81 X155.2301 Z-1.55
G81 Z-1.55
G81 Y170.9499 Z-1.55
G81 Z-1.55
G81 Y168.4099 Z-1.55
G81 Z-1.55
G81 X158.4051 Z-1.55
G81 Z-1.55
G81 Y170.9499 Z-1.55
G81 Z-1.55
G81 Y173.4899 Z-1.55
G81 Z-1.55
G81 X161.5801 Z-1.55
G81 Z-1.55
G81 Y170.9499 Z-1.55
G81 Z-1.55
G81 Y168.4099 Z-1.55
G81 Z-1.55
G81 X164.7551 Z-1.55
G81 Z-1.55
G81 Y170.9499 Z-1.55
G81 Z-1.55
G81 Y173.4899 Z-1.55
G81 Z-1.55
G81 X167.9301 Z-1.55
G81 Z-1.55
G81 Y170.9499 Z-1.55
G81 Z-1.55
G81 Y168.4099 Z-1.55
G81 Z-1.55
G81 X171.1051 Z-1.55
G81 Z-1.55
G81 Y170.9499 Z-1.55
G81 Z-1.55
G81 Y173.4899 Z-1.55
G81 Z-1.55
G81 X174.2801 Z-1.55
G81 Z-1.55
G81 Y170.9499 Z-1.55
G81 Z-1.55
G81 Y168.4099 Z-1.55
G81 Z-1.55
G81 X177.4551 Z-1.55
G81 Z-1.55
G81 Y170.9499 Z-1.55
G81 Z-1.55
G81 Y173.4899 Z-1.55
G81 Z-1.55
G81 X180.6301 Z-1.55
G81 Z-1.55
G81 Y170.9499 Z-1.55
G81 Z-1.55
G81 Y168.4099 Z-1.55
G81 Z-1.55
G81 X183.8051 Z-1.55
G81 Z-1.55
G81 Y170.9499 Z-1.55
G81 Z-1.55
G81 Y173.4899 Z-1.55
G81 Z-1.55
G81 X186.9801 Z-1.55
G81 Z-1.55
G81 Y170.9499 Z-1.55
G81 Z-1.55
G81 Y168.4099 Z-1.55
G81 Z-1.55
G81 X190.1551 Z-1.55
G81 Z-1.55
G81 Y170.9499 Z-1.55
G81 Z-1.55
G81 Y173.4899 Z-1.55
G81 Z-1.55
G81 X193.3301 Z-1.55
G81 Z-1.55
G81 Y170.9499 Z-1.55
G81 Z-1.55
G81 Y168.4099 Z-1.55
G81 Z-1.55
G81 X196.5051 Z-1.55
G81 Z-1.55
G81 Y170.9499 Z-1.55
G81 Z-1.55
G81 Y173.4899 Z-1.55
G81 Z-1.55
G81 X199.6801 Z-1.55
G81 Z-1.55
G81 Y170.9499 Z-1.55
G81 Z-1.55
G81 Y168.4099 Z-1.55
G81 Z-1.55
G81 X202.8551 Z-1.55
G81 Z-1.55
G81 Y170.9499 Z-1.55
G81 Z-1.55
G81 Y173.4899 Z-1.55
G81 Z-1.55
G81 X199.6801 Y160.7899 Z-1.55
G81 Z-1.55
G81 X196.5051 Y156.9799 Z-1.55
G81 Z-1.55
G81 X193.3301 Y153.1699 Z-1.55
G81 Z-1.55
G81 X190.1551 Y149.3599 Z-1.55
G81 Z-1.55
G81 X183.8051 Y155.0749 Z-1.55
G81 Z-1.55
G81 X186.9801 Y158.8849 Z-1.55
G81 Z-1.55
G81 X180.6301 Y151.2649 Z-1.55
G81 Z-1.55
G81 X177.4551 Y147.4549 Z-1.55
G81 Z-1.55
G81 X167.9301 Y153.1699 Z-1.55
G81 Z-1.55
G81 X171.1051 Y156.9799 Z-1.55
G81 Z-1.55
G81 X174.2801 Y160.7899 Z-1.55
G81 Z-1.55
G81 X161.5801 Y158.8849 Z-1.55
G81 Z-1.55
G81 X158.4051 Y155.0749 Z-1.55
G81 Z-1.55
G81 X155.2301 Y151.2649 Z-1.55
G81 Z-1.55
G81 X152.0551 Y147.4549 Z-1.55
G81 Z-1.55
G81 X142.5301 Y153.1699 Z-1.55
G81 Z-1.55
G81 X145.7051 Y156.9799 Z-1.55
G81 Z-1.55
G81 X148.8801 Y160.7899 Z-1.55
G81 Z-1.55
G81 X136.1801 Y158.8849 Z-1.55
G81 Z-1.55
G81 X133.0051 Y155.0749 Z-1.55
G81 Z-1.55
G81 X129.8301 Y151.2649 Z-1.55
G81 Z-1.55
G81 X126.6551 Y147.4549 Z-1.55
G81 Z-1.55
G81 X117.1301 Y153.1699 Z-1.55
G81 Z-1.55
G81 X113.9551 Y149.3599 Z-1.55
G81 Z-1.55
G81 X107.6051 Y155.0749 Z-1.55
G81 Z-1.55
G81 X104.4301 Y151.2649 Z-1.55
G81 Z-1.55
G81 X101.2551 Y147.4549 Z-1.55
G81 Z-1.55
G81 X91.7301 Y153.1699 Z-1.55
G81 Z-1.55
G81 X94.9051 Y156.9799 Z-1.55
G81 Z-1.55
G81 X98.0801 Y160.7899 Z-1.55
G81 Z-1.55
G81 Y168.4099 Z-1.55
G81 Z-1.55
G81 Y170.9499 Z-1.55
G81 Z-1.55
G81 Y173.4899 Z-1.55
G81 Z-1.55
G81 X94.9051 Z-1.55
G81 Z-1.55
G81 Y170.9499 Z-1.55
G81 Z-1.55
G81 Y168.4099 Z-1.55
G81 Z-1.55
G81 X91.7301 Z-1.55
G81 Z-1.55
G81 Y170.9499 Z-1.55
G81 Z-1.55
G81 Y173.4899 Z-1.55
G81 Z-1.55
G81 X88.5551 Z-1.55
G81 Z-1.55
G81 Y170.9499 Z-1.55
G81 Z-1.55
G81 Y168.4099 Z-1.55
G81 Z-1.55
G81 X85.3801 Z-1.55
G81 Z-1.55
G81 Y170.9499 Z-1.55
G81 Z-1.55
G81 Y173.4899 Z-1.55
G81 Z-1.55
G81 X82.2051 Z-1.55
G81 Z-1.55
G81 Y170.9499 Z-1.55
G81 Z-1.55
G81 Y168.4099 Z-1.55
G81 Z-1.55
G81 X79.0301 Z-1.55
G81 Z-1.55
G81 Y170.9499 Z-1.55
G81 Z-1.55
G81 Y173.4899 Z-1.55
G81 Z-1.55
G81 X75.8551 Z-1.55
G81 Z-1.55
G81 Y170.9499 Z-1.55
G81 Z-1.55
G81 Y168.4099 Z-1.55
G81 Z-1.55
G81 X72.6801 Z-1.55
G81 Z-1.55
G81 Y170.9499 Z-1.55
G81 Z-1.55
G81 Y173.4899 Z-1.55
G81 Z-1.55
G81 X69.5051 Z-1.55
G81 Z-1.55
G81 Y170.9499 Z-1.55
G81 Z-1.55
G81 Y168.4099 Z-1.55
G81 Z-1.55
G81 X66.3301 Z-1.55
G81 Z-1.55
G81 Y170.9499 Z-1.55
G81 Z-1.55
G81 Y173.4899 Z-1.55
G81 Z-1.55
G81 X63.1551 Z-1.55
G81 Z-1.55
G81 Y170.9499 Z-1.55
G81 Z-1.55
G81 Y168.4099 Z-1.55
G81 Z-1.55
G81 X59.9801 Z-1.55
G81 Z-1.55
G81 Y170.9499 Z-1.55
G81 Z-1.55
G81 Y173.4899 Z-1.55
G81 Z-1.55
G81 X56.8051 Z-1.55
G81 Z-1.55
G81 Y170.9499 Z-1.55
G81 Z-1.55
G81 Y168.4099 Z-1.55
G81 Z-1.55
G81 X53.6301 Z-1.55
G81 Z-1.55
G81 Y170.9499 Z-1.55
G81 Z-1.55
G81 Y173.4899 Z-1.55
G81 Z-1.55
G81 X50.4551 Z-1.55
G81 Z-1.55
G81 Y170.9499 Z-1.55
G81 Z-1.55
G81 Y168.4099 Z-1.55
G81 Z-1.55
G81 X47.2801 Z-1.55
G81 Z-1.55
G81 Y170.9499 Z-1.55
G81 Z-1.55
G81 Y173.4899 Z-1.55
G81 Z-1.55
G81 X44.1051 Z-1.55
G81 Z-1.55
G81 Y170.9499 Z-1.55
G81 Z-1.55
G81 Y168.4099 Z-1.55
G81 Z-1.55
G81 X40.9301 Z-1.55
G81 Z-1.55
G81 Y170.9499 Z-1.55
G81 Z-1.55
G81 Y173.4899 Z-1.55
G81 Z-1.55
G81 X37.7551 Z-1.55
G81 Z-1.55
G81 Y170.9499 Z-1.55
G81 Z-1.55
G81 Y168.4099 Z-1.55
G81 Z-1.55
G81 X34.5801 Z-1.55
G81 Z-1.55
G81 Y170.9499 Z-1.55
G81 Z-1.55
G81 Y173.4899 Z-1.55
G81 Z-1.55
G81 X31.4051 Z-1.55
G81 Z-1.55
G81 Y170.9499 Z-1.55
G81 Z-1.55
G81 Y168.4099 Z-1.55
G81 Z-1.55
G81 X28.2301 Z-1.55
G81 Z-1.55
G81 Y170.9499 Z-1.55
G81 Z-1.55
G81 Y173.4899 Z-1.55
G81 Z-1.55
G81 X25.0551 Z-1.55
G81 Z-1.55
G81 Y170.9499 Z-1.55
G81 Z-1.55
G81 Y168.4099 Z-1.55
G81 Z-1.55
G81 X21.8801 Z-1.55
G81 Z-1.55
G81 Y170.9499 Z-1.55
G81 Z-1.55
G81 Y173.4899 Z-1.55
G81 Z-1.55
G81 X18.7051 Z-1.55
G81 Z-1.55
G81 Y170.9499 Z-1.55
G81 Z-1.55
G81 Y168.4099 Z-1.55
G81 Z-1.55
G81 X15.5301 Z-1.55
G81 Z-1.55
G81 Y170.9499 Z-1.55
G81 Z-1.55
G81 Y173.4899 Z-1.55
G81 Z-1.55
G81 X12.3551 Z-1.55
G81 Z-1.55
G81 Y170.9499 Z-1.55
G81 Z-1.55
G81 Y168.4099 Z-1.55
G81 Z-1.55
G81 X9.1801 Z-1.55
G81 Z-1.55
G81 Y170.9499 Z-1.55
G81 Z-1.55
G81 Y173.4899 Z-1.55
G81 Z-1.55
G81 X6.0051 Z-1.55
G81 Z-1.55
G81 Y170.9499 Z-1.55
G81 Z-1.55
G81 Y168.4099 Z-1.55
G81 Z-1.55
G81 X2.8301 Z-1.55
G81 Z-1.55
G81 Y170.9499 Z-1.55
G81 Z-1.55
G81 Y173.4899 Z-1.55
G81 Z-1.55
G81 X9.1801 Y158.8849 Z-1.55
G81 Z-1.55
G81 X6.0051 Y155.0749 Z-1.55
G81 Z-1.55
G81 X2.8301 Y151.2649 Z-1.55
G81 Z-1.55
G81 X12.3551 Y149.3599 Z-1.55
G81 Z-1.55
G81 X15.5301 Y153.1699 Z-1.55
G81 Z-1.55
G81 X18.7051 Y156.9799 Z-1.55
G81 Z-1.55
G81 X21.8801 Y160.7899 Z-1.55
G81 Z-1.55
G81 X31.4051 Y155.0749 Z-1.55
G81 Z-1.55
G81 X34.5801 Y158.8849 Z-1.55
G81 Z-1.55
G81 X40.9301 Y153.1699 Z-1.55
G81 Z-1.55
G81 X37.7551 Y149.3599 Z-1.55
G81 Z-1.55
G81 X28.2301 Y151.2649 Z-1.55
G81 Z-1.55
G81 X25.0551 Y147.4549 Z-1.55
G81 Z-1.55
G81 X44.1051 Y156.9799 Z-1.55
G81 Z-1.55
G81 X47.2801 Y160.7899 Z-1.55
G81 Z-1.55
G81 X56.8051 Y155.0749 Z-1.55
G81 Z-1.55
G81 X53.6301 Y151.2649 Z-1.55
G81 Z-1.55
G81 X50.4551 Y147.4549 Z-1.55
G81 Z-1.55
G81 X63.1551 Y149.3599 Z-1.55
G81 Z-1.55
G81 X66.3301 Y153.1699 Z-1.55
G81 Z-1.55
G81 X69.5051 Y156.9799 Z-1.55
G81 Z-1.55
G81 X72.6801 Y160.7899 Z-1.55
G81 Z-1.55
G81 X82.2051 Y155.0749 Z-1.55
G81 Z-1.55
G81 X79.0301 Y151.2649 Z-1.55
G81 Z-1.55
G81 X75.8551 Y147.4549 Z-1.55
G81 Z-1.55
G81 X88.5551 Y149.3599 Z-1.55
G81 Z-1.55
G81 X85.3801 Y158.8849 Z-1.55
G81 Z-1.55
G81 X101.2551 Y168.4099 Z-1.55
G81 Z-1.55
G81 Y170.9499 Z-1.55
G81 Z-1.55
G81 Y173.4899 Z-1.55
G81 Z-1.55
G81 X104.4301 Z-1.55
G81 Z-1.55
G81 Y170.9499 Z-1.55
G81 Z-1.55
G81 Y168.4099 Z-1.55
G81 Z-1.55
G81 X107.6051 Z-1.55
G81 Z-1.55
G81 Y170.9499 Z-1.55
G81 Z-1.55
G81 Y173.4899 Z-1.55
G81 Z-1.55
G81 X110.7801 Z-1.55
G81 Z-1.55
G81 Y170.9499 Z-1.55
G81 Z-1.55
G81 Y168.4099 Z-1.55
G81 Z-1.55
G81 X113.9551 Z-1.55
G81 Z-1.55
G81 Y170.9499 Z-1.55
G81 Z-1.55
G81 Y173.4899 Z-1.55
G81 Z-1.55
G81 X117.1301 Z-1.55
G81 Z-1.55
G81 Y170.9499 Z-1.55
G81 Z-1.55
G81 Y168.4099 Z-1.55
G81 Z-1.55
G81 X120.3051 Z-1.55
G81 Z-1.55
G81 Y170.9499 Z-1.55
G81 Z-1.55
G81 Y173.4899 Z-1.55
G81 Z-1.55
G81 X123.4801 Z-1.55
G81 Z-1.55
G81 Y170.9499 Z-1.55
G81 Z-1.55
G81 Y168.4099 Z-1.55
G81 Z-1.55
G81 X126.6551 Z-1.55
G81 Z-1.55
G81 Y170.9499 Z-1.55
G81 Z-1.55
G81 Y173.4899 Z-1.55
G81 Z-1.55
G81 X129.8301 Z-1.55
G81 Z-1.55
G81 Y170.9499 Z-1.55
G81 Z-1.55
G81 Y168.4099 Z-1.55
G81 Z-1.55
G81 X133.0051 Z-1.55
G81 Z-1.55
G81 Y170.9499 Z-1.55
G81 Z-1.55
G81 Y173.4899 Z-1.55
G81 Z-1.55
G81 X123.4801 Y160.7899 Z-1.55
G81 Z-1.55
G81 X120.3051 Y156.9799 Z-1.55
G81 Z-1.55
G81 X110.7801 Y158.8849 Z-1.55
G81 Z-1.55
G81 X139.3551 Y149.3599 Z-1.55
G81 Z-1.55
G81 Y125.4899 Z-1.55
G81 Z-1.55
G81 Y122.9499 Z-1.55
G81 Z-1.55
G81 Y120.4099 Z-1.55
G81 Z-1.55
G81 X136.1801 Z-1.55
G81 Z-1.55
G81 Y122.9499 Z-1.55
G81 Z-1.55
G81 Y125.4899 Z-1.55
G81 Z-1.55
G81 X133.0051 Z-1.55
G81 Z-1.55
G81 Y122.9499 Z-1.55
G81 Z-1.55
G81 Y120.4099 Z-1.55
G81 Z-1.55
G81 X129.8301 Z-1.55
G81 Z-1.55
G81 Y122.9499 Z-1.55
G81 Z-1.55
G81 Y125.4899 Z-1.55
G81 Z-1.55
G81 X126.6551 Z-1.55
G81 Z-1.55
G81 Y122.9499 Z-1.55
G81 Z-1.55
G81 Y120.4099 Z-1.55
G81 Z-1.55
G81 X123.4801 Z-1.55
G81 Z-1.55
G81 Y122.9499 Z-1.55
G81 Z-1.55
G81 Y125.4899 Z-1.55
G81 Z-1.55
G81 X120.3051 Z-1.55
G81 Z-1.55
G81 Y122.9499 Z-1.55
G81 Z-1.55
G81 Y120.4099 Z-1.55
G81 Z-1.55
G81 X117.1301 Z-1.55
G81 Z-1.55
G81 Y122.9499 Z-1.55
G81 Z-1.55
G81 Y125.4899 Z-1.55
G81 Z-1.55
G81 X113.9551 Z-1.55
G81 Z-1.55
G81 Y122.9499 Z-1.55
G81 Z-1.55
G81 Y120.4099 Z-1.55
G81 Z-1.55
G81 X110.7801 Z-1.55
G81 Z-1.55
G81 Y122.9499 Z-1.55
G81 Z-1.55
G81 Y125.4899 Z-1.55
G81 Z-1.55
G81 X107.6051 Z-1.55
G81 Z-1.55
G81 Y122.9499 Z-1.55
G81 Z-1.55
G81 Y120.4099 Z-1.55
G81 Z-1.55
G81 X104.4301 Z-1.55
G81 Z-1.55
G81 Y122.9499 Z-1.55
G81 Z-1.55
G81 Y125.4899 Z-1.55
G81 Z-1.55
G81 X101.2551 Z-1.55
G81 Z-1.55
G81 Y122.9499 Z-1.55
G81 Z-1.55
G81 Y120.4099 Z-1.55
G81 Z-1.55
G81 X98.0801 Z-1.55
G81 Z-1.55
G81 Y122.9499 Z-1.55
G81 Z-1.55
G81 Y125.4899 Z-1.55
G81 Z-1.55
G81 X94.9051 Z-1.55
G81 Z-1.55
G81 Y122.9499 Z-1.55
G81 Z-1.55
G81 Y120.4099 Z-1.55
G81 Z-1.55
G81 X91.7301 Z-1.55
G81 Z-1.55
G81 Y122.9499 Z-1.55
G81 Z-1.55
G81 Y125.4899 Z-1.55
G81 Z-1.55
G81 X88.5551 Z-1.55
G81 Z-1.55
G81 Y122.9499 Z-1.55
G81 Z-1.55
G81 Y120.4099 Z-1.55
G81 Z-1.55
G81 X85.3801 Z-1.55
G81 Z-1.55
G81 Y122.9499 Z-1.55
G81 Z-1.55
G81 Y125.4899 Z-1.55
G81 Z-1.55
G81 X82.2051 Z-1.55
G81 Z-1.55
G81 Y122.9499 Z-1.55
G81 Z-1.55
G81 Y120.4099 Z-1.55
G81 Z-1.55
G81 X79.0301 Z-1.55
G81 Z-1.55
G81 Y122.9499 Z-1.55
G81 Z-1.55
G81 Y125.4899 Z-1.55
G81 Z-1.55
G81 X75.8551 Z-1.55
G81 Z-1.55
G81 Y122.9499 Z-1.55
G81 Z-1.55
G81 Y120.4099 Z-1.55
G81 Z-1.55
G81 X72.6801 Z-1.55
G81 Z-1.55
G81 Y122.9499 Z-1.55
G81 Z-1.55
G81 Y125.4899 Z-1.55
G81 Z-1.55
G81 X69.5051 Z-1.55
G81 Z-1.55
G81 Y122.9499 Z-1.55
G81 Z-1.55
G81 Y120.4099 Z-1.55
G81 Z-1.55
G81 X66.3301 Z-1.55
G81 Z-1.55
G81 Y122.9499 Z-1.55
G81 Z-1.55
G81 Y125.4899 Z-1.55
G81 Z-1.55
G81 X63.1551 Z-1.55
G81 Z-1.55
G81 Y122.9499 Z-1.55
G81 Z-1.55
G81 Y120.4099 Z-1.55
G81 Z-1.55
G81 X59.9801 Z-1.55
G81 Z-1.55
G81 Y122.9499 Z-1.55
G81 Z-1.55
G81 Y125.4899 Z-1.55
G81 Z-1.55
G81 X56.8051 Z-1.55
G81 Z-1.55
G81 Y122.9499 Z-1.55
G81 Z-1.55
G81 Y120.4099 Z-1.55
G81 Z-1.55
G81 X53.6301 Z-1.55
G81 Z-1.55
G81 Y122.9499 Z-1.55
G81 Z-1.55
G81 Y125.4899 Z-1.55
G81 Z-1.55
G81 X50.4551 Z-1.55
G81 Z-1.55
G81 Y122.9499 Z-1.55
G81 Z-1.55
G81 Y120.4099 Z-1.55
G81 Z-1.55
G81 X47.2801 Z-1.55
G81 Z-1.55
G81 Y122.9499 Z-1.55
G81 Z-1.55
G81 Y125.4899 Z-1.55
G81 Z-1.55
G81 X44.1051 Z-1.55
G81 Z-1.55
G81 Y122.9499 Z-1.55
G81 Z-1.55
G81 Y120.4099 Z-1.55
G81 Z-1.55
G81 X40.9301 Z-1.55
G81 Z-1.55
G81 Y122.9499 Z-1.55
G81 Z-1.55
G81 Y125.4899 Z-1.55
G81 Z-1.55
G81 X37.7551 Z-1.55
G81 Z-1.55
G81 Y122.9499 Z-1.55
G81 Z-1.55
G81 Y120.4099 Z-1.55
G81 Z-1.55
G81 X34.5801 Z-1.55
G81 Z-1.55
G81 Y122.9499 Z-1.55
G81 Z-1.55
G81 Y125.4899 Z-1.55
G81 Z-1.55
G81 X31.4051 Z-1.55
G81 Z-1.55
G81 Y122.9499 Z-1.55
G81 Z-1.55
G81 Y120.4099 Z-1.55
G81 Z-1.55
G81 X28.2301 Z-1.55
G81 Z-1.55
G81 Y122.9499 Z-1.55
G81 Z-1.55
G81 Y125.4899 Z-1.55
G81 Z-1.55
G81 X25.0551 Z-1.55
G81 Z-1.55
G81 Y122.9499 Z-1.55
G81 Z-1.55
G81 Y120.4099 Z-1.55
G81 Z-1.55
G81 X21.8801 Z-1.55
G81 Z-1.55
G81 Y122.9499 Z-1.55
G81 Z-1.55
G81 Y125.4899 Z-1.55
G81 Z-1.55
G81 X18.7051 Z-1.55
G81 Z-1.55
G81 Y122.9499 Z-1.55
G81 Z-1.55
G81 Y120.4099 Z-1.55
G81 Z-1.55
G81 X15.5301 Z-1.55
G81 Z-1.55
G81 Y122.9499 Z-1.55
G81 Z-1.55
G81 Y125.4899 Z-1.55
G81 Z-1.55
G81 X12.3551 Z-1.55
G81 Z-1.55
G81 Y122.9499 Z-1.55
G81 Z-1.55
G81 Y120.4099 Z-1.55
G81 Z-1.55
G81 X9.1801 Z-1.55
G81 Z-1.55
G81 Y122.9499 Z-1.55
G81 Z-1.55
G81 Y125.4899 Z-1.55
G81 Z-1.55
G81 X6.0051 Z-1.55
G81 Z-1.55
G81 Y122.9499 Z-1.55
G81 Z-1.55
G81 Y120.4099 Z-1.55
G81 Z-1.55
G81 X2.8301 Z-1.55
G81 Z-1.55
G81 Y122.9499 Z-1.55
G81 Z-1.55
G81 Y125.4899 Z-1.55
G81 Z-1.55
G81 X9.1801 Y110.8849 Z-1.55
G81 Z-1.55
G81 X6.0051 Y107.0749 Z-1.55
G81 Z-1.55
G81 X2.8301 Y103.2649 Z-1.55
G81 Z-1.55
G81 X12.3551 Y101.3599 Z-1.55
G81 Z-1.55
G81 X15.5301 Y105.1699 Z-1.55
G81 Z-1.55
G81 X18.7051 Y108.9799 Z-1.55
G81 Z-1.55
G81 X21.8801 Y112.7899 Z-1.55
G81 Z-1.55
G81 X31.4051 Y107.0749 Z-1.55
G81 Z-1.55
G81 X28.2301 Y103.2649 Z-1.55
G81 Z-1.55
G81 X25.0551 Y99.4549 Z-1.55
G81 Z-1.55
G81 X37.7551 Y101.3599 Z-1.55
G81 Z-1.55
G81 X40.9301 Y105.1699 Z-1.55
G81 Z-1.55
G81 X44.1051 Y108.9799 Z-1.55
G81 Z-1.55
G81 X47.2801 Y112.7899 Z-1.55
G81 Z-1.55
G81 X56.8051 Y107.0749 Z-1.55
G81 Z-1.55
G81 X53.6301 Y103.2649 Z-1.55
G81 Z-1.55
G81 X50.4551 Y99.4549 Z-1.55
G81 Z-1.55
G81 X63.1551 Y101.3599 Z-1.55
G81 Z-1.55
G81 X66.3301 Y105.1699 Z-1.55
G81 Z-1.55
G81 X69.5051 Y108.9799 Z-1.55
G81 Z-1.55
G81 X72.6801 Y112.7899 Z-1.55
G81 Z-1.55
G81 X82.2051 Y107.0749 Z-1.55
G81 Z-1.55
G81 X79.0301 Y103.2649 Z-1.55
G81 Z-1.55
G81 X75.8551 Y99.4549 Z-1.55
G81 Z-1.55
G81 X88.5551 Y101.3599 Z-1.55
G81 Z-1.55
G81 X91.7301 Y105.1699 Z-1.55
G81 Z-1.55
G81 X94.9051 Y108.9799 Z-1.55
G81 Z-1.55
G81 X98.0801 Y112.7899 Z-1.55
G81 Z-1.55
G81 X107.6051 Y107.0749 Z-1.55
G81 Z-1.55
G81 X104.4301 Y103.2649 Z-1.55
G81 Z-1.55
G81 X101.2551 Y99.4549 Z-1.55
G81 Z-1.55
G81 X113.9551 Y101.3599 Z-1.55
G81 Z-1.55
G81 X117.1301 Y105.1699 Z-1.55
G81 Z-1.55
G81 X120.3051 Y108.9799 Z-1.55
G81 Z-1.55
G81 X123.4801 Y112.7899 Z-1.55
G81 Z-1.55
G81 X133.0051 Y107.0749 Z-1.55
G81 Z-1.55
G81 X129.8301 Y103.2649 Z-1.55
G81 Z-1.55
G81 X126.6551 Y99.4549 Z-1.55
G81 Z-1.55
G81 X139.3551 Y101.3599 Z-1.55
G81 Z-1.55
G81 X142.5301 Y105.1699 Z-1.55
G81 Z-1.55
G81 X145.7051 Y108.9799 Z-1.55
G81 Z-1.55
G81 X148.8801 Y112.7899 Z-1.55
G81 Z-1.55
G81 Y120.4099 Z-1.55
G81 Z-1.55
G81 Y122.9499 Z-1.55
G81 Z-1.55
G81 Y125.4899 Z-1.55
G81 Z-1.55
G81 X145.7051 Z-1.55
G81 Z-1.55
G81 Y122.9499 Z-1.55
G81 Z-1.55
G81 Y120.4099 Z-1.55
G81 Z-1.55
G81 X142.5301 Z-1.55
G81 Z-1.55
G81 Y122.9499 Z-1.55
G81 Z-1.55
G81 Y125.4899 Z-1.55
G81 Z-1.55
G81 X152.0551 Z-1.55
G81 Z-1.55
G81 Y122.9499 Z-1.55
G81 Z-1.55
G81 Y120.4099 Z-1.55
G81 Z-1.55
G81 X155.2301 Z-1.55
G81 Z-1.55
G81 Y122.9499 Z-1.55
G81 Z-1.55
G81 Y125.4899 Z-1.55
G81 Z-1.55
G81 X158.4051 Z-1.55
G81 Z-1.55
G81 Y122.9499 Z-1.55
G81 Z-1.55
G81 Y120.4099 Z-1.55
G81 Z-1.55
G81 X161.5801 Z-1.55
G81 Z-1.55
G81 Y122.9499 Z-1.55
G81 Z-1.55
G81 Y125.4899 Z-1.55
G81 Z-1.55
G81 X164.7551 Z-1.55
G81 Z-1.55
G81 Y122.9499 Z-1.55
G81 Z-1.55
G81 Y120.4099 Z-1.55
G81 Z-1.55
G81 X167.9301 Z-1.55
G81 Z-1.55
G81 Y122.9499 Z-1.55
G81 Z-1.55
G81 Y125.4899 Z-1.55
G81 Z-1.55
G81 X171.1051 Z-1.55
G81 Z-1.55
G81 Y122.9499 Z-1.55
G81 Z-1.55
G81 Y120.4099 Z-1.55
G81 Z-1.55
G81 X174.2801 Z-1.55
G81 Z-1.55
G81 Y122.9499 Z-1.55
G81 Z-1.55
G81 Y125.4899 Z-1.55
G81 Z-1.55
G81 X177.4551 Z-1.55
G81 Z-1.55
G81 Y122.9499 Z-1.55
G81 Z-1.55
G81 Y120.4099 Z-1.55
G81 Z-1.55
G81 X180.6301 Z-1.55
G81 Z-1.55
G81 Y122.9499 Z-1.55
G81 Z-1.55
G81 Y125.4899 Z-1.55
G81 Z-1.55
G81 X183.8051 Z-1.55
G81 Z-1.55
G81 Y122.9499 Z-1.55
G81 Z-1.55
G81 Y120.4099 Z-1.55
G81 Z-1.55
G81 X186.9801 Z-1.55
G81 Z-1.55
G81 Y122.9499 Z-1.55
G81 Z-1.55
G81 Y125.4899 Z-1.55
G81 Z-1.55
G81 X190.1551 Z-1.55
G81 Z-1.55
G81 Y122.9499 Z-1.55
G81 Z-1.55
G81 Y120.4099 Z-1.55
G81 Z-1.55
G81 X193.3301 Z-1.55
G81 Z-1.55
G81 Y122.9499 Z-1.55
G81 Z-1.55
G81 Y125.4899 Z-1.55
G81 Z-1.55
G81 X196.5051 Z-1.55
G81 Z-1.55
G81 Y122.9499 Z-1.55
G81 Z-1.55
G81 Y120.4099 Z-1.55
G81 Z-1.55
G81 X199.6801 Z-1.55
G81 Z-1.55
G81 Y122.9499 Z-1.55
G81 Z-1.55
G81 Y125.4899 Z-1.55
G81 Z-1.55
G81 X202.8551 Z-1.55
G81 Z-1.55
G81 Y122.9499 Z-1.55
G81 Z-1.55
G81 Y120.4099 Z-1.55
G81 Z-1.55
G81 X199.6801 Y112.7899 Z-1.55
G81 Z-1.55
G81 X196.5051 Y108.9799 Z-1.55
G81 Z-1.55
G81 X193.3301 Y105.1699 Z-1.55
G81 Z-1.55
G81 X190.1551 Y101.3599 Z-1.55
G81 Z-1.55
G81 X183.8051 Y107.0749 Z-1.55
G81 Z-1.55
G81 X186.9801 Y110.8849 Z-1.55
G81 Z-1.55
G81 X180.6301 Y103.2649 Z-1.55
G81 Z-1.55
G81 X177.4551 Y99.4549 Z-1.55
G81 Z-1.55
G81 X167.9301 Y105.1699 Z-1.55
G81 Z-1.55
G81 X171.1051 Y108.9799 Z-1.55
G81 Z-1.55
G81 X174.2801 Y112.7899 Z-1.55
G81 Z-1.55
G81 X161.5801 Y110.8849 Z-1.55
G81 Z-1.55
G81 X158.4051 Y107.0749 Z-1.55
G81 Z-1.55
G81 X155.2301 Y103.2649 Z-1.55
G81 Z-1.55
G81 X152.0551 Y99.4549 Z-1.55
G81 Z-1.55
G81 X164.7551 Y101.3599 Z-1.55
G81 Z-1.55
G81 Y77.4899 Z-1.55
G81 Z-1.55
G81 Y74.9499 Z-1.55
G81 Z-1.55
G81 Y72.4099 Z-1.55
G81 Z-1.55
G81 X161.5801 Z-1.55
G81 Z-1.55
G81 Y74.9499 Z-1.55
G81 Z-1.55
G81 Y77.4899 Z-1.55
G81 Z-1.55
G81 X158.4051 Z-1.55
G81 Z-1.55
G81 Y74.9499 Z-1.55
G81 Z-1.55
G81 Y72.4099 Z-1.55
G81 Z-1.55
G81 X155.2301 Z-1.55
G81 Z-1.55
G81 Y74.9499 Z-1.55
G81 Z-1.55
G81 Y77.4899 Z-1.55
G81 Z-1.55
G81 X152.0551 Z-1.55
G81 Z-1.55
G81 Y74.9499 Z-1.55
G81 Z-1.55
G81 Y72.4099 Z-1.55
G81 Z-1.55
G81 X148.8801 Z-1.55
G81 Z-1.55
G81 Y74.9499 Z-1.55
G81 Z-1.55
G81 Y77.4899 Z-1.55
G81 Z-1.55
G81 X145.7051 Z-1.55
G81 Z-1.55
G81 Y74.9499 Z-1.55
G81 Z-1.55
G81 Y72.4099 Z-1.55
G81 Z-1.55
G81 X142.5301 Z-1.55
G81 Z-1.55
G81 Y74.9499 Z-1.55
G81 Z-1.55
G81 Y77.4899 Z-1.55
G81 Z-1.55
G81 X139.3551 Z-1.55
G81 Z-1.55
G81 Y74.9499 Z-1.55
G81 Z-1.55
G81 Y72.4099 Z-1.55
G81 Z-1.55
G81 X136.1801 Z-1.55
G81 Z-1.55
G81 Y74.9499 Z-1.55
G81 Z-1.55
G81 Y77.4899 Z-1.55
G81 Z-1.55
G81 X133.0051 Z-1.55
G81 Z-1.55
G81 Y74.9499 Z-1.55
G81 Z-1.55
G81 Y72.4099 Z-1.55
G81 Z-1.55
G81 X129.8301 Z-1.55
G81 Z-1.55
G81 Y74.9499 Z-1.55
G81 Z-1.55
G81 Y77.4899 Z-1.55
G81 Z-1.55
G81 X126.6551 Z-1.55
G81 Z-1.55
G81 Y74.9499 Z-1.55
G81 Z-1.55
G81 Y72.4099 Z-1.55
G81 Z-1.55
G81 X123.4801 Z-1.55
G81 Z-1.55
G81 Y74.9499 Z-1.55
G81 Z-1.55
G81 Y77.4899 Z-1.55
G81 Z-1.55
G81 X120.3051 Z-1.55
G81 Z-1.55
G81 Y74.9499 Z-1.55
G81 Z-1.55
G81 Y72.4099 Z-1.55
G81 Z-1.55
G81 X117.1301 Z-1.55
G81 Z-1.55
G81 Y74.9499 Z-1.55
G81 Z-1.55
G81 Y77.4899 Z-1.55
G81 Z-1.55
G81 X113.9551 Z-1.55
G81 Z-1.55
G81 Y74.9499 Z-1.55
G81 Z-1.55
G81 Y72.4099 Z-1.55
G81 Z-1.55
G81 X110.7801 Z-1.55
G81 Z-1.55
G81 Y74.9499 Z-1.55
G81 Z-1.55
G81 Y77.4899 Z-1.55
G81 Z-1.55
G81 X107.6051 Z-1.55
G81 Z-1.55
G81 Y74.9499 Z-1.55
G81 Z-1.55
G81 Y72.4099 Z-1.55
G81 Z-1.55
G81 X104.4301 Z-1.55
G81 Z-1.55
G81 Y74.9499 Z-1.55
G81 Z-1.55
G81 Y77.4899 Z-1.55
G81 Z-1.55
G81 X101.2551 Z-1.55
G81 Z-1.55
G81 Y74.9499 Z-1.55
G81 Z-1.55
G81 Y72.4099 Z-1.55
G81 Z-1.55
G81 X98.0801 Z-1.55
G81 Z-1.55
G81 Y74.9499 Z-1.55
G81 Z-1.55
G81 Y77.4899 Z-1.55
G81 Z-1.55
G81 X94.9051 Z-1.55
G81 Z-1.55
G81 Y74.9499 Z-1.55
G81 Z-1.55
G81 Y72.4099 Z-1.55
G81 Z-1.55
G81 X91.7301 Z-1.55
G81 Z-1.55
G81 Y74.9499 Z-1.55
G81 Z-1.55
G81 Y77.4899 Z-1.55
G81 Z-1.55
G81 X88.5551 Z-1.55
G81 Z-1.55
G81 Y74.9499 Z-1.55
G81 Z-1.55
G81 Y72.4099 Z-1.55
G81 Z-1.55
G81 X85.3801 Z-1.55
G81 Z-1.55
G81 Y74.9499 Z-1.55
G81 Z-1.55
G81 Y77.4899 Z-1.55
G81 Z-1.55
G81 X82.2051 Z-1.55
G81 Z-1.55
G81 Y74.9499 Z-1.55
G81 Z-1.55
G81 Y72.4099 Z-1.55
G81 Z-1.55
G81 X79.0301 Z-1.55
G81 Z-1.55
G81 Y74.9499 Z-1.55
G81 Z-1.55
G81 Y77.4899 Z-1.55
G81 Z-1.55
G81 X75.8551 Z-1.55
G81 Z-1.55
G81 Y74.9499 Z-1.55
G81 Z-1.55
G81 Y72.4099 Z-1.55
G81 Z-1.55
G81 X72.6801 Z-1.55
G81 Z-1.55
G81 Y74.9499 Z-1.55
G81 Z-1.55
G81 Y77.4899 Z-1.55
G81 Z-1.55
G81 X69.5051 Z-1.55
G81 Z-1.55
G81 Y74.9499 Z-1.55
G81 Z-1.55
G81 Y72.4099 Z-1.55
G81 Z-1.55
G81 X66.3301 Z-1.55
G81 Z-1.55
G81 Y74.9499 Z-1.55
G81 Z-1.55
G81 Y77.4899 Z-1.55
G81 Z-1.55
G81 X63.1551 Z-1.55
G81 Z-1.55
G81 Y74.9499 Z-1.55
G81 Z-1.55
G81 Y72.4099 Z-1.55
G81 Z-1.55
G81 X59.9801 Z-1.55
G81 Z-1.55
G81 Y74.9499 Z-1.55
G81 Z-1.55
G81 Y77.4899 Z-1.55
G81 Z-1.55
G81 X56.8051 Z-1.55
G81 Z-1.55
G81 Y74.9499 Z-1.55
G81 Z-1.55
G81 Y72.4099 Z-1.55
G81 Z-1.55
G81 X53.6301 Z-1.55
G81 Z-1.55
G81 Y74.9499 Z-1.55
G81 Z-1.55
G81 Y77.4899 Z-1.55
G81 Z-1.55
G81 X50.4551 Z-1.55
G81 Z-1.55
G81 Y74.9499 Z-1.55
G81 Z-1.55
G81 Y72.4099 Z-1.55
G81 Z-1.55
G81 X47.2801 Z-1.55
G81 Z-1.55
G81 Y74.9499 Z-1.55
G81 Z-1.55
G81 Y77.4899 Z-1.55
G81 Z-1.55
G81 X44.1051 Z-1.55
G81 Z-1.55
G81 Y74.9499 Z-1.55
G81 Z-1.55
G81 Y72.4099 Z-1.55
G81 Z-1.55
G81 X40.9301 Z-1.55
G81 Z-1.55
G81 Y74.9499 Z-1.55
G81 Z-1.55
G81 Y77.4899 Z-1.55
G81 Z-1.55
G81 X37.7551 Z-1.55
G81 Z-1.55
G81 Y74.9499 Z-1.55
G81 Z-1.55
G81 Y72.4099 Z-1.55
G81 Z-1.55
G81 X34.5801 Z-1.55
G81 Z-1.55
G81 Y74.9499 Z-1.55
G81 Z-1.55
G81 Y77.4899 Z-1.55
G81 Z-1.55
G81 X31.4051 Z-1.55
G81 Z-1.55
G81 Y74.9499 Z-1.55
G81 Z-1.55
G81 Y72.4099 Z-1.55
G81 Z-1.55
G81 X28.2301 Z-1.55
G81 Z-1.55
G81 Y74.9499 Z-1.55
G81 Z-1.55
G81 Y77.4899 Z-1.55
G81 Z-1.55
G81 X25.0551 Z-1.55
G81 Z-1.55
G81 Y74.9499 Z-1.55
G81 Z-1.55
G81 Y72.4099 Z-1.55
G81 Z-1.55
G81 X21.8801 Z-1.55
G81 Z-1.55
G81 Y74.9499 Z-1.55
G81 Z-1.55
G81 Y77.4899 Z-1.55
G81 Z-1.55
G81 X18.7051 Z-1.55
G81 Z-1.55
G81 Y74.9499 Z-1.55
G81 Z-1.55
G81 Y72.4099 Z-1.55
G81 Z-1.55
G81 X15.5301 Z-1.55
G81 Z-1.55
G81 Y74.9499 Z-1.55
G81 Z-1.55
G81 Y77.4899 Z-1.55
G81 Z-1.55
G81 X12.3551 Z-1.55
G81 Z-1.55
G81 Y74.9499 Z-1.55
G81 Z-1.55
G81 Y72.4099 Z-1.55
G81 Z-1.55
G81 X9.1801 Z-1.55
G81 Z-1.55
G81 Y74.9499 Z-1.55
G81 Z-1.55
G81 Y77.4899 Z-1.55
G81 Z-1.55
G81 X6.0051 Z-1.55
G81 Z-1.55
G81 Y74.9499 Z-1.55
G81 Z-1.55
G81 Y72.4099 Z-1.55
G81 Z-1.55
G81 X2.8301 Z-1.55
G81 Z-1.55
G81 Y74.9499 Z-1.55
G81 Z-1.55
G81 Y77.4899 Z-1.55
G81 Z-1.55
G81 X9.1801 Y62.8849 Z-1.55
G81 Z-1.55
G81 X6.0051 Y59.0749 Z-1.55
G81 Z-1.55
G81 X2.8301 Y55.2649 Z-1.55
G81 Z-1.55
G81 X12.3551 Y53.3599 Z-1.55
G81 Z-1.55
G81 X15.5301 Y57.1699 Z-1.55
G81 Z-1.55
G81 X18.7051 Y60.9799 Z-1.55
G81 Z-1.55
G81 X21.8801 Y64.7899 Z-1.55
G81 Z-1.55
G81 X31.4051 Y59.0749 Z-1.55
G81 Z-1.55
G81 X34.5801 Y62.8849 Z-1.55
G81 Z-1.55
G81 X40.9301 Y57.1699 Z-1.55
G81 Z-1.55
G81 X37.7551 Y53.3599 Z-1.55
G81 Z-1.55
G81 X28.2301 Y55.2649 Z-1.55
G81 Z-1.55
G81 X25.0551 Y51.4549 Z-1.55
G81 Z-1.55
G81 X44.1051 Y60.9799 Z-1.55
G81 Z-1.55
G81 X47.2801 Y64.7899 Z-1.55
G81 Z-1.55
G81 X56.8051 Y59.0749 Z-1.55
G81 Z-1.55
G81 X59.9801 Y62.8849 Z-1.55
G81 Z-1.55
G81 X66.3301 Y57.1699 Z-1.55
G81 Z-1.55
G81 X69.5051 Y60.9799 Z-1.55
G81 Z-1.55
G81 X72.6801 Y64.7899 Z-1.55
G81 Z-1.55
G81 X82.2051 Y59.0749 Z-1.55
G81 Z-1.55
G81 X85.3801 Y62.8849 Z-1.55
G81 Z-1.55
G81 X91.7301 Y57.1699 Z-1.55
G81 Z-1.55
G81 X94.9051 Y60.9799 Z-1.55
G81 Z-1.55
G81 X98.0801 Y64.7899 Z-1.55
G81 Z-1.55
G81 X107.6051 Y59.0749 Z-1.55
G81 Z-1.55
G81 X110.7801 Y62.8849 Z-1.55
G81 Z-1.55
G81 X117.1301 Y57.1699 Z-1.55
G81 Z-1.55
G81 X113.9551 Y53.3599 Z-1.55
G81 Z-1.55
G81 X104.4301 Y55.2649 Z-1.55
G81 Z-1.55
G81 X101.2551 Y51.4549 Z-1.55
G81 Z-1.55
G81 X88.5551 Y53.3599 Z-1.55
G81 Z-1.55
G81 X79.0301 Y55.2649 Z-1.55
G81 Z-1.55
G81 X75.8551 Y51.4549 Z-1.55
G81 Z-1.55
G81 X63.1551 Y53.3599 Z-1.55
G81 Z-1.55
G81 X53.6301 Y55.2649 Z-1.55
G81 Z-1.55
G81 X50.4551 Y51.4549 Z-1.55
G81 Z-1.55
G81 X47.2801 Y16.7899 Z-1.55
G81 Z-1.55
G81 X44.1051 Y12.9799 Z-1.55
G81 Z-1.55
G81 X40.9301 Y9.1699 Z-1.55
G81 Z-1.55
G81 X37.7551 Y5.3599 Z-1.55
G81 Z-1.55
G81 X31.4051 Y11.0749 Z-1.55
G81 Z-1.55
G81 X34.5801 Y14.8849 Z-1.55
G81 Z-1.55
G81 X28.2301 Y7.2649 Z-1.55
G81 Z-1.55
G81 X25.0551 Y3.4549 Z-1.55
G81 Z-1.55
G81 X18.7051 Y24.4099 Z-1.55
G81 Z-1.55
G81 Y26.9499 Z-1.55
G81 Z-1.55
G81 Y29.4899 Z-1.55
G81 Z-1.55
G81 X15.5301 Z-1.55
G81 Z-1.55
G81 Y26.9499 Z-1.55
G81 Z-1.55
G81 Y24.4099 Z-1.55
G81 Z-1.55
G81 X12.3551 Z-1.55
G81 Z-1.55
G81 Y26.9499 Z-1.55
G81 Z-1.55
G81 Y29.4899 Z-1.55
G81 Z-1.55
G81 X9.1801 Z-1.55
G81 Z-1.55
G81 Y26.9499 Z-1.55
G81 Z-1.55
G81 Y24.4099 Z-1.55
G81 Z-1.55
G81 X6.0051 Z-1.55
G81 Z-1.55
G81 Y26.9499 Z-1.55
G81 Z-1.55
G81 Y29.4899 Z-1.55
G81 Z-1.55
G81 X2.8301 Z-1.55
G81 Z-1.55
G81 Y26.9499 Z-1.55
G81 Z-1.55
G81 Y24.4099 Z-1.55
G81 Z-1.55
G81 X50.4551 Y3.4549 Z-1.55
G81 Z-1.55
G81 X53.6301 Y7.2649 Z-1.55
G81 Z-1.55
G81 X56.8051 Y11.0749 Z-1.55
G81 Z-1.55
G81 X59.9801 Y14.8849 Z-1.55
G81 Z-1.55
G81 X66.3301 Y9.1699 Z-1.55
G81 Z-1.55
G81 X63.1551 Y5.3599 Z-1.55
G81 Z-1.55
G81 X69.5051 Y12.9799 Z-1.55
G81 Z-1.55
G81 X72.6801 Y16.7899 Z-1.55
G81 Z-1.55
G81 X82.2051 Y11.0749 Z-1.55
G81 Z-1.55
G81 X85.3801 Y14.8849 Z-1.55
G81 Z-1.55
G81 X91.7301 Y9.1699 Z-1.55
G81 Z-1.55
G81 X88.5551 Y5.3599 Z-1.55
G81 Z-1.55
G81 X79.0301 Y7.2649 Z-1.55
G81 Z-1.55
G81 X75.8551 Y3.4549 Z-1.55
G81 Z-1.55
G81 X94.9051 Y12.9799 Z-1.55
G81 Z-1.55
G81 X98.0801 Y16.7899 Z-1.55
G81 Z-1.55
G81 X104.4301 Y7.2649 Z-1.55
G81 Z-1.55
G81 X101.2551 Y3.4549 Z-1.55
G81 Z-1.55
G81 X126.6551 Y51.4549 Z-1.55
G81 Z-1.55
G81 X129.8301 Y55.2649 Z-1.55
G81 Z-1.55
G81 X133.0051 Y59.0749 Z-1.55
G81 Z-1.55
G81 X136.1801 Y62.8849 Z-1.55
G81 Z-1.55
G81 X142.5301 Y57.1699 Z-1.55
G81 Z-1.55
G81 X145.7051 Y60.9799 Z-1.55
G81 Z-1.55
G81 X148.8801 Y64.7899 Z-1.55
G81 Z-1.55
G81 X158.4051 Y59.0749 Z-1.55
G81 Z-1.55
G81 X161.5801 Y62.8849 Z-1.55
G81 Z-1.55
G81 X167.9301 Y57.1699 Z-1.55
G81 Z-1.55
G81 X171.1051 Y60.9799 Z-1.55
G81 Z-1.55
G81 X174.2801 Y64.7899 Z-1.55
G81 Z-1.55
G81 Y72.4099 Z-1.55
G81 Z-1.55
G81 Y74.9499 Z-1.55
G81 Z-1.55
G81 Y77.4899 Z-1.55
G81 Z-1.55
G81 X171.1051 Z-1.55
G81 Z-1.55
G81 Y74.9499 Z-1.55
G81 Z-1.55
G81 Y72.4099 Z-1.55
G81 Z-1.55
G81 X167.9301 Z-1.55
G81 Z-1.55
G81 Y74.9499 Z-1.55
G81 Z-1.55
G81 Y77.4899 Z-1.55
G81 Z-1.55
G81 X177.4551 Z-1.55
G81 Z-1.55
G81 Y74.9499 Z-1.55
G81 Z-1.55
G81 Y72.4099 Z-1.55
G81 Z-1.55
G81 X180.6301 Z-1.55
G81 Z-1.55
G81 Y74.9499 Z-1.55
G81 Z-1.55
G81 Y77.4899 Z-1.55
G81 Z-1.55
G81 X183.8051 Z-1.55
G81 Z-1.55
G81 Y74.9499 Z-1.55
G81 Z-1.55
G81 Y72.4099 Z-1.55
G81 Z-1.55
G81 X186.9801 Z-1.55
G81 Z-1.55
G81 Y74.9499 Z-1.55
G81 Z-1.55
G81 Y77.4899 Z-1.55
G81 Z-1.55
G81 X190.1551 Z-1.55
G81 Z-1.55
G81 Y74.9499 Z-1.55
G81 Z-1.55
G81 Y72.4099 Z-1.55
G81 Z-1.55
G81 X193.3301 Z-1.55
G81 Z-1.55
G81 Y74.9499 Z-1.55
G81 Z-1.55
G81 Y77.4899 Z-1.55
G81 Z-1.55
G81 X196.5051 Z-1.55
G81 Z-1.55
G81 Y74.9499 Z-1.55
G81 Z-1.55
G81 Y72.4099 Z-1.55
G81 Z-1.55
G81 X199.6801 Z-1.55
G81 Z-1.55
G81 Y74.9499 Z-1.55
G81 Z-1.55
G81 Y77.4899 Z-1.55
G81 Z-1.55
G81 X202.8551 Z-1.55
G81 Z-1.55
G81 Y74.9499 Z-1.55
G81 Z-1.55
G81 Y72.4099 Z-1.55
G81 Z-1.55
G81 X199.6801 Y64.7899 Z-1.55
G81 Z-1.55
G81 X196.5051 Y60.9799 Z-1.55
G81 Z-1.55
G81 X193.3301 Y57.1699 Z-1.55
G81 Z-1.55
G81 X190.1551 Y53.3599 Z-1.55
G81 Z-1.55
G81 X183.8051 Y59.0749 Z-1.55
G81 Z-1.55
G81 X186.9801 Y62.8849 Z-1.55
G81 Z-1.55
G81 X180.6301 Y55.2649 Z-1.55
G81 Z-1.55
G81 X177.4551 Y51.4549 Z-1.55
G81 Z-1.55
G81 X164.7551 Y53.3599 Z-1.55
G81 Z-1.55
G81 X155.2301 Y55.2649 Z-1.55
G81 Z-1.55
G81 X152.0551 Y51.4549 Z-1.55
G81 Z-1.55
G81 X139.3551 Y53.3599 Z-1.55
G81 Z-1.55
G81 X123.4801 Y64.7899 Z-1.55
G81 Z-1.55
G81 X120.3051 Y60.9799 Z-1.55
G81 Z-1.55
G81 X110.7801 Y110.8849 Z-1.55
G81 Z-1.55
G81 X136.1801 Z-1.55
G81 Z-1.55
G81 X164.7551 Y149.3599 Z-1.55
G81 Z-1.55
G81 X202.8551 Y147.4549 Z-1.55
G81 Z-1.55
G81 Y99.4549 Z-1.55
G81 Z-1.55
G81 Y51.4549 Z-1.55
G81 Z-1.55
G81 X85.3801 Y110.8849 Z-1.55
G81 Z-1.55
G81 X59.9801 Z-1.55
G81 Z-1.55
G81 X34.5801 Z-1.55
G81 Z-1.55
G81 X59.9801 Y158.8849 Z-1.55
G81 Z-1.55
G81 X50.4551 Y195.4549 Z-1.55
G81 Z-1.55
G81 X53.6301 Y199.2649 Z-1.55
G81 Z-1.55
G81 X56.8051 Y203.0749 Z-1.55
G81 Z-1.55
G81 X59.9801 Y206.8849 Z-1.55
G81 Z-1.55
G81 X63.1551 Y197.3599 Z-1.55
G81 Z-1.55
G81 X47.2801 Y208.7899 Z-1.55
G81 Z-1.55
G81 X44.1051 Y204.9799 Z-1.55
G81 Z-1.55
G81 X40.9301 Y201.1699 Z-1.55
G81 Z-1.55
G81 X37.7551 Y197.3599 Z-1.55
G81 Z-1.55
G81 X31.4051 Y203.0749 Z-1.55
G81 Z-1.55
G81 X34.5801 Y206.8849 Z-1.55
G81 Z-1.55
G81 X28.2301 Y199.2649 Z-1.55
G81 Z-1.55
G81 X25.0551 Y195.4549 Z-1.55
G81 Z-1.55
G81 X15.5301 Y201.1699 Z-1.55
G81 Z-1.55
G81 X18.7051 Y204.9799 Z-1.55
G81 Z-1.55
G81 X21.8801 Y208.7899 Z-1.55
G81 Z-1.55
G81 X9.1801 Y206.8849 Z-1.55
G81 Z-1.55
G81 X6.0051 Y203.0749 Z-1.55
G81 Z-1.55
G81 X2.8301 Y199.2649 Z-1.55
G81 Z-1.55
G81 X12.3551 Y197.3599 Z-1.55
G81 Z-1.55
G81 Y237.3599 Z-1.55
G81 Z-1.55
G81 X15.5301 Y241.1699 Z-1.55
G81 Z-1.55
G81 X18.7051 Y244.9799 Z-1.55
G81 Z-1.55
G81 X21.8801 Y248.7899 Z-1.55
G81 Z-1.55
G81 X31.4051 Y243.0749 Z-1.55
G81 Z-1.55
G81 X34.5801 Y246.8849 Z-1.55
G81 Z-1.55
G81 X40.9301 Y241.1699 Z-1.55
G81 Z-1.55
G81 X37.7551 Y237.3599 Z-1.55
G81 Z-1.55
G81 X28.2301 Y239.2649 Z-1.55
G81 Z-1.55
G81 X25.0551 Y235.4549 Z-1.55
G81 Z-1.55
G81 X9.1801 Y246.8849 Z-1.55
G81 Z-1.55
G81 X6.0051 Y243.0749 Z-1.55
G81 Z-1.55
G81 X2.8301 Y239.2649 Z-1.55
G81 Z-1.55
G81 X44.1051 Y244.9799 Z-1.55
G81 Z-1.55
G81 X47.2801 Y248.7899 Z-1.55
G81 Z-1.55
G81 X56.8051 Y243.0749 Z-1.55
G81 Z-1.55
G81 X53.6301 Y239.2649 Z-1.55
G81 Z-1.55
G81 X50.4551 Y235.4549 Z-1.55
G81 Z-1.55
G81 X63.1551 Y237.3599 Z-1.55
G81 Z-1.55
G81 X59.9801 Y246.8849 Z-1.55
G81 Z-1.55
G81 X136.1801 Z-1.55
G81 Z-1.55
G81 X161.5801 Z-1.55
G81 Z-1.55
G81 X177.4551 Y235.4549 Z-1.55
G81 Z-1.55
G81 X180.6301 Y239.2649 Z-1.55
G81 Z-1.55
G81 X190.1551 Y237.3599 Z-1.55
G81 Z-1.55
G80
G0 Z3.0
M5
M30
