( Made using CamBam - http://www.cambam.co.uk )
( midi_out_connector.gcode.all 6/5/2014 2:08:48 PM )
( T0 : 0.0 )
G21 G90 G64 G40
G0 Z3.0
( T0 : 0.0 )
T0 M6
( 0.8 )
G17
M3 S1000
G0 X16.1 Y7.72
G98
G81 X16.1 Y7.72 Z-1.55 R3.0 F300.0
G81 X18.64 Y10.26 Z-1.55
G81 X22.45 Y11.53 Z-1.55
G81 X24.7569 Y9.3955 Z-1.55
G81 X22.45 Y19.15 Z-1.55
G81 X18.64 Y20.42 Z-1.55
G81 X16.1 Y22.96 Z-1.55
G81 X11.02 Z-1.55
G81 X16.1 Y15.34 Z-1.55
G81 X11.02 Y7.72 Z-1.55
G81 X27.53 Y21.69 Z-1.55
G81 X30.07 Z-1.55
G81 X32.61 Z-1.55
G81 X38.96 Z-1.55
G81 Y11.53 Z-1.55
G81 X34.9169 Y9.3955 Z-1.55
G81 Y37.3955 Z-1.55
G81 X38.96 Y39.53 Z-1.55
G81 Y49.69 Z-1.55
G81 X32.61 Z-1.55
G81 X30.07 Z-1.55
G81 X27.53 Z-1.55
G81 X22.45 Y47.15 Z-1.55
G81 X18.64 Y48.42 Z-1.55
G81 X16.1 Y50.96 Z-1.55
G81 X11.02 Z-1.55
G81 X16.1 Y43.34 Z-1.55
G81 X18.64 Y38.26 Z-1.55
G81 X16.1 Y35.72 Z-1.55
G81 X11.02 Z-1.55
G81 X22.45 Y39.53 Z-1.55
G81 X24.7569 Y37.3955 Z-1.55
G81 X16.1 Y63.72 Z-1.55
G81 X18.64 Y66.26 Z-1.55
G81 X22.45 Y67.53 Z-1.55
G81 X24.7569 Y65.3955 Z-1.55
G81 X22.45 Y75.15 Z-1.55
G81 X18.64 Y76.42 Z-1.55
G81 X16.1 Y78.96 Z-1.55
G81 X11.02 Z-1.55
G81 X16.1 Y71.34 Z-1.55
G81 X11.02 Y63.72 Z-1.55
G81 X27.53 Y77.69 Z-1.55
G81 X30.07 Z-1.55
G81 X32.61 Z-1.55
G81 X38.96 Z-1.55
G81 Y67.53 Z-1.55
G81 X34.9169 Y65.3955 Z-1.55
G80
G0 Z3.0
M5
M30
