( Made using CamBam - http://www.cambam.co.uk )
( midi_organ_v0.2_mm.gcode.drill 6/4/2014 11:41:18 PM )
( T0 : 2.0 )
G21 G90 G64 G40
G0 Z3.0
( T0 : 2.0 )
T0 M6
( 2.55 )
G17
M3 S1000
G0 X21.8801 Y178.24
G0 Z3.0
G0 X22.1551 Y178.24
G0 Z1.0
G1 F300.0 Z0.0
G2 F800.0 X21.7426 Y178.0018 Z-0.1333 I-0.275 J0.0
G2 Y178.4781 Z-0.2667 I0.1375 J0.2382
G2 X22.1551 Y178.24 Z-0.4 I0.1375 J-0.2382
G2 X21.7426 Y178.0018 Z-0.5333 I-0.275 J0.0
G2 Y178.4781 Z-0.6667 I0.1375 J0.2382
G2 X22.1551 Y178.24 Z-0.8 I0.1375 J-0.2382
G2 X21.7426 Y178.0018 Z-0.9333 I-0.275 J0.0
G2 Y178.4781 Z-1.0667 I0.1375 J0.2382
G2 X22.1551 Y178.24 Z-1.2 I0.1375 J-0.2382
G2 X21.7426 Y178.0018 Z-1.3333 I-0.275 J0.0
G2 Y178.4781 Z-1.4667 I0.1375 J0.2382
G2 X22.0745 Y178.4344 Z-1.55 I0.1375 J-0.2382
G2 X21.9513 Y177.9743 I-0.1945 J-0.1945
G2 X21.6145 Y178.3111 I-0.0712 J0.2656
G2 X22.0745 Y178.4344 I0.2656 J-0.0712
G0 Z3.0
G0 X26.755 Y175.0398
G0 Z1.0
G1 F300.0 Z0.0
G2 F800.0 X26.3425 Y174.8016 Z-0.1333 I-0.275 J0.0
G2 Y175.278 Z-0.2667 I0.1375 J0.2382
G2 X26.755 Y175.0398 Z-0.4 I0.1375 J-0.2382
G2 X26.3425 Y174.8016 Z-0.5333 I-0.275 J0.0
G2 Y175.278 Z-0.6667 I0.1375 J0.2382
G2 X26.755 Y175.0398 Z-0.8 I0.1375 J-0.2382
G2 X26.3425 Y174.8016 Z-0.9333 I-0.275 J0.0
G2 Y175.278 Z-1.0667 I0.1375 J0.2382
G2 X26.755 Y175.0398 Z-1.2 I0.1375 J-0.2382
G2 X26.3425 Y174.8016 Z-1.3333 I-0.275 J0.0
G2 Y175.278 Z-1.4667 I0.1375 J0.2382
G2 X26.6745 Y175.2343 Z-1.55 I0.1375 J-0.2382
G2 X26.5512 Y174.7742 I-0.1945 J-0.1945
G2 X26.2144 Y175.111 I-0.0712 J0.2656
G2 X26.6745 Y175.2343 I0.2656 J-0.0712
G0 Z3.0
G0 X22.1551 Y172.1399
G0 Z1.0
G1 F300.0 Z0.0
G2 F800.0 X21.7426 Y171.9017 Z-0.1333 I-0.275 J0.0
G2 Y172.378 Z-0.2667 I0.1375 J0.2382
G2 X22.1551 Y172.1399 Z-0.4 I0.1375 J-0.2382
G2 X21.7426 Y171.9017 Z-0.5333 I-0.275 J0.0
G2 Y172.378 Z-0.6667 I0.1375 J0.2382
G2 X22.1551 Y172.1399 Z-0.8 I0.1375 J-0.2382
G2 X21.7426 Y171.9017 Z-0.9333 I-0.275 J0.0
G2 Y172.378 Z-1.0667 I0.1375 J0.2382
G2 X22.1551 Y172.1399 Z-1.2 I0.1375 J-0.2382
G2 X21.7426 Y171.9017 Z-1.3333 I-0.275 J0.0
G2 Y172.378 Z-1.4667 I0.1375 J0.2382
G2 X22.0745 Y172.3343 Z-1.55 I0.1375 J-0.2382
G2 X21.9513 Y171.8743 I-0.1945 J-0.1945
G2 X21.6145 Y172.2111 I-0.0712 J0.2656
G2 X22.0745 Y172.3343 I0.2656 J-0.0712
G0 Z3.0
M5
M30
