( Made using CamBam - http://www.cambam.co.uk )
( midi_organ_v0.2_mm.gcode.drill 6/4/2014 11:39:48 PM )
( T0 : 0.0 )
G21 G90 G64 G40
G0 Z3.0
( T0 : 0.0 )
T0 M6
( 0.8 )
G17
M3 S1000
G0 X12.3551 Y22.2799
G98
G81 X12.3551 Y22.2799 Z-1.55 R3.0 F300.0
G81 Y24.8199 Z-1.55
G81 Y27.3599 Z-1.55
G81 Y29.8999 Z-1.55
G81 Y32.4399 Z-1.55
G81 Y34.9799 Z-1.55
G81 Y37.5199 Z-1.55
G81 Y40.0599 Z-1.55
G81 Y42.5999 Z-1.55
G81 Y45.1399 Z-1.55
G81 Y47.6799 Z-1.55
G81 Y50.2199 Z-1.55
G81 Y52.7599 Z-1.55
G81 Y55.2999 Z-1.55
G81 Y57.8399 Z-1.55
G81 Y60.3799 Z-1.55
G81 X22.5151 Z-1.55
G81 Y57.8399 Z-1.55
G81 Y55.2999 Z-1.55
G81 Y52.7599 Z-1.55
G81 Y50.2199 Z-1.55
G81 Y47.6799 Z-1.55
G81 Y45.1399 Z-1.55
G81 Y42.5999 Z-1.55
G81 Y40.0599 Z-1.55
G81 Y37.5199 Z-1.55
G81 Y34.9799 Z-1.55
G81 Y32.4399 Z-1.55
G81 Y29.8999 Z-1.55
G81 Y27.3599 Z-1.55
G81 Y24.8199 Z-1.55
G81 Y22.2799 Z-1.55
G81 X29.5001 Y28.6299 Z-1.55
G81 X32.0401 Y27.3599 Z-1.55
G81 X34.5801 Z-1.55
G81 X37.1201 Z-1.55
G81 X39.6601 Z-1.55
G81 X42.2001 Z-1.55
G81 X44.7401 Z-1.55
G81 X47.2801 Z-1.55
G81 X49.8201 Z-1.55
G81 X52.3601 Z-1.55
G81 X54.9001 Z-1.55
G81 X57.4401 Z-1.55
G81 X59.9801 Z-1.55
G81 X62.5201 Z-1.55
G81 X65.0601 Z-1.55
G81 X67.6001 Z-1.55
G81 X70.1401 Z-1.55
G81 X67.6001 Y29.8999 Z-1.55
G81 X70.1401 Y32.4399 Z-1.55
G81 Y34.9799 Z-1.55
G81 X67.6001 Z-1.55
G81 X65.0601 Z-1.55
G81 X62.5201 Z-1.55
G81 X59.9801 Z-1.55
G81 X57.4401 Z-1.55
G81 X54.9001 Z-1.55
G81 X52.3601 Z-1.55
G81 X49.8201 Z-1.55
G81 X47.2801 Z-1.55
G81 X44.7401 Z-1.55
G81 X42.2001 Z-1.55
G81 X39.6601 Z-1.55
G81 X37.1201 Z-1.55
G81 X34.5801 Z-1.55
G81 X32.0401 Z-1.55
G81 Y32.4399 Z-1.55
G81 X34.5801 Y29.8999 Z-1.55
G81 X26.9601 Y31.1699 Z-1.55
G81 X32.0401 Y47.6799 Z-1.55
G81 X34.5801 Z-1.55
G81 X37.1201 Z-1.55
G81 X39.6601 Z-1.55
G81 X42.2001 Z-1.55
G81 X44.7401 Z-1.55
G81 X47.2801 Z-1.55
G81 X49.8201 Z-1.55
G81 X52.3601 Z-1.55
G81 X54.9001 Z-1.55
G81 X57.4401 Z-1.55
G81 X59.9801 Z-1.55
G81 X62.5201 Z-1.55
G81 X65.0601 Z-1.55
G81 X67.6001 Z-1.55
G81 X70.1401 Z-1.55
G81 X67.6001 Y50.2199 Z-1.55
G81 X70.1401 Y52.7599 Z-1.55
G81 Y55.2999 Z-1.55
G81 X67.6001 Z-1.55
G81 X65.0601 Z-1.55
G81 X62.5201 Z-1.55
G81 X59.9801 Z-1.55
G81 X57.4401 Z-1.55
G81 X54.9001 Z-1.55
G81 X52.3601 Z-1.55
G81 X49.8201 Z-1.55
G81 X47.2801 Z-1.55
G81 X44.7401 Z-1.55
G81 X42.2001 Z-1.55
G81 X39.6601 Z-1.55
G81 X37.1201 Z-1.55
G81 X34.5801 Z-1.55
G81 X32.0401 Z-1.55
G81 Y52.7599 Z-1.55
G81 X34.5801 Y50.2199 Z-1.55
G81 X28.8651 Y49.5849 Z-1.55
G81 X26.9601 Y51.4899 Z-1.55
G81 X37.7551 Y65.4599 Z-1.55
G81 Y67.9999 Z-1.55
G81 Y70.5399 Z-1.55
G81 Y73.0799 Z-1.55
G81 Y75.6199 Z-1.55
G81 Y78.1599 Z-1.55
G81 Y80.6999 Z-1.55
G81 Y83.2399 Z-1.55
G81 Y87.0499 Z-1.55
G81 Y89.5899 Z-1.55
G81 Y92.1299 Z-1.55
G81 Y94.6699 Z-1.55
G81 Y97.2099 Z-1.55
G81 Y99.7499 Z-1.55
G81 Y102.2899 Z-1.55
G81 Y104.8299 Z-1.55
G81 Y108.6399 Z-1.55
G81 Y111.1799 Z-1.55
G81 Y113.7199 Z-1.55
G81 Y116.2599 Z-1.55
G81 Y118.7999 Z-1.55
G81 Y121.3399 Z-1.55
G81 Y123.8799 Z-1.55
G81 Y126.4199 Z-1.55
G81 X35.8501 Y128.9599 Z-1.55
G81 Y133.4049 Z-1.55
G81 X32.0401 Z-1.55
G81 X30.1351 Y130.8649 Z-1.55
G81 X22.5616 Y130.6317 Z-1.55
G81 X20.0216 Z-1.55
G81 X16.2116 Z-1.55
G81 X13.6716 Z-1.55
G81 X15.5301 Y138.4849 Z-1.55
G81 X18.0701 Y140.3899 Z-1.55
G81 X25.6901 Y142.2949 Z-1.55
G81 Y146.1049 Z-1.55
G81 X30.7701 Y148.6449 Z-1.55
G81 X29.5001 Y151.1849 Z-1.55
G81 Y156.2649 Z-1.55
G81 X21.8801 Z-1.55
G81 X14.2601 Z-1.55
G81 X16.8001 Y161.9799 Z-1.55
G81 X21.8801 Y163.8849 Z-1.55
G81 Y168.9649 Z-1.55
G81 X14.2601 Z-1.55
G81 Y172.1399 Z-1.55
G81 Y179.7599 Z-1.55
G81 X29.5001 Y172.7749 Z-1.55
G81 Y168.9649 Z-1.55
G81 X36.4851 Y177.8549 Z-1.55
G81 X51.7251 Z-1.55
G81 X52.9951 Y166.4249 Z-1.55
G81 X55.5351 Z-1.55
G81 Y163.8849 Z-1.55
G81 Y161.3449 Z-1.55
G81 Y158.8049 Z-1.55
G81 Y156.2649 Z-1.55
G81 Y153.7249 Z-1.55
G81 Y151.1849 Z-1.55
G81 X53.6301 Y149.9149 Z-1.55
G81 X55.5351 Y148.6449 Z-1.55
G81 Y146.1049 Z-1.55
G81 Y143.5649 Z-1.55
G81 Y141.0249 Z-1.55
G81 Y138.4849 Z-1.55
G81 Y135.9449 Z-1.55
G81 X53.6301 Y134.6749 Z-1.55
G81 X55.5351 Y133.4049 Z-1.55
G81 X54.2651 Y128.3249 Z-1.55
G81 X51.7251 Z-1.55
G81 X50.4551 Y126.4199 Z-1.55
G81 X47.9151 Z-1.55
G81 Y123.8799 Z-1.55
G81 Y121.3399 Z-1.55
G81 X50.4551 Z-1.55
G81 Y123.8799 Z-1.55
G81 X54.2651 Y122.6099 Z-1.55
G81 X56.1701 Y125.1499 Z-1.55
G81 X58.0751 Y123.8799 Z-1.55
G81 Y121.3399 Z-1.55
G81 Y118.7999 Z-1.55
G81 Y116.2599 Z-1.55
G81 Y113.7199 Z-1.55
G81 Y111.1799 Z-1.55
G81 X56.1701 Y109.9099 Z-1.55
G81 X58.0751 Y108.6399 Z-1.55
G81 X60.6151 Y106.7349 Z-1.55
G81 X58.0751 Y104.8299 Z-1.55
G81 Y102.2899 Z-1.55
G81 X56.1701 Y101.0199 Z-1.55
G81 X58.0751 Y99.7499 Z-1.55
G81 Y97.2099 Z-1.55
G81 Y94.6699 Z-1.55
G81 Y92.1299 Z-1.55
G81 Y89.5899 Z-1.55
G81 X56.1701 Y88.3199 Z-1.55
G81 X58.0751 Y87.0499 Z-1.55
G81 X60.6151 Y85.1449 Z-1.55
G81 X58.0751 Y83.2399 Z-1.55
G81 Y80.6999 Z-1.55
G81 X56.1701 Y79.4299 Z-1.55
G81 X58.0751 Y78.1599 Z-1.55
G81 Y75.6199 Z-1.55
G81 Y73.0799 Z-1.55
G81 Y70.5399 Z-1.55
G81 Y67.9999 Z-1.55
G81 X56.1701 Y66.7299 Z-1.55
G81 X58.0751 Y65.4599 Z-1.55
G81 X60.6151 Y70.5399 Z-1.55
G81 X64.4251 Y68.6349 Z-1.55
G81 Y66.0949 Z-1.55
G81 Y63.5549 Z-1.55
G81 X66.9651 Y65.4599 Z-1.55
G81 X68.8701 Y66.7299 Z-1.55
G81 X66.9651 Y67.9999 Z-1.55
G81 Y70.5399 Z-1.55
G81 Y73.0799 Z-1.55
G81 Y75.6199 Z-1.55
G81 Y78.1599 Z-1.55
G81 Y80.6999 Z-1.55
G81 X68.8701 Y81.9699 Z-1.55
G81 X66.9651 Y83.2399 Z-1.55
G81 X64.4251 Y85.1449 Z-1.55
G81 X66.9651 Y87.0499 Z-1.55
G81 Y89.5899 Z-1.55
G81 X68.8701 Y90.8599 Z-1.55
G81 X66.9651 Y92.1299 Z-1.55
G81 Y94.6699 Z-1.55
G81 Y97.2099 Z-1.55
G81 Y99.7499 Z-1.55
G81 Y102.2899 Z-1.55
G81 X68.8701 Y103.5599 Z-1.55
G81 X66.9651 Y104.8299 Z-1.55
G81 X64.4251 Y106.7349 Z-1.55
G81 X66.9651 Y108.6399 Z-1.55
G81 Y111.1799 Z-1.55
G81 X68.8701 Y112.4499 Z-1.55
G81 X66.9651 Y113.7199 Z-1.55
G81 Y116.2599 Z-1.55
G81 Y118.7999 Z-1.55
G81 Y121.3399 Z-1.55
G81 Y123.8799 Z-1.55
G81 X68.8701 Y125.1499 Z-1.55
G81 X66.9651 Y126.4199 Z-1.55
G81 X70.7751 Y122.6099 Z-1.55
G81 X74.5851 Y123.8799 Z-1.55
G81 X77.1251 Z-1.55
G81 Y121.3399 Z-1.55
G81 X74.5851 Z-1.55
G81 Y118.7999 Z-1.55
G81 X77.1251 Z-1.55
G81 Y116.2599 Z-1.55
G81 Y113.7199 Z-1.55
G81 X74.5851 Z-1.55
G81 Y116.2599 Z-1.55
G81 X70.7751 Y114.9899 Z-1.55
G81 X74.5851 Y111.1799 Z-1.55
G81 X72.6801 Y109.9099 Z-1.55
G81 X74.5851 Y108.6399 Z-1.55
G81 X77.1251 Z-1.55
G81 Y111.1799 Z-1.55
G81 Y104.8299 Z-1.55
G81 X74.5851 Z-1.55
G81 Y102.2899 Z-1.55
G81 X72.6801 Y101.0199 Z-1.55
G81 X74.5851 Y99.7499 Z-1.55
G81 X77.1251 Z-1.55
G81 Y102.2899 Z-1.55
G81 Y97.2099 Z-1.55
G81 Y94.6699 Z-1.55
G81 X74.5851 Z-1.55
G81 Y97.2099 Z-1.55
G81 Y92.1299 Z-1.55
G81 Y89.5899 Z-1.55
G81 X72.6801 Y88.3199 Z-1.55
G81 X74.5851 Y87.0499 Z-1.55
G81 X77.1251 Z-1.55
G81 Y89.5899 Z-1.55
G81 Y92.1299 Z-1.55
G81 X70.7751 Y93.3999 Z-1.55
G81 X64.4251 Y94.6699 Z-1.55
G81 Y90.2249 Z-1.55
G81 X60.6151 Y97.2099 Z-1.55
G81 Y101.6549 Z-1.55
G81 X54.2651 Y98.4799 Z-1.55
G81 X50.4551 Y97.2099 Z-1.55
G81 Y94.6699 Z-1.55
G81 X47.9151 Z-1.55
G81 Y97.2099 Z-1.55
G81 Y99.7499 Z-1.55
G81 Y102.2899 Z-1.55
G81 X50.4551 Z-1.55
G81 X52.3601 Y103.5599 Z-1.55
G81 X50.4551 Y104.8299 Z-1.55
G81 X47.9151 Z-1.55
G81 Y108.6399 Z-1.55
G81 Y111.1799 Z-1.55
G81 X50.4551 Z-1.55
G81 X52.3601 Y112.4499 Z-1.55
G81 X50.4551 Y113.7199 Z-1.55
G81 Y116.2599 Z-1.55
G81 X47.9151 Z-1.55
G81 Y113.7199 Z-1.55
G81 Y118.7999 Z-1.55
G81 X50.4551 Z-1.55
G81 Y108.6399 Z-1.55
G81 Y99.7499 Z-1.55
G81 Y92.1299 Z-1.55
G81 X52.3601 Y90.8599 Z-1.55
G81 X50.4551 Y89.5899 Z-1.55
G81 X47.9151 Z-1.55
G81 Y92.1299 Z-1.55
G81 Y87.0499 Z-1.55
G81 X50.4551 Z-1.55
G81 Y83.2399 Z-1.55
G81 X52.3601 Y81.9699 Z-1.55
G81 X50.4551 Y80.6999 Z-1.55
G81 X47.9151 Z-1.55
G81 Y83.2399 Z-1.55
G81 Y78.1599 Z-1.55
G81 X50.4551 Z-1.55
G81 Y75.6199 Z-1.55
G81 Y73.0799 Z-1.55
G81 X47.9151 Z-1.55
G81 Y75.6199 Z-1.55
G81 Y70.5399 Z-1.55
G81 Y67.9999 Z-1.55
G81 X50.4551 Z-1.55
G81 Y70.5399 Z-1.55
G81 Y65.4599 Z-1.55
G81 X47.9151 Z-1.55
G81 X46.0101 Y62.9199 Z-1.55
G81 X46.6451 Y59.1099 Z-1.55
G81 X52.3601 Y57.8399 Z-1.55
G81 X56.1701 Y51.4899 Z-1.55
G81 X54.9001 Y43.8699 Z-1.55
G81 X52.3601 Z-1.55
G81 X57.4401 Z-1.55
G81 Y38.7899 Z-1.55
G81 X54.9001 Z-1.55
G81 X52.3601 Y37.5199 Z-1.55
G81 X47.2801 Y41.3299 Z-1.55
G81 X46.0101 Y51.4899 Z-1.55
G81 Y31.1699 Z-1.55
G81 Y23.5499 Z-1.55
G81 X48.5501 Z-1.55
G81 Y21.0099 Z-1.55
G81 X53.6301 Z-1.55
G81 Y23.5499 Z-1.55
G81 X56.1701 Y31.1699 Z-1.55
G81 X73.3151 Y32.4399 Z-1.55
G81 X75.2201 Y31.1699 Z-1.55
G81 X79.6651 Y32.4399 Z-1.55
G81 Y34.9799 Z-1.55
G81 Y37.5199 Z-1.55
G81 Y40.0599 Z-1.55
G81 Y42.5999 Z-1.55
G81 Y45.1399 Z-1.55
G81 Y47.6799 Z-1.55
G81 Y50.2199 Z-1.55
G81 Y52.7599 Z-1.55
G81 Y55.2999 Z-1.55
G81 Y57.8399 Z-1.55
G81 Y60.3799 Z-1.55
G81 X77.1251 Y65.4599 Z-1.55
G81 X74.5851 Z-1.55
G81 Y67.9999 Z-1.55
G81 Y70.5399 Z-1.55
G81 X77.1251 Z-1.55
G81 Y67.9999 Z-1.55
G81 Y73.0799 Z-1.55
G81 Y75.6199 Z-1.55
G81 X74.5851 Z-1.55
G81 Y73.0799 Z-1.55
G81 Y78.1599 Z-1.55
G81 X72.6801 Y79.4299 Z-1.55
G81 X74.5851 Y80.6999 Z-1.55
G81 X77.1251 Z-1.55
G81 Y83.2399 Z-1.55
G81 X74.5851 Z-1.55
G81 X77.1251 Y78.1599 Z-1.55
G81 X87.2851 Z-1.55
G81 Y80.6999 Z-1.55
G81 Y83.2399 Z-1.55
G81 Y87.0499 Z-1.55
G81 Y89.5899 Z-1.55
G81 Y92.1299 Z-1.55
G81 Y94.6699 Z-1.55
G81 Y97.2099 Z-1.55
G81 Y99.7499 Z-1.55
G81 Y102.2899 Z-1.55
G81 Y104.8299 Z-1.55
G81 Y108.6399 Z-1.55
G81 Y111.1799 Z-1.55
G81 Y113.7199 Z-1.55
G81 Y116.2599 Z-1.55
G81 Y118.7999 Z-1.55
G81 Y121.3399 Z-1.55
G81 Y123.8799 Z-1.55
G81 Y126.4199 Z-1.55
G81 X88.5551 Y130.8649 Z-1.55
G81 X86.0151 Z-1.55
G81 X82.2051 Y133.4049 Z-1.55
G81 Y135.9449 Z-1.55
G81 X86.0151 Z-1.55
G81 X88.5551 Z-1.55
G81 X87.9201 Y139.7549 Z-1.55
G81 X85.3801 Z-1.55
G81 X82.8401 Z-1.55
G81 X80.3001 Z-1.55
G81 X77.7601 Z-1.55
G81 X75.2201 Z-1.55
G81 X72.6801 Z-1.55
G81 Y142.2949 Z-1.55
G81 Y144.8349 Z-1.55
G81 Y147.3749 Z-1.55
G81 X75.2201 Z-1.55
G81 X77.7601 Z-1.55
G81 X80.3001 Z-1.55
G81 X82.8401 Z-1.55
G81 X85.3801 Z-1.55
G81 X87.9201 Z-1.55
G81 X82.8401 Y158.1699 Z-1.55
G81 X80.3001 Z-1.55
G81 X77.7601 Z-1.55
G81 X75.2201 Z-1.55
G81 X72.6801 Z-1.55
G81 X70.1401 Z-1.55
G81 X67.6001 Z-1.55
G81 X65.0601 Z-1.55
G81 Y155.6299 Z-1.55
G81 X62.5201 Y156.8999 Z-1.55
G81 X59.9801 Y153.0899 Z-1.55
G81 X58.0751 Y154.9949 Z-1.55
G81 Y149.9149 Z-1.55
G81 Y147.3749 Z-1.55
G81 X61.8851 Z-1.55
G81 X60.6151 Y143.5649 Z-1.55
G81 X61.8851 Y139.7549 Z-1.55
G81 X66.9651 Z-1.55
G81 X65.6951 Y143.5649 Z-1.55
G81 X66.9651 Y147.3749 Z-1.55
G81 X69.5051 Z-1.55
G81 X68.2351 Y154.3599 Z-1.55
G81 X70.1401 Y155.6299 Z-1.55
G81 Y165.7899 Z-1.55
G81 X67.6001 Z-1.55
G81 X65.0601 Z-1.55
G81 X63.1551 Y169.5999 Z-1.55
G81 X58.0751 Y163.8849 Z-1.55
G81 Y161.3449 Z-1.55
G81 X47.9151 Z-1.55
G81 Y163.8849 Z-1.55
G81 Y166.4249 Z-1.55
G81 Y158.8049 Z-1.55
G81 Y156.2649 Z-1.55
G81 Y153.7249 Z-1.55
G81 Y151.1849 Z-1.55
G81 X49.8201 Y149.9149 Z-1.55
G81 X47.9151 Y148.6449 Z-1.55
G81 Y146.1049 Z-1.55
G81 Y143.5649 Z-1.55
G81 Y141.0249 Z-1.55
G81 X49.8201 Y139.7549 Z-1.55
G81 X47.9151 Y138.4849 Z-1.55
G81 Y135.9449 Z-1.55
G81 Y133.4049 Z-1.55
G81 Y129.7219 Z-1.55
G81 X42.8351 Y127.0549 Z-1.55
G81 X40.9301 Y130.8649 Z-1.55
G81 X43.4701 Y134.6749 Z-1.55
G81 Y138.4849 Z-1.55
G81 X45.3751 Y141.0249 Z-1.55
G81 X43.4701 Y143.5649 Z-1.55
G81 X35.8501 Y142.2949 Z-1.55
G81 Y146.1049 Z-1.55
G81 X32.6751 Z-1.55
G81 X58.0751 Y126.4199 Z-1.55
G81 X60.6151 Y128.3249 Z-1.55
G81 Y123.2449 Z-1.55
G81 Y120.7049 Z-1.55
G81 X62.5201 Y118.7999 Z-1.55
G81 Y116.2599 Z-1.55
G81 Y113.7199 Z-1.55
G81 X64.4251 Y111.8149 Z-1.55
G81 X74.5851 Y126.4199 Z-1.55
G81 X77.1251 Z-1.55
G81 X74.5851 Y133.4049 Z-1.55
G81 X72.0451 Z-1.55
G81 Y135.9449 Z-1.55
G81 X82.8401 Y163.2499 Z-1.55
G81 Y165.7899 Z-1.55
G81 X80.3001 Z-1.55
G81 X77.7601 Z-1.55
G81 X75.2201 Z-1.55
G81 X72.6801 Z-1.55
G81 X73.3151 Y169.5999 Z-1.55
G81 X72.6801 Y172.1399 Z-1.55
G81 X60.6151 Y80.0649 Z-1.55
G81 Y75.6199 Z-1.55
G81 X64.4251 Y73.0799 Z-1.55
G81 X70.7751 Y69.2699 Z-1.55
G81 X87.2851 Y67.9999 Z-1.55
G81 Y70.5399 Z-1.55
G81 Y73.0799 Z-1.55
G81 Y75.6199 Z-1.55
G81 Y65.4599 Z-1.55
G81 X89.8251 Y60.3799 Z-1.55
G81 Y57.8399 Z-1.55
G81 Y55.2999 Z-1.55
G81 Y52.7599 Z-1.55
G81 Y50.2199 Z-1.55
G81 Y47.6799 Z-1.55
G81 Y45.1399 Z-1.55
G81 Y42.5999 Z-1.55
G81 Y40.0599 Z-1.55
G81 Y37.5199 Z-1.55
G81 Y34.9799 Z-1.55
G81 Y32.4399 Z-1.55
G81 Y29.8999 Z-1.55
G81 Y27.3599 Z-1.55
G81 Y24.8199 Z-1.55
G81 Y22.2799 Z-1.55
G81 X79.6651 Z-1.55
G81 Y24.8199 Z-1.55
G81 Y27.3599 Z-1.55
G81 Y29.8999 Z-1.55
G81 X75.2201 Y51.4899 Z-1.55
G81 X73.3151 Y52.7599 Z-1.55
G81 X54.2651 Y76.8899 Z-1.55
G80
G0 Z3.0
M5
M30
