( Made using CamBam - http://www.cambam.co.uk )
( midi_organ_v0.2_mm.gcode.all 6/4/2014 11:53:06 PM )
( T0 : 0.0 )
G21 G90 G64 G40
G0 Z3.0
( T0 : 0.0 )
T0 M6
( flip )
G17
M3 S1000
G0 X103.0 Y3.0
G0 Z1.0
G1 F300.0 Z-0.6
G1 Y43.0
G1 X101.0
G1 Y86.0
G1 X103.0
G1 Y160.0
G1 X101.0
G1 Y205.0
G1 X68.0
G1 Y203.0
G1 X42.0
G1 Y205.0
G1 X17.0
G1 Y203.0
G1 X-1.0
G1 Y160.0
G1 X1.0
G1 Y86.0
G1 X-1.0
G1 Y43.0
G1 X1.0
G1 Y1.0
G1 X21.0
G1 Y3.0
G1 X38.0
G1 Y1.0
G1 X72.0
G1 Y3.0
G1 X103.0
G1 Z-1.2
G1 Y43.0
G1 X101.0
G1 Y86.0
G1 X103.0
G1 Y160.0
G1 X101.0
G1 Y205.0
G1 X68.0
G1 Y203.0
G1 X42.0
G1 Y205.0
G1 X17.0
G1 Y203.0
G1 X-1.0
G1 Y160.0
G1 X1.0
G1 Y86.0
G1 X-1.0
G1 Y43.0
G1 X1.0
G1 Y1.0
G1 X21.0
G1 Y3.0
G1 X38.0
G1 Y1.0
G1 X72.0
G1 Y3.0
G1 X103.0
G1 Z-1.55
G1 Y43.0
G1 X101.0
G1 Y86.0
G1 X103.0
G1 Y160.0
G1 X101.0
G1 Y205.0
G1 X68.0
G1 Y203.0
G1 X42.0
G1 Y205.0
G1 X17.0
G1 Y203.0
G1 X-1.0
G1 Y160.0
G1 X1.0
G1 Y86.0
G1 X-1.0
G1 Y43.0
G1 X1.0
G1 Y1.0
G1 X21.0
G1 Y3.0
G1 X38.0
G1 Y1.0
G1 X72.0
G1 Y3.0
G1 X103.0
G0 Z3.0
M5
M30
