( Made using CamBam - http://www.cambam.co.uk )
( midi_out_connector.gcode.all 6/5/2014 2:10:07 PM )
( T0 : 0.0 )
G21 G90 G64 G40
G0 Z3.0
( T0 : 0.0 )
T0 M6
( 0.9 )
G17
M3 S1000
G0 X26.26 Y68.8
G98
G81 X26.26 Y68.8 Z-1.55 R3.0 F300.0
G81 Y71.34 Z-1.55
G81 Y73.88 Z-1.55
G81 X33.88 Z-1.55
G81 Y71.34 Z-1.55
G81 Y68.8 Z-1.55
G81 Y45.88 Z-1.55
G81 Y43.34 Z-1.55
G81 Y40.8 Z-1.55
G81 X26.26 Z-1.55
G81 Y43.34 Z-1.55
G81 Y45.88 Z-1.55
G81 Y17.88 Z-1.55
G81 Y15.34 Z-1.55
G81 Y12.8 Z-1.55
G81 X33.88 Z-1.55
G81 Y15.34 Z-1.55
G81 Y17.88 Z-1.55
G80
G0 Z3.0
M5
M30
