( Made using CamBam - http://www.cambam.co.uk )
( midi_organ_v0.2_mm.gcode.all 6/4/2014 11:53:58 PM )
( T0 : 0.0 )
G21 G90 G64 G40
G0 Z3.0
( T0 : 0.0 )
T0 M6
( top )
G17
M3 S1000
G0 X79.3263 Y73.5095
G0 Z1.275
G1 F300.0 Z-0.125
G1 Y68.0805
G2 X79.0399 Y67.794 I-0.2863 J-0.0001
G2 X78.7535 Y68.0805 I0.0 J0.2864
G1 Y73.5095
G2 X79.0399 Y73.7959 I0.2866 J-0.0001
G2 X79.3263 Y73.5095 I0.0002 J-0.2862
G0 Z3.0
G0 X80.8244 Y71.6841
G0 Z1.275
G1 Z-0.125
G1 X83.2877 Y73.7057
G2 X83.5919 Y73.7433 I0.1818 J-0.2219
G2 X83.7558 Y73.4843 I-0.1227 J-0.2589
G1 Y68.1055
G2 X83.5919 Y67.8467 I-0.2864 J0.0
G2 X83.2877 Y67.884 I-0.1225 J0.2595
G1 X80.0107 Y70.5736
G2 X79.9113 Y70.7949 I0.1851 J0.2162
G2 X80.0107 Y71.0163 I0.2844 J0.0053
G1 X80.8244 Y71.6841
G0 Z3.0
G0 X78.2263 Y70.7991
G0 Z1.275
G1 Z-0.125
G2 X78.2416 Y70.7072 I-0.2717 J-0.0926
G2 X77.9559 Y70.4208 I-0.2861 J-0.0003
G1 X75.6936 Y70.4147
G1 X75.6974 Y70.3305
G1 X75.7056 Y70.2045
G1 X75.7176 Y70.0788
G3 X77.4997 Y66.6498 I5.3671 J0.6118
G3 X81.1119 Y65.277 I3.6044 J4.0454
G3 X84.95 Y66.8692 I0.0037 J5.4132
G3 X86.5425 Y70.7073 I-3.8197 J3.8342
G2 X86.8289 Y70.9937 I0.2865 J-0.0001
G2 X87.1153 Y70.7073 I0.0 J-0.2865
G2 X85.3549 Y66.4643 I-5.9846 J-0.0037
G2 X81.1119 Y64.7041 I-4.2393 J4.2249
G2 X77.1185 Y66.2222 I-0.0076 J5.9917
G2 X75.1485 Y70.0131 I3.9654 J4.468
G2 X75.1153 Y70.7004 I6.0339 J0.6358
G2 X75.401 Y70.9868 I0.2862 J0.0003
G1 X77.9545 Y70.9936
G2 X78.2263 Y70.7991 I0.0001 J-0.2871
G0 Z3.0
G0 Y75.9524
G0 Z1.275
G1 Z-0.125
G1 X80.5067
G1 Y77.269
G1 X78.5304
G1 Y78.756
G1 X80.5067
G1 Y80.0725
G1 X75.5287
G1 Y78.756
G1 X77.3824
G1 Y77.269
G1 X75.5287
G1 Y75.9524
G1 X78.2263
G0 Z3.0
G0 X82.022 Y76.0
G0 Z1.275
G1 Z-0.125
G1 X87.0
G1 Y79.2928
G1 X85.898
G1 Y77.3166
G1 X85.0084
G1 Y78.9404
G1 X83.9064
G1 Y77.3166
G1 X83.1241
G1 Y79.2162
G1 X82.022
G1 Y76.0
G0 Z3.0
G0 Y80.4297
G0 Z1.275
G1 Z-0.125
G1 X87.0
G1 Y83.6306
G1 X85.898
G1 Y81.7463
G1 X82.022
G1 Y80.4297
G0 Z3.0
G0 X80.1163 Y81.9841
G0 Z1.275
G1 Z-0.125
G3 X80.3639 Y82.3696 I-1.5724 J1.2825
G3 X80.5432 Y82.8923 I-2.06 J0.9984
G3 X80.5987 Y83.442 I-2.7437 J0.5546
G3 X80.5547 Y83.9335 I-2.5576 J0.019
G3 X80.2384 Y84.7334 I-2.1394 J-0.3835
G3 X79.8032 Y85.2073 I-1.6922 J-1.1173
G3 X79.3953 Y85.463 I-1.4047 J-1.7875
G3 X78.7115 Y85.6883 I-1.2138 J-2.5329
G3 X77.9946 Y85.7546 I-0.6978 J-3.6354
G3 X77.0395 Y85.6293 I-0.0349 J-3.4341
G3 X76.3741 Y85.3278 I0.6541 J-2.3288
G3 X75.66 Y84.5068 I1.0943 J-1.673
G3 X75.4892 Y83.9868 I2.0664 J-0.9666
G3 X75.4367 Y83.442 I2.5409 J-0.5196
G1 X75.4392 Y83.3197
G3 X75.4989 Y82.8494 I2.4634 J0.0737
G3 X75.8238 Y82.0894 I2.0853 J0.4421
G3 X76.2504 Y81.6417 I1.6214 J1.1178
G3 X77.0804 Y81.2421 I1.4282 J1.9046
G3 X77.3056 Y81.1905 I0.5842 J2.0306
G3 X77.6486 Y81.1436 I0.5837 J2.9916
G1 X77.8214 Y81.1325
G3 X77.9946 Y81.129 I0.1746 J4.2752
G3 X78.9573 Y81.2541 I0.0275 J3.5548
G3 X79.6304 Y81.5529 I-0.6582 J2.3901
G3 X80.1163 Y81.9841 I-1.0865 J1.7138
G0 Z3.0
G0 X79.2286 Y82.8642
G0 Z1.275
G1 Z-0.125
G2 X79.0466 Y82.7204 I-0.6816 J0.6758
G2 X78.537 Y82.5275 I-0.7975 J1.3375
G2 X77.9946 Y82.4762 I-0.5229 J2.6337
G2 X77.5256 Y82.5144 I-0.0166 J2.6947
G2 X77.1785 Y82.6108 I0.2879 J1.7095
G2 X76.9369 Y82.7391 I0.4832 J1.2017
G2 X76.6627 Y83.0432 I0.4774 J0.706
G2 X76.5695 Y83.442 I0.7684 J0.3899
G2 X76.7046 Y83.9113 I0.8368 J0.0132
G2 X76.9632 Y84.1623 I0.7457 J-0.5097
G2 X77.2035 Y84.2826 I0.6855 J-1.0693
G2 X77.5935 Y84.3801 I0.6228 J-1.6609
G2 X77.9946 Y84.4074 I0.3875 J-2.7365
G2 X78.4716 Y84.3686 I0.0104 J-2.8198
G2 X78.825 Y84.2725 I-0.3577 J-2.0139
G2 X79.073 Y84.1463 I-0.5384 J-1.3651
G2 X79.3625 Y83.846 I-0.486 J-0.7583
G2 X79.4659 Y83.442 I-0.6986 J-0.394
G2 X79.3173 Y82.9673 I-0.7973 J-0.0109
G2 X79.2286 Y82.8642 I-0.7703 J0.5727
G0 Z3.0
G0 X82.022 Y84.5387
G0 Z1.275
G1 Z-0.125
G1 X87.0
G1 Y87.8315
G1 X85.898
G1 Y85.8553
G1 X85.0084
G1 Y87.4791
G1 X83.9064
G1 Y85.8553
G1 X83.1241
G1 Y87.7549
G1 X82.022
G1 Y84.5387
G0 Z3.0
G0 X80.5067 Y86.7973
G0 Z1.275
G1 Z-0.125
G1 Y88.1139
G1 X78.8369
G1 Y88.6198
G1 X80.5067 Y89.478
G1 Y90.9481
G1 X78.5768 Y89.8687
G3 X78.321 Y90.2197 I-1.3867 J-0.7416
G3 X77.7757 Y90.5687 I-1.0193 J-0.992
G3 X77.1366 Y90.6724 I-0.6169 J-1.7814
G3 X76.769 Y90.642 I-0.0064 J-2.1612
G3 X76.1745 Y90.399 I0.2256 J-1.4006
G3 X75.8484 Y90.0502 I0.7517 J-1.0297
G3 X75.6901 Y89.7309 I1.4944 J-0.9395
G3 X75.5633 Y89.213 I2.3401 J-0.8477
G3 X75.5287 Y88.6811 I4.1824 J-0.5393
G1 Y86.7973
G1 X80.5067
G0 Z3.0
G0 X82.022 Y88.9684
G0 Z1.275
G1 Z-0.125
G1 X87.0
G1 Y90.285
G1 X85.7594
G1 X85.0853 Y90.7599
G1 X87.0 Y91.8629
G1 Y93.303
G1 X84.0439 Y91.5259
G1 X82.022 Y93.0119
G1 Y91.5719
G1 X83.8754 Y90.3156
G1 Y90.285
G1 X82.022
G1 Y88.9684
G0 Z3.0
G0 X80.5067 Y92.6183
G0 Z1.275
G1 Z-0.125
G1 Y94.2113
G1 X75.5287 Y95.6816
G1 Y94.3339
G1 X77.7038 Y93.8286
G1 X77.8023 Y93.8047
G1 X78.1723 Y93.7188
G1 X78.7282 Y93.5941
G1 X78.867 Y93.5621
G2 X79.2821 Y93.4609 I-2.3716 J-10.631
G1 Y93.4303
G2 X78.8884 Y93.3352 I-3.4828 J13.5499
G1 X78.2952 Y93.2034
G1 X77.999 Y93.1357
G1 X77.7042 Y93.0627
G1 X75.5287 Y92.5417
G1 Y91.1479
G1 X80.5067 Y92.6183
G0 Z3.0
G0 X82.022 Y93.6952
G0 Z1.275
G1 Z-0.125
G1 X83.1241
G1 Y95.0128
G1 X87.0
G1 Y96.3293
G1 X83.1241
G1 Y97.6468
G1 X82.022
G1 Y93.6952
G0 Z3.0
G0 X80.5067 Y95.5901
G0 Z1.275
G1 Z-0.125
G1 Y96.9379
G1 X79.4497 Y97.183
G1 Y98.5769
G1 X80.5067 Y98.8219
G1 Y100.2158
G1 X75.5287 Y98.6994
G1 Y97.1064
G1 X80.5067 Y95.5901
G0 Z3.0
G0 X78.4318 Y97.4205
G0 Z1.275
G1 Z-0.125
G1 X78.0868 Y97.5048
G3 X77.2993 Y97.6886 I-6.7639 J-27.2021
G3 X76.9038 Y97.7732 I-3.52 J-15.4687
G1 X76.5082 Y97.8568
G1 Y97.8875
G1 X76.9027 Y97.9804
G1 X77.4956 Y98.114
G1 X77.7917 Y98.1825
G1 X78.0868 Y98.2551
G1 X78.4318 Y98.3394
G1 Y97.4205
G0 Z3.0
G0 X76.6308 Y100.1769
G0 Z1.275
G1 Z-0.125
G1 Y101.4943
G1 X80.5067
G1 Y102.8109
G1 X76.6308
G1 Y104.1284
G1 X75.5287
G1 Y100.1769
G1 X76.6308
G0 Z3.0
G0 X82.022
G0 Z1.275
G1 Z-0.125
G1 Y98.4943
G1 X87.0
G1 Y99.8108
G1 X85.3301
G1 Y100.3167
G1 X87.0 Y101.1752
G1 Y102.645
G1 X85.07 Y101.5655
G3 X84.8144 Y101.9166 I-1.4143 J-0.7612
G3 X84.2691 Y102.2656 I-1.0165 J-0.9878
G3 X83.63 Y102.3692 I-0.6186 J-1.7927
G3 X83.2623 Y102.3388 I-0.0069 J-2.1547
G3 X82.6679 Y102.0958 I0.2251 J-1.3994
G3 X82.3418 Y101.7471 I0.7504 J-1.0286
G3 X82.1835 Y101.4278 I1.492 J-0.9384
G3 X82.0566 Y100.91 I2.3384 J-0.8473
G3 X82.022 Y100.378 I4.1686 J-0.5384
G1 Y100.1769
G0 Z3.0
G0 X83.0628
G0 Z1.275
G1 Z-0.125
G1 Y100.2861
G1 X83.0664 Y100.4229
G2 X83.0981 Y100.6633 I1.4872 J-0.0738
G2 X83.1607 Y100.8382 I0.694 J-0.1498
G2 X83.3585 Y101.0312 I0.3814 J-0.193
G2 X83.63 Y101.0833 I0.2526 J-0.583
G2 X83.9208 Y101.0292 I0.0159 J-0.7231
G2 X84.2182 Y100.7137 I-0.2199 J-0.5053
G2 X84.274 Y100.5033 I-0.8168 J-0.3293
G1 X84.281 Y100.4493
G2 X84.2894 Y100.2861 I-1.1666 J-0.1414
G1 Y99.8108
G1 X83.0628
G1 Y100.1769
G0 Z3.0
G0 X83.7202 Y103.2818
G0 Z1.275
G1 Z-0.125
G3 X83.7989 Y103.2667 I0.4369 J2.0637
G3 X84.1419 Y103.2198 I0.5825 J2.9834
G1 X84.3147 Y103.2087
G3 X84.4878 Y103.2052 I0.1737 J4.2306
G3 X85.4504 Y103.3302 I0.027 J3.5584
G3 X86.1235 Y103.629 I-0.6571 J2.3882
G3 X86.8572 Y104.4455 I-1.0834 J1.7113
G3 X87.0364 Y104.9682 I-2.0488 J0.9948
G3 X87.0919 Y105.5178 I-2.7289 J0.5532
G3 X87.048 Y106.0094 I-2.5557 J0.0193
G3 X86.7318 Y106.8093 I-2.1362 J-0.382
G3 X86.2967 Y107.2832 I-1.6877 J-1.1127
G3 X85.8888 Y107.539 I-1.4013 J-1.7813
G3 X85.2049 Y107.7645 I-1.2134 J-2.5307
G3 X84.4878 Y107.8308 I-0.6984 J-3.6398
G3 X83.5327 Y107.7054 I-0.0327 J-3.4493
G3 X82.8673 Y107.4038 I0.6604 J-2.3418
G3 X82.1533 Y106.5828 I1.0885 J-1.6676
G3 X81.9826 Y106.0627 I2.0698 J-0.9676
G3 X81.9301 Y105.5178 I2.5431 J-0.5199
G1 X81.9326 Y105.3956
G3 X81.9923 Y104.9253 I2.4728 J0.0751
G3 X82.3172 Y104.1655 I2.0906 J0.4447
G3 X82.7439 Y103.7178 I1.6249 J1.1214
G3 X83.5738 Y103.3183 I1.4284 J1.9055
G3 X83.7202 Y103.2818 I0.5833 J2.0272
G0 Z3.0
G0 X83.9755 Y104.5983
G0 Z1.275
G1 Z-0.125
G2 X83.6718 Y104.6868 I0.3278 J1.69
G2 X83.4302 Y104.8151 I0.4789 J1.194
G2 X83.156 Y105.1191 I0.4768 J0.7056
G2 X83.0628 Y105.5178 I0.7712 J0.3905
G2 X83.1978 Y105.9872 I0.8352 J0.0139
G2 X83.4563 Y106.2383 I0.7417 J-0.505
G2 X83.6967 Y106.3587 I0.6841 J-1.0656
G2 X84.0867 Y106.4563 I0.6238 J-1.6636
G2 X84.4878 Y106.4836 I0.3895 J-2.7635
G2 X84.965 Y106.4447 I0.0113 J-2.8086
G2 X85.3184 Y106.3486 I-0.3578 J-2.0131
G2 X85.5664 Y106.2224 I-0.5447 J-1.3767
G2 X85.8558 Y105.922 I-0.4892 J-0.7611
G2 X85.9592 Y105.5178 I-0.701 J-0.3946
G2 X85.8105 Y105.0432 I-0.7958 J-0.0113
G2 X85.5398 Y104.7963 I-0.7396 J0.5394
G2 X85.0302 Y104.6036 I-0.7987 J1.3416
G2 X84.4878 Y104.5523 I-0.523 J2.6371
G2 X84.0189 Y104.5905 I-0.0174 J2.6866
G2 X83.9755 Y104.5983 I0.2844 J1.6978
G0 Z3.0
G0 Y108.8732
G0 Z1.275
G1 Z-0.125
G1 X87.0
G1 Y110.1285
G1 X85.5603
G3 X84.6085 Y110.0689 I0.1099 J-9.3949
G1 X84.1346 Y110.0153
G1 X83.6609 Y109.9603
G1 Y109.991
G1 X84.7713 Y110.4659
G1 X87.0 Y111.5695
G1 Y112.9168
G1 X82.022
G1 Y111.6614
G1 X83.4617
G1 X83.581 Y111.6627
G1 X83.8044 Y111.671
G1 X83.9021 Y111.6766
G1 X84.085 Y111.6897
G1 X84.4046 Y111.7191
G1 X84.644 Y111.7449
G1 X84.8234 Y111.7657
G3 X85.0923 Y111.7981 I-1.8926 J16.8605
G1 X85.3611 Y111.83
G1 Y111.7993
G1 X84.243 Y111.3244
G1 X82.022 Y110.2208
G1 Y108.8732
G1 X83.9755
G0 Z3.0
G0 Y114.1918
G0 Z1.275
G1 Z-0.125
G1 X87.0
G1 Y115.5083
G1 X82.022
G1 Y114.1918
G1 X83.9755
G0 Z3.0
G0 Y116.7707
G0 Z1.275
G1 Z-0.125
G1 X87.0
G1 Y118.0873
G1 X85.7594
G1 X85.0853 Y118.5621
G1 X87.0 Y119.6652
G1 Y121.1053
G1 X84.0439 Y119.3282
G1 X82.022 Y120.8142
G1 Y119.3741
G1 X83.8754 Y118.1179
G1 Y118.0873
G1 X82.022
G1 Y116.7707
G1 X83.9755
G0 Z3.0
G0 X85.5558 Y121.9582
G0 Z1.275
G1 Z-0.125
G1 X87.0 Y121.5182
G1 Y122.8661
G1 X85.9429 Y123.1113
G1 Y124.505
G1 X87.0 Y124.7502
G1 Y126.144
G1 X82.022 Y124.6276
G1 Y123.0347
G1 X85.5558 Y121.9582
G0 Z3.0
G0 X84.9251 Y123.3487
G0 Z1.275
G1 Z-0.125
G1 X84.5801 Y123.433
G1 X84.384 Y123.482
G1 X84.0394 Y123.5624
G1 X83.5208 Y123.6755
G1 X83.0015 Y123.7853
G1 Y123.816
G1 X83.3959 Y123.9089
G1 X83.9889 Y124.0424
G1 X84.285 Y124.1108
G3 X84.5801 Y124.1833 I-11.552 J47.6529
G1 X84.9251 Y124.2676
G1 Y123.3487
G0 Z3.0
G0 X85.708 Y129.5333
G0 Z1.275
G1 Z-0.125
G1 X85.9197
G1 X86.2583 Y129.618
G1 X86.7663 Y130.126
G1 X86.851 Y130.4647
G1 Y130.6763
G1 X86.7663 Y131.015
G1 X86.2583 Y131.523
G1 X85.9197 Y131.6077
G1 X85.6233
G1 X85.3693 Y131.523
G1 X84.8613 Y131.015
G1 X84.7767 Y130.6763
G1 Y130.4647
G1 X84.8613 Y130.126
G1 X85.3693 Y129.618
G1 X85.708 Y129.5333
G0 Z3.0
G0 X87.2743
G0 Z1.275
G1 Z-0.125
G1 X89.391
G1 Y131.65
G1 X87.2743
G1 Y129.5333
G0 Z3.0
G0 X83.041 Y130.4647
G0 Z1.275
G1 Z-0.125
G1 Y130.6763
G1 X82.9563 Y131.015
G1 X82.4483 Y131.523
G1 X82.1097 Y131.6077
G1 X81.8133
G1 X81.5593 Y131.523
G1 X81.0513 Y131.015
G1 X80.9667 Y130.6763
G1 Y130.4647
G1 X81.0513 Y130.126
G1 X81.5593 Y129.618
G1 X81.898 Y129.5333
G1 X82.1097
G1 X82.4483 Y129.618
G1 X82.9563 Y130.126
G1 X83.041 Y130.4647
G0 Z3.0
G0 X80.501
G0 Z1.275
G1 Z-0.125
G1 Y131.65
G1 X78.3843
G1 Y129.5333
G1 X80.501
G1 Y130.4647
G0 Z3.0
G0 Y134.4863
G0 Z1.275
G1 Z-0.125
G1 X82.533
G1 Y136.857
G1 X80.1623
G1 Y134.4863
G1 X80.501
G0 Z3.0
G0 X82.787 Y135.333
G0 Z1.275
G1 Z-0.125
G1 X82.9987 Y134.9097
G1 X83.2527 Y134.698
G1 X83.5913 Y134.5287
G1 X84.2263
G1 X84.565 Y134.698
G1 X84.819 Y134.9097
G1 X85.0307 Y135.333
G1 Y135.968
G1 X84.819 Y136.3913
G1 X84.565 Y136.603
G1 X84.2263 Y136.7723
G1 X83.7183 Y136.8147
G1 X83.422 Y136.6877
G1 X83.0833 Y136.476
G1 X82.8293 Y136.095
G1 X82.7447 Y135.7563
G1 X82.787 Y135.333
G0 Z3.0
G0 X85.3019 Y135.5845
G0 Z1.275
G1 Z-0.125
G1 X85.327 Y135.333
G1 X85.5387 Y134.9097
G1 X85.7927 Y134.698
G1 X86.1313 Y134.5287
G1 X86.7663
G1 X87.105 Y134.698
G1 X87.359 Y134.9097
G1 X87.5707 Y135.333
G1 Y135.968
G1 X87.359 Y136.3913
G1 X87.105 Y136.603
G1 X86.7663 Y136.7723
G1 X86.2583 Y136.8147
G1 X85.962 Y136.6877
G1 X85.6233 Y136.476
G1 X85.3693 Y136.095
G1 X85.2847 Y135.7563
G1 X85.3019 Y135.5845
G0 Z3.0
G0 X86.0467 Y137.492
G0 Z1.275
G1 Z-0.125
G1 X86.3853 Y137.4073
G1 X86.597
G1 X86.9357 Y137.492
G1 X87.4437 Y138.0
G1 X87.5283 Y138.3387
G1 Y138.5503
G1 X87.4437 Y138.889
G1 X86.978 Y139.3547
G1 X86.9357 Y141.175
G1 X79.0617 Y149.049
G1 X72.1613 Y149.0913
G1 X71.6957 Y149.557
G1 X71.357 Y149.6417
G1 X71.0607
G1 X70.8067 Y149.557
G1 X70.2987 Y149.049
G1 X70.214 Y148.7103
G1 Y148.4987
G1 X70.2987 Y148.16
G1 X70.8067 Y147.652
G1 X71.1453 Y147.5673
G1 X71.357
G1 X71.6957 Y147.652
G1 X72.1613 Y148.1177
G1 X78.723
G1 X86.0043 Y140.794
G1 Y139.3547
G1 X85.5387 Y138.889
G1 X85.454 Y138.5503
G1 Y138.3387
G1 X85.5387 Y138.0
G1 X86.0467 Y137.492
G0 Z3.0
G0 X84.3957 Y139.397
G0 Z1.275
G1 Z-0.125
G1 X84.9037 Y139.905
G1 X84.9883 Y140.2437
G1 Y140.4553
G1 X84.9037 Y140.794
G1 X84.3957 Y141.302
G1 X84.057 Y141.3867
G1 X83.8453
G1 X83.5067 Y141.302
G1 X83.041 Y140.8363
G1 X78.3843
G1 X77.326 Y141.937
G1 X77.3683 Y142.318
G1 X77.2837 Y142.699
G1 X76.7757 Y143.207
G1 X76.437 Y143.2917
G1 X76.1407
G1 X75.8867 Y143.207
G1 X75.3787 Y142.699
G1 X75.294 Y142.3603
G1 Y142.1487
G1 X75.3787 Y141.81
G1 X75.8867 Y141.302
G1 X76.2677 Y141.2173
G1 X76.6487 Y141.2597
G1 X78.0457 Y139.905
G1 X83.041 Y139.8627
G1 X83.5067 Y139.397
G1 X83.8453 Y139.3123
G1 X84.057
G1 X84.3957 Y139.397
G0 Z3.0
G0 X77.2413 Y145.3237
G0 Z1.275
G1 Z-0.125
G1 X77.453 Y145.747
G1 Y146.382
G1 X77.2413 Y146.8053
G1 X76.9873 Y147.017
G1 X76.6487 Y147.1863
G1 X76.1407 Y147.2287
G1 X75.8443 Y147.1017
G1 X75.5057 Y146.89
G1 X75.2517 Y146.509
G1 X75.167 Y146.1703
G1 X75.2093 Y145.747
G1 X75.421 Y145.3237
G1 X75.675 Y145.112
G1 X76.0137 Y144.9427
G1 X76.6487
G1 X76.9873 Y145.112
G1 X77.2413 Y145.3237
G0 Z3.0
G0 X74.6129 Y143.0238
G0 Z1.275
G1 Z-0.125
G1 X74.4897 Y143.1647
G1 X74.151 Y143.334
G1 X73.643 Y143.3763
G1 X73.4313 Y143.2917
G1 X73.1773 Y143.1647
G1 X72.881 Y142.826
G1 X72.754 Y142.572
G1 Y141.937
G1 X72.881 Y141.683
G1 X73.1773 Y141.3443
G1 X73.516 Y141.175
G1 X74.151
G1 X74.4897 Y141.3443
G1 X74.786 Y141.683
G1 X74.913 Y141.937
G1 Y142.572
G1 X74.786 Y142.826
G1 X74.6129 Y143.0238
G0 Z3.0
G0 X70.4257 Y142.572
G0 Z1.275
G1 Z-0.125
G1 X70.2987 Y142.826
G1 X70.0023 Y143.1647
G1 X69.6637 Y143.334
G1 X69.1557 Y143.3763
G1 X68.944 Y143.2917
G1 X68.69 Y143.1647
G1 X68.3937 Y142.826
G1 X68.2667 Y142.572
G1 Y141.937
G1 X68.3937 Y141.683
G1 X68.69 Y141.3443
G1 X69.0287 Y141.175
G1 X69.6637
G1 X70.0023 Y141.3443
G1 X70.2987 Y141.683
G1 X70.4257 Y141.937
G1 Y142.572
G0 Z3.0
G0 X69.7907 Y145.112
G0 Z1.275
G1 Z-0.125
G1 X70.2987 Y145.62
G1 X70.3833 Y145.9587
G1 Y146.1703
G1 X70.2987 Y146.509
G1 X69.833 Y146.9747
G1 X69.7907 Y148.16
G1 X65.388 Y152.605
G1 Y157.8543
G1 X65.8537 Y158.32
G1 X65.9383 Y158.6587
G1 Y158.8703
G1 X65.8537 Y159.209
G1 X65.388 Y159.6747
G1 Y165.4743
G1 X65.8537 Y165.94
G1 X65.9383 Y166.2787
G1 Y166.4903
G1 X65.8537 Y166.829
G1 X65.3457 Y167.337
G1 X65.007 Y167.4217
G1 X64.7107
G1 X64.4567 Y167.337
G1 X63.9487 Y166.829
G1 X63.864 Y166.4903
G1 Y166.2787
G1 X63.9487 Y165.94
G1 X64.4143 Y165.4743
G1 Y159.6747
G1 X63.9487 Y159.209
G1 X63.864 Y158.8703
G1 Y158.6587
G1 X63.9487 Y158.32
G1 X64.4143 Y157.8543
G1 X64.4567 Y152.224
G1 X68.8593 Y147.779
G1 Y146.9747
G1 X68.3937 Y146.509
G1 X68.309 Y146.1703
G1 Y145.9587
G1 X68.3937 Y145.62
G1 X68.9017 Y145.112
G1 X69.2403 Y145.0273
G1 X69.452
G1 X69.7907 Y145.112
G0 Z3.0
G0 X67.2083
G0 Z1.275
G1 Z-0.125
G1 Y147.1017
G1 X65.134
G1 Y145.0273
G1 X67.2083
G1 Y145.112
G0 Z3.0
G0 X66.6157 Y143.207
G0 Z1.275
G1 Z-0.125
G1 X66.2347 Y143.2917
G1 X65.8113 Y143.2493
G1 X64.118 Y144.985
G1 X64.0757 Y150.7
G1 X61.9167 Y152.859
G1 X58.403 Y152.9013
G1 X58.3607 Y167.21
G1 X56.8367 Y168.734
G1 X50.8253 Y168.7763
G1 X50.656 Y168.6917
G1 X49.386 Y167.3793
G1 X48.9627 Y167.4217
G1 X48.5817 Y167.337
G1 X48.0737 Y166.829
G1 X47.989 Y166.4903
G1 Y166.2787
G1 X48.0737 Y165.94
G1 X48.5817 Y165.432
G1 X48.9203 Y165.3473
G1 X49.132
G1 X49.4707 Y165.432
G1 X49.9787 Y165.94
G1 X50.0633 Y166.321
G1 X50.021 Y166.702
G1 X51.0793 Y167.8027
G1 X56.498
G1 X57.4293 Y166.829
G1 X57.4717 Y152.224
G1 X57.7257 Y151.97
G1 X61.578 Y151.9277
G1 X63.1443 Y150.319
G1 X63.1867 Y144.604
G1 X65.1763 Y142.572
G1 X65.134 Y142.191
G1 X65.2187 Y141.81
G1 X65.7267 Y141.302
G1 X66.0653 Y141.2173
G1 X66.277
G1 X66.6157 Y141.302
G1 X67.1237 Y141.81
G1 X67.2083 Y142.1487
G1 Y142.3603
G1 X67.1237 Y142.699
G1 X66.6157 Y143.207
G0 Z3.0
G0 X62.1707
G0 Z1.275
G1 Z-0.125
G1 Y144.604
G1 X60.0117
G1 Y142.445
G1 X62.1707
G1 Y143.207
G0 Z3.0
G0 X61.5357 Y145.112
G0 Z1.275
G1 Z-0.125
G1 X62.0437 Y145.62
G1 X62.1283 Y145.9587
G1 Y146.1703
G1 X62.0437 Y146.509
G1 X61.5357 Y147.017
G1 X61.197 Y147.1017
G1 X60.9007
G1 X60.6467 Y147.017
G1 X60.1387 Y146.509
G1 X60.054 Y146.1703
G1 Y145.9587
G1 X60.1387 Y145.62
G1 X60.6467 Y145.112
G1 X60.9853 Y145.0273
G1 X61.197
G1 X61.5357 Y145.112
G0 Z3.0
G0 X59.5037 Y143.969
G0 Z1.275
G1 Z-0.125
G1 X58.9957 Y144.477
G1 X58.657 Y144.5617
G1 X58.3607
G1 X58.1067 Y144.477
G1 X57.5987 Y143.969
G1 X57.514 Y143.6303
G1 Y143.4187
G1 X57.5987 Y143.08
G1 X58.0643 Y142.6143
G1 Y139.3547
G1 X57.5987 Y138.889
G1 X57.514 Y138.5503
G1 Y138.3387
G1 X57.5987 Y138.0
G1 X58.1067 Y137.492
G1 X58.4453 Y137.4073
G1 X58.657
G1 X58.9957 Y137.492
G1 X59.5037 Y138.0
G1 X59.5883 Y138.3387
G1 Y138.5503
G1 X59.5037 Y138.889
G1 X59.038 Y139.3547
G1 Y142.6143
G1 X59.5037 Y143.08
G1 X59.5883 Y143.4187
G1 Y143.6303
G1 X59.5037 Y143.969
G0 Z3.0
G0 X57.2812 Y141.7465
G0 Z1.275
G1 Z-0.125
G1 X57.0907 Y141.937
G1 X56.752 Y142.0217
G1 X56.4557
G1 X56.2017 Y141.937
G1 X55.6937 Y141.429
G1 X55.609 Y141.0903
G1 Y140.8787
G1 X55.6937 Y140.54
G1 X56.1593 Y140.0743
G1 Y131.9463
G1 X38.6757 Y131.904
G1 X35.5007 Y128.7713
G1 X23.4357 Y128.729
G1 X19.3717 Y124.665
G1 Y62.054
G1 X19.6257 Y61.8
G1 X31.0557 Y61.7577
G1 X35.5007 Y57.355
G1 X48.751 Y57.3127
G1 X49.2167 Y56.847
G1 X49.5553 Y56.7623
G1 X49.767
G1 X50.1057 Y56.847
G1 X50.6137 Y57.355
G1 X50.6983 Y57.6937
G1 Y57.9053
G1 X50.6137 Y58.244
G1 X50.1057 Y58.752
G1 X49.767 Y58.8367
G1 X49.5553
G1 X49.2167 Y58.752
G1 X48.751 Y58.2863
G1 X35.8817
G1 X31.4367 Y62.689
G1 X20.303 Y62.7313
G1 Y124.3263
G1 X23.8167 Y127.7977
G1 X35.8817 Y127.84
G1 X39.0567 Y130.9727
G1 X56.8367 Y131.015
G1 X57.0907 Y131.269
G1 X57.133 Y140.0743
G1 X57.5987 Y140.54
G1 X57.6833 Y140.8787
G1 Y141.0903
G1 X57.5987 Y141.429
G1 X57.2812 Y141.7465
G0 Z3.0
G0 X55.1147 Y141.2049
G0 Z1.275
G1 Z-0.125
G1 X55.0587 Y141.429
G1 X54.5507 Y141.937
G1 X54.212 Y142.0217
G1 X53.9157
G1 X53.6617 Y141.937
G1 X53.1537 Y141.429
G1 X53.069 Y141.0903
G1 Y140.8787
G1 X53.1537 Y140.54
G1 X53.6617 Y140.032
G1 X54.0003 Y139.9473
G1 X54.212
G1 X54.5507 Y140.032
G1 X55.0587 Y140.54
G1 X55.1433 Y140.8787
G1 Y141.0903
G1 X55.1147 Y141.2049
G0 Z3.0
G0 X54.5507 Y142.572
G0 Z1.275
G1 Z-0.125
G1 X55.0587 Y143.08
G1 X55.1433 Y143.4187
G1 Y143.6303
G1 X55.0587 Y143.969
G1 X54.5507 Y144.477
G1 X54.212 Y144.5617
G1 X53.9157
G1 X53.6617 Y144.477
G1 X53.1537 Y143.969
G1 X53.069 Y143.6303
G1 Y143.4187
G1 X53.1537 Y143.08
G1 X53.6617 Y142.572
G1 X54.0003 Y142.4873
G1 X54.212
G1 X54.5507 Y142.572
G0 Z3.0
G0 X54.212 Y145.0273
G0 Z1.275
G1 Z-0.125
G1 X54.5507 Y145.112
G1 X55.0587 Y145.62
G1 X55.1433 Y145.9587
G1 Y146.1703
G1 X55.0587 Y146.509
G1 X54.5507 Y147.017
G1 X54.212 Y147.1017
G1 X53.9157
G1 X53.6617 Y147.017
G1 X53.1537 Y146.509
G1 X53.069 Y146.1703
G1 Y145.9587
G1 X53.1537 Y145.62
G1 X53.6617 Y145.112
G1 X54.0003 Y145.0273
G1 X54.212
G0 Z3.0
G0 Y147.5673
G0 Z1.275
G1 Z-0.125
G1 X54.5507 Y147.652
G1 X55.0587 Y148.16
G1 X55.1433 Y148.4987
G1 Y148.7103
G1 X55.0587 Y149.049
G1 X54.5507 Y149.557
G1 X54.212 Y149.6417
G1 X53.9157
G1 X53.6617 Y149.557
G1 X53.1537 Y149.049
G1 X53.069 Y148.7103
G1 Y148.4987
G1 X53.1537 Y148.16
G1 X53.6617 Y147.652
G1 X54.0003 Y147.5673
G1 X54.212
G0 Z3.0
G0 X52.7515 Y149.0278
G0 Z1.275
G1 Z-0.125
G1 X53.1537 Y149.43
G1 X53.2383 Y149.7687
G1 Y149.9803
G1 X53.1537 Y150.319
G1 X52.6457 Y150.827
G1 X52.307 Y150.9117
G1 X52.0953
G1 X51.7567 Y150.827
G1 X51.291 Y150.3613
G1 X49.3013
G1 X48.8357 Y150.827
G1 X48.497 Y150.9117
G1 X48.2007
G1 X47.9467 Y150.827
G1 X47.4387 Y150.319
G1 X47.354 Y149.9803
G1 Y149.7687
G1 X47.4387 Y149.43
G1 X47.9467 Y148.922
G1 X48.2853 Y148.8373
G1 X48.497
G1 X48.8357 Y148.922
G1 X49.3013 Y149.3877
G1 X51.291
G1 X51.7567 Y148.922
G1 X52.0953 Y148.8373
G1 X52.307
G1 X52.6457 Y148.922
G1 X52.7515 Y149.0278
G0 Z3.0
G0 X53.6617 Y150.192
G0 Z1.275
G1 Z-0.125
G1 X54.0003 Y150.1073
G1 X54.212
G1 X54.5507 Y150.192
G1 X55.0587 Y150.7
G1 X55.1433 Y151.0387
G1 Y151.2503
G1 X55.0587 Y151.589
G1 X54.5507 Y152.097
G1 X54.212 Y152.1817
G1 X53.9157
G1 X53.6617 Y152.097
G1 X53.1537 Y151.589
G1 X53.069 Y151.2503
G1 Y151.0387
G1 X53.1537 Y150.7
G1 X53.6617 Y150.192
G0 Z3.0
G0 X54.0003 Y152.6473
G0 Z1.275
G1 Z-0.125
G1 X54.212
G1 X54.5507 Y152.732
G1 X55.0587 Y153.24
G1 X55.1433 Y153.5787
G1 Y153.7903
G1 X55.0587 Y154.129
G1 X54.5507 Y154.637
G1 X54.212 Y154.7217
G1 X53.9157
G1 X53.6617 Y154.637
G1 X53.1537 Y154.129
G1 X53.069 Y153.7903
G1 Y153.5787
G1 X53.1537 Y153.24
G1 X53.6617 Y152.732
G1 X54.0003 Y152.6473
G0 Z3.0
G0 Y155.1873
G0 Z1.275
G1 Z-0.125
G1 X54.212
G1 X54.5507 Y155.272
G1 X55.0587 Y155.78
G1 X55.1433 Y156.1187
G1 Y156.3303
G1 X55.0587 Y156.669
G1 X54.5507 Y157.177
G1 X54.212 Y157.2617
G1 X53.9157
G1 X53.6617 Y157.177
G1 X53.1537 Y156.669
G1 X53.069 Y156.3303
G1 Y156.1187
G1 X53.1537 Y155.78
G1 X53.6617 Y155.272
G1 X54.0003 Y155.1873
G0 Z3.0
G0 Y157.7273
G0 Z1.275
G1 Z-0.125
G1 X54.212
G1 X54.5507 Y157.812
G1 X55.0587 Y158.32
G1 X55.1433 Y158.6587
G1 Y158.8703
G1 X55.0587 Y159.209
G1 X54.5507 Y159.717
G1 X54.212 Y159.8017
G1 X53.9157
G1 X53.6617 Y159.717
G1 X53.1537 Y159.209
G1 X53.069 Y158.8703
G1 Y158.6587
G1 X53.1537 Y158.32
G1 X53.6617 Y157.812
G1 X54.0003 Y157.7273
G0 Z3.0
G0 Y160.2673
G0 Z1.275
G1 Z-0.125
G1 X54.212
G1 X54.5507 Y160.352
G1 X55.0587 Y160.86
G1 X55.1433 Y161.1987
G1 Y161.4103
G1 X55.0587 Y161.749
G1 X54.5507 Y162.257
G1 X54.212 Y162.3417
G1 X53.9157
G1 X53.6617 Y162.257
G1 X53.1537 Y161.749
G1 X53.069 Y161.4103
G1 Y161.1987
G1 X53.1537 Y160.86
G1 X53.6617 Y160.352
G1 X54.0003 Y160.2673
G0 Z3.0
G0 Y162.8073
G0 Z1.275
G1 Z-0.125
G1 X54.212
G1 X54.5507 Y162.892
G1 X55.0587 Y163.4
G1 X55.1433 Y163.7387
G1 Y163.9503
G1 X55.0587 Y164.289
G1 X54.5507 Y164.797
G1 X54.212 Y164.8817
G1 X53.9157
G1 X53.6617 Y164.797
G1 X53.1537 Y164.289
G1 X53.069 Y163.9503
G1 Y163.7387
G1 X53.1537 Y163.4
G1 X53.6617 Y162.892
G1 X54.0003 Y162.8073
G0 Z3.0
G0 Y165.3473
G0 Z1.275
G1 Z-0.125
G1 X54.212
G1 X54.5507 Y165.432
G1 X55.0587 Y165.94
G1 X55.1433 Y166.2787
G1 Y166.4903
G1 X55.0587 Y166.829
G1 X54.5507 Y167.337
G1 X54.212 Y167.4217
G1 X53.9157
G1 X53.6617 Y167.337
G1 X53.1537 Y166.829
G1 X53.069 Y166.4903
G1 Y166.2787
G1 X53.1537 Y165.94
G1 X53.6617 Y165.432
G1 X54.0003 Y165.3473
G0 Z3.0
G0 X52.9843 Y168.988
G0 Z1.275
G1 Z-0.125
G1 X53.4077 Y169.115
G1 X53.9157 Y169.623
G1 X54.0427 Y170.0463
G1 Y170.3427
G1 X53.9157 Y170.766
G1 X53.4077 Y171.274
G1 X52.9843 Y171.401
G1 X52.6457
G1 X52.2647 Y171.274
G1 X51.7567 Y170.766
G1 X51.6297 Y170.3427
G1 Y170.0463
G1 X51.7567 Y169.623
G1 X52.2647 Y169.115
G1 X52.688 Y168.988
G1 X52.9843
G0 Z3.0
G0 X50.8677 Y171.655
G0 Z1.275
G1 Z-0.125
G1 X51.3757 Y172.163
G1 X51.5027 Y172.5863
G1 Y172.8827
G1 X51.3757 Y173.306
G1 X50.8677 Y173.814
G1 X50.4443 Y173.941
G1 X50.1057
G1 X49.7247 Y173.814
G1 X49.2167 Y173.306
G1 X49.0897 Y172.8827
G1 Y172.5863
G1 X49.2167 Y172.163
G1 X49.7247 Y171.655
G1 X50.148 Y171.528
G1 X50.4443
G1 X50.8677 Y171.655
G0 Z3.0
G0 X50.656 Y176.3117
G0 Z1.275
G1 Z-0.125
G1 X51.1217 Y176.5233
G1 X51.5873 Y176.9467
G1 X51.799 Y177.4547
G1 Y178.1743
G1 X51.5873 Y178.6823
G1 X51.1217 Y179.1057
G1 X50.656 Y179.3173
G1 X50.0633 Y179.3597
G1 X49.7247 Y179.2327
G1 X49.386 Y179.0633
G1 X49.005 Y178.64
G1 X48.7933 Y178.1743
G1 Y177.4547
G1 X49.005 Y176.9467
G1 X49.4707 Y176.5233
G1 X49.9363 Y176.3117
G1 X50.656
G0 Z3.0
G0 X45.2373
G0 Z1.275
G1 Z-0.125
G1 Y176.4387
G1 X45.1103 Y176.9467
G1 X44.7293 Y177.751
G1 X44.306 Y178.259
G1 X43.798 Y178.6823
G1 X42.9937 Y179.0633
G1 X42.528 Y179.1903
G1 X41.5967 Y179.2327
G1 X41.0463 Y179.1057
G1 X40.7077 Y178.9787
G1 X40.115 Y178.6823
G1 X39.607 Y178.259
G1 X39.1837 Y177.751
G1 X38.8027 Y176.9467
G1 X38.6757 Y176.4387
G1 Y175.3803
G1 X38.8027 Y174.8723
G1 X39.1837 Y174.068
G1 X39.607 Y173.56
G1 X40.115 Y173.1367
G1 X40.9193 Y172.7557
G1 X41.4273 Y172.6287
G1 X42.4857
G1 X42.9937 Y172.7557
G1 X43.798 Y173.1367
G1 X44.306 Y173.56
G1 X44.7293 Y174.068
G1 X45.1103 Y174.8723
G1 X45.2373 Y175.3803
G1 Y176.3117
G0 Z3.0
G0 X38.0407
G0 Z1.275
G1 Z-0.125
G1 Y181.815
G1 X37.7867 Y182.069
G1 X11.4553 Y182.1113
G1 X11.286 Y182.0267
G1 X11.1167 Y181.815
G1 Y146.509
G1 X13.2757 Y144.35
G1 X28.431 Y144.3077
G1 X28.8967 Y143.842
G1 X29.2353 Y143.7573
G1 X29.447
G1 X29.7857 Y143.842
G1 X30.2937 Y144.35
G1 X30.3783 Y144.6887
G1 Y144.9003
G1 X30.2937 Y145.239
G1 X29.7857 Y145.747
G1 X29.447 Y145.8317
G1 X29.2353
G1 X28.8967 Y145.747
G1 X28.431 Y145.2813
G1 X13.6143
G1 X12.048 Y146.89
G1 Y181.1377
G1 X37.1093
G1 Y172.8827
G1 X36.7707 Y172.5863
G1 X30.2513
G1 X29.7857 Y173.052
G1 X29.447 Y173.1367
G1 X29.2353
G1 X28.8967 Y173.052
G1 X28.3887 Y172.544
G1 X28.304 Y172.2053
G1 Y171.9937
G1 X28.3887 Y171.655
G1 X28.8967 Y171.147
G1 X29.2353 Y171.0623
G1 X29.447
G1 X29.7857 Y171.147
G1 X30.2513 Y171.6127
G1 X37.1517 Y171.655
G1 X38.0407 Y172.544
G1 Y176.3117
G0 Z3.0
G0 X36.051 Y174.9147
G0 Z1.275
G1 Z-0.125
G1 X35.543 Y175.4227
G1 X35.2043 Y175.5073
G1 X34.908
G1 X34.654 Y175.4227
G1 X34.146 Y174.9147
G1 X34.0613 Y174.576
G1 Y174.3643
G1 X34.146 Y174.0257
G1 X34.654 Y173.5177
G1 X34.9927 Y173.433
G1 X35.2043
G1 X35.543 Y173.5177
G1 X36.051 Y174.0257
G1 X36.1357 Y174.3643
G1 Y174.576
G1 X36.051 Y174.9147
G0 Z3.0
G0 X34.3788 Y176.5868
G0 Z1.275
G1 Z-0.125
G1 X34.6963 Y176.9043
G1 X34.781 Y177.243
G1 Y177.4547
G1 X34.6963 Y177.7933
G1 X34.1883 Y178.3013
G1 X33.8497 Y178.386
G1 X33.5533
G1 X33.2993 Y178.3013
G1 X32.7913 Y177.7933
G1 X32.7067 Y177.4547
G1 Y177.243
G1 X32.7913 Y176.9043
G1 X33.2993 Y176.3963
G1 X33.638 Y176.3117
G1 X33.8497
G1 X34.1883 Y176.3963
G1 X34.3788 Y176.5868
G0 Z3.0
G0 X33.003 Y175.211
G0 Z1.275
G1 Z-0.125
G1 X32.7913 Y175.4227
G1 X32.4527 Y175.5073
G1 X32.1563
G1 X31.9023 Y175.4227
G1 X31.3943 Y174.9147
G1 X31.3097 Y174.576
G1 Y174.3643
G1 X31.3943 Y174.0257
G1 X31.9023 Y173.5177
G1 X32.241 Y173.433
G1 X32.4527
G1 X32.7913 Y173.5177
G1 X33.2993 Y174.0257
G1 X33.384 Y174.3643
G1 Y174.576
G1 X33.2993 Y174.9147
G1 X33.003 Y175.211
G0 Z3.0
G0 X31.6272 Y176.5868
G0 Z1.275
G1 Z-0.125
G1 X31.9447 Y176.9043
G1 X32.0293 Y177.243
G1 Y177.4547
G1 X31.9447 Y177.7933
G1 X31.4367 Y178.3013
G1 X31.098 Y178.386
G1 X30.8017
G1 X30.5477 Y178.3013
G1 X30.0397 Y177.7933
G1 X29.955 Y177.4547
G1 Y177.243
G1 X30.0397 Y176.9043
G1 X30.5477 Y176.3963
G1 X30.8863 Y176.3117
G1 X31.098
G1 X31.4367 Y176.3963
G1 X31.6272 Y176.5868
G0 Z3.0
G0 X30.2725 Y175.2322
G0 Z1.275
G1 Z-0.125
G1 X30.082 Y175.4227
G1 X29.7433 Y175.5073
G1 X29.447
G1 X29.193 Y175.4227
G1 X28.685 Y174.9147
G1 X28.6003 Y174.576
G1 Y174.3643
G1 X28.685 Y174.0257
G1 X29.193 Y173.5177
G1 X29.5317 Y173.433
G1 X29.7433
G1 X30.082 Y173.5177
G1 X30.59 Y174.0257
G1 X30.6747 Y174.3643
G1 Y174.576
G1 X30.59 Y174.9147
G1 X30.2725 Y175.2322
G0 Z3.0
G0 X28.8967 Y176.608
G0 Z1.275
G1 Z-0.125
G1 X29.193 Y176.9043
G1 X29.2777 Y177.243
G1 Y177.4547
G1 X29.193 Y177.7933
G1 X28.685 Y178.3013
G1 X28.3463 Y178.386
G1 X28.05
G1 X27.796 Y178.3013
G1 X27.288 Y177.7933
G1 X27.2033 Y177.4547
G1 Y177.243
G1 X27.288 Y176.9043
G1 X27.796 Y176.3963
G1 X28.1347 Y176.3117
G1 X28.3463
G1 X28.685 Y176.3963
G1 X28.8967 Y176.608
G0 Z3.0
G0 X27.5208 Y175.2322
G0 Z1.275
G1 Z-0.125
G1 X27.3303 Y175.4227
G1 X26.9917 Y175.5073
G1 X26.6953
G1 X26.4413 Y175.4227
G1 X25.9333 Y174.9147
G1 X25.8487 Y174.576
G1 Y174.3643
G1 X25.9333 Y174.0257
G1 X26.4413 Y173.5177
G1 X26.78 Y173.433
G1 X26.9917
G1 X27.3303 Y173.5177
G1 X27.8383 Y174.0257
G1 X27.923 Y174.3643
G1 Y174.576
G1 X27.8383 Y174.9147
G1 X27.5208 Y175.2322
G0 Z3.0
G0 X26.145 Y176.608
G0 Z1.275
G1 Z-0.125
G1 X26.4413 Y176.9043
G1 X26.526 Y177.243
G1 Y177.4547
G1 X26.4413 Y177.7933
G1 X25.9333 Y178.3013
G1 X25.5947 Y178.386
G1 X25.2983
G1 X25.0443 Y178.3013
G1 X24.5363 Y177.7933
G1 X24.4517 Y177.4547
G1 Y177.243
G1 X24.5363 Y176.9043
G1 X25.0443 Y176.3963
G1 X25.383 Y176.3117
G1 X25.5947
G1 X25.9333 Y176.3963
G1 X26.145 Y176.608
G0 Z3.0
G0 X25.2137 Y175.5497
G0 Z1.275
G1 Z-0.125
G1 X23.0547
G1 Y173.433
G1 X25.2137
G1 Y175.5497
G0 Z3.0
G0 X20.557
G0 Z1.275
G1 Z-0.125
G1 Y176.4387
G1 X20.43 Y176.9467
G1 X20.049 Y177.751
G1 X19.6257 Y178.259
G1 X19.1177 Y178.6823
G1 X18.3133 Y179.0633
G1 X17.8477 Y179.1903
G1 X16.9163 Y179.2327
G1 X16.366 Y179.1057
G1 X16.0273 Y178.9787
G1 X15.4347 Y178.6823
G1 X14.9267 Y178.259
G1 X14.5033 Y177.751
G1 X14.1223 Y176.9467
G1 X13.9953 Y176.4387
G1 Y175.3803
G1 X14.1223 Y174.8723
G1 X14.5033 Y174.068
G1 X14.9267 Y173.56
G1 X15.4347 Y173.1367
G1 X16.239 Y172.7557
G1 X16.747 Y172.6287
G1 X17.8053
G1 X18.3133 Y172.7557
G1 X19.1177 Y173.1367
G1 X19.6257 Y173.56
G1 X20.049 Y174.068
G1 X20.43 Y174.8723
G1 X20.557 Y175.3803
G1 Y175.5497
G0 Z3.0
G0 X15.8157 Y171.909
G0 Z1.275
G1 Z-0.125
G1 X13.6567
G1 Y169.75
G1 X15.8157
G1 Y171.909
G0 Z3.0
G0 X15.1508 Y169.2495
G0 Z1.275
G1 Z-0.125
G1 X14.842 Y169.3267
G1 X14.5457
G1 X14.2917 Y169.242
G1 X13.7837 Y168.734
G1 X13.699 Y168.3953
G1 Y168.1837
G1 X13.7837 Y167.845
G1 X14.2917 Y167.337
G1 X14.6303 Y167.2523
G1 X14.842
G1 X15.1807 Y167.337
G1 X15.6887 Y167.845
G1 X15.7733 Y168.1837
G1 Y168.3953
G1 X15.6887 Y168.734
G1 X15.1807 Y169.242
G1 X15.1508 Y169.2495
G0 Z3.0
G0 X14.842 Y166.7867
G0 Z1.275
G1 Z-0.125
G1 X14.5457
G1 X14.2917 Y166.702
G1 X13.7837 Y166.194
G1 X13.699 Y165.8553
G1 Y165.6437
G1 X13.7837 Y165.305
G1 X14.2917 Y164.797
G1 X14.6303 Y164.7123
G1 X14.842
G1 X15.1807 Y164.797
G1 X15.6887 Y165.305
G1 X15.7733 Y165.6437
G1 Y165.8553
G1 X15.6887 Y166.194
G1 X15.1807 Y166.702
G1 X14.842 Y166.7867
G0 Z3.0
G0 Y164.2467
G0 Z1.275
G1 Z-0.125
G1 X14.5457
G1 X14.2917 Y164.162
G1 X13.7837 Y163.654
G1 X13.699 Y163.3153
G1 Y163.1037
G1 X13.7837 Y162.765
G1 X14.2917 Y162.257
G1 X14.6303 Y162.1723
G1 X14.842
G1 X15.1807 Y162.257
G1 X15.6887 Y162.765
G1 X15.7733 Y163.1037
G1 Y163.3153
G1 X15.6887 Y163.654
G1 X15.1807 Y164.162
G1 X14.842 Y164.2467
G0 Z3.0
G0 Y161.7067
G0 Z1.275
G1 Z-0.125
G1 X14.5457
G1 X14.2917 Y161.622
G1 X13.7837 Y161.114
G1 X13.699 Y160.7753
G1 Y160.5637
G1 X13.7837 Y160.225
G1 X14.2917 Y159.717
G1 X14.6303 Y159.6323
G1 X14.842
G1 X15.1807 Y159.717
G1 X15.6887 Y160.225
G1 X15.7733 Y160.5637
G1 Y160.7753
G1 X15.6887 Y161.114
G1 X15.1807 Y161.622
G1 X14.842 Y161.7067
G0 Z3.0
G0 Y159.1667
G0 Z1.275
G1 Z-0.125
G1 X14.5457
G1 X14.2917 Y159.082
G1 X13.7837 Y158.574
G1 X13.699 Y158.2353
G1 Y158.0237
G1 X13.7837 Y157.685
G1 X14.2917 Y157.177
G1 X14.6303 Y157.0923
G1 X14.842
G1 X15.1807 Y157.177
G1 X15.6887 Y157.685
G1 X15.7733 Y158.0237
G1 Y158.2353
G1 X15.6887 Y158.574
G1 X15.1807 Y159.082
G1 X14.842 Y159.1667
G0 Z3.0
G0 Y156.6267
G0 Z1.275
G1 Z-0.125
G1 X14.5457
G1 X14.2917 Y156.542
G1 X13.7837 Y156.034
G1 X13.699 Y155.6953
G1 Y155.4837
G1 X13.7837 Y155.145
G1 X14.2917 Y154.637
G1 X14.6303 Y154.5523
G1 X14.842
G1 X15.1807 Y154.637
G1 X15.6887 Y155.145
G1 X15.7733 Y155.4837
G1 Y155.6953
G1 X15.6887 Y156.034
G1 X15.1807 Y156.542
G1 X14.842 Y156.6267
G0 Z3.0
G0 Y154.0867
G0 Z1.275
G1 Z-0.125
G1 X14.5457
G1 X14.2917 Y154.002
G1 X13.7837 Y153.494
G1 X13.699 Y153.1553
G1 Y152.9437
G1 X13.7837 Y152.605
G1 X14.2917 Y152.097
G1 X14.6303 Y152.0123
G1 X14.842
G1 X15.1807 Y152.097
G1 X15.6887 Y152.605
G1 X15.7733 Y152.9437
G1 Y153.1553
G1 X15.6887 Y153.494
G1 X15.1807 Y154.002
G1 X14.842 Y154.0867
G0 Z3.0
G0 X18.3345 Y157.5792
G0 Z1.275
G1 Z-0.125
G1 X18.7367 Y157.177
G1 X19.0753 Y157.0923
G1 X19.287
G1 X19.6257 Y157.177
G1 X20.1337 Y157.685
G1 X20.2183 Y158.0237
G1 Y158.2353
G1 X20.1337 Y158.574
G1 X19.6257 Y159.082
G1 X19.287 Y159.1667
G1 X18.9907
G1 X18.7367 Y159.082
G1 X18.2287 Y158.574
G1 X18.144 Y158.2353
G1 Y158.0237
G1 X18.2287 Y157.685
G1 X18.3345 Y157.5792
G0 Z3.0
G0 X20.684 Y158.0237
G0 Z1.275
G1 Z-0.125
G1 X20.7687 Y157.685
G1 X21.2767 Y157.177
G1 X21.6153 Y157.0923
G1 X21.827
G1 X22.1657 Y157.177
G1 X22.6737 Y157.685
G1 X22.7583 Y158.0237
G1 Y158.2353
G1 X22.6737 Y158.574
G1 X22.1657 Y159.082
G1 X21.827 Y159.1667
G1 X21.5307
G1 X21.2767 Y159.082
G1 X20.7687 Y158.574
G1 X20.684 Y158.2353
G1 Y158.0237
G0 Z3.0
G0 X23.224
G0 Z1.275
G1 Z-0.125
G1 X23.3087 Y157.685
G1 X23.8167 Y157.177
G1 X24.1553 Y157.0923
G1 X24.367
G1 X24.7057 Y157.177
G1 X25.2137 Y157.685
G1 X25.2983 Y158.0237
G1 Y158.2353
G1 X25.2137 Y158.574
G1 X24.7057 Y159.082
G1 X24.367 Y159.1667
G1 X24.0707
G1 X23.8167 Y159.082
G1 X23.3087 Y158.574
G1 X23.224 Y158.2353
G1 Y158.0237
G0 Z3.0
G0 X25.764
G0 Z1.275
G1 Z-0.125
G1 X25.8487 Y157.685
G1 X26.3567 Y157.177
G1 X26.6953 Y157.0923
G1 X26.907
G1 X27.2457 Y157.177
G1 X27.7537 Y157.685
G1 X27.8383 Y158.0237
G1 Y158.2353
G1 X27.7537 Y158.574
G1 X27.2457 Y159.082
G1 X26.907 Y159.1667
G1 X26.6107
G1 X26.3567 Y159.082
G1 X25.8487 Y158.574
G1 X25.764 Y158.2353
G1 Y158.0237
G0 Z3.0
G0 X28.304
G0 Z1.275
G1 Z-0.125
G1 X28.3887 Y157.685
G1 X28.8967 Y157.177
G1 X29.2353 Y157.0923
G1 X29.447
G1 X29.7857 Y157.177
G1 X30.2937 Y157.685
G1 X30.3783 Y158.0237
G1 Y158.2353
G1 X30.2937 Y158.574
G1 X29.7857 Y159.082
G1 X29.447 Y159.1667
G1 X29.1507
G1 X28.8967 Y159.082
G1 X28.3887 Y158.574
G1 X28.304 Y158.2353
G1 Y158.0237
G0 Z3.0
G0 X30.844
G0 Z1.275
G1 Z-0.125
G1 X30.9287 Y157.685
G1 X31.4367 Y157.177
G1 X31.7753 Y157.0923
G1 X31.987
G1 X32.3257 Y157.177
G1 X32.8337 Y157.685
G1 X32.9183 Y158.0237
G1 Y158.2353
G1 X32.8337 Y158.574
G1 X32.3257 Y159.082
G1 X31.987 Y159.1667
G1 X31.6907
G1 X31.4367 Y159.082
G1 X30.9287 Y158.574
G1 X30.844 Y158.2353
G1 Y158.0237
G0 Z3.0
G0 X31.479 Y156.6267
G0 Z1.275
G1 Z-0.125
G1 X31.225 Y156.4997
G1 X30.9287 Y156.161
G1 X30.8017 Y155.907
G1 Y155.272
G1 X30.9287 Y155.018
G1 X31.225 Y154.6793
G1 X31.5637 Y154.51
G1 X32.1987
G1 X32.5373 Y154.6793
G1 X32.8337 Y155.018
G1 X32.9607 Y155.272
G1 Y155.907
G1 X32.8337 Y156.161
G1 X32.5373 Y156.4997
G1 X32.1987 Y156.669
G1 X31.6907 Y156.7113
G1 X31.479 Y156.6267
G0 Z3.0
G0 X33.4687 Y157.685
G0 Z1.275
G1 Z-0.125
G1 X33.9767 Y157.177
G1 X34.3153 Y157.0923
G1 X34.527
G1 X34.8657 Y157.177
G1 X35.3737 Y157.685
G1 X35.4583 Y158.0237
G1 Y158.2353
G1 X35.3737 Y158.574
G1 X34.8657 Y159.082
G1 X34.527 Y159.1667
G1 X34.2307
G1 X33.9767 Y159.082
G1 X33.4687 Y158.574
G1 X33.384 Y158.2353
G1 Y158.0237
G1 X33.4687 Y157.685
G0 Z3.0
G0 X35.1109 Y159.311
G0 Z1.275
G1 Z-0.125
G1 X35.9663 Y158.447
G1 X35.924 Y158.066
G1 X36.0087 Y157.685
G1 X36.5167 Y157.177
G1 X36.8553 Y157.0923
G1 X37.067
G1 X37.4057 Y157.177
G1 X37.9137 Y157.685
G1 X37.9983 Y158.0237
G1 Y158.2353
G1 X37.9137 Y158.574
G1 X37.4057 Y159.082
G1 X37.0247 Y159.1667
G1 X36.6437 Y159.1243
G1 X32.0717 Y163.654
G1 X20.0913 Y163.6963
G1 X19.6257 Y164.162
G1 X19.287 Y164.2467
G1 X18.9907
G1 X18.7367 Y164.162
G1 X18.2287 Y163.654
G1 X18.144 Y163.3153
G1 Y163.1037
G1 X18.2287 Y162.765
G1 X18.7367 Y162.257
G1 X19.0753 Y162.1723
G1 X19.287
G1 X19.6257 Y162.257
G1 X20.0913 Y162.7227
G1 X31.733
G1 X35.1109 Y159.311
G0 Z3.0
G0 X36.5167 Y160.479
G0 Z1.275
G1 Z-0.125
G1 X39.0143 Y157.939
G1 Y157.7697
G1 X38.5487 Y157.304
G1 X38.464 Y156.9653
G1 Y156.7537
G1 X38.5487 Y156.415
G1 X39.0567 Y155.907
G1 X39.3953 Y155.8223
G1 X39.6493
G1 X39.6917 Y152.224
G1 X42.4857 Y149.43
G1 X43.036 Y149.3877
G1 X43.5017 Y148.922
G1 X43.8403 Y148.8373
G1 X44.052
G1 X44.3907 Y148.922
G1 X44.8987 Y149.43
G1 X44.9833 Y149.7687
G1 Y149.9803
G1 X44.8987 Y150.319
G1 X44.3907 Y150.827
G1 X44.052 Y150.9117
G1 X43.8403
G1 X43.5017 Y150.827
G1 X43.036 Y150.3613
G1 X42.8243
G1 X40.623 Y152.605
G1 Y156.3303
G1 X40.496 Y156.542
G1 X40.5383 Y156.923
G1 X40.4537 Y157.304
G1 X39.988 Y157.7697
G1 X39.9457 Y158.32
G1 X37.448 Y160.86
G1 Y164.8393
G1 X37.9137 Y165.305
G1 X37.9983 Y165.6437
G1 Y165.8553
G1 X37.9137 Y166.194
G1 X37.4057 Y166.702
G1 X37.067 Y166.7867
G1 X36.7707
G1 X36.5167 Y166.702
G1 X36.0087 Y166.194
G1 X35.924 Y165.8553
G1 Y165.6437
G1 X36.0087 Y165.305
G1 X36.4743 Y164.8393
G1 X36.5167 Y160.479
G0 Z3.0
G0 Y156.5843
G0 Z1.275
G1 Z-0.125
G1 X35.9663
G1 Y154.5947
G1 X37.956
G1 Y156.5843
G1 X36.5167
G0 Z3.0
G0 X34.7175 Y154.7852
G0 Z1.275
G1 Z-0.125
G1 X34.2307 Y155.272
G1 X33.892 Y155.3567
G1 X33.5957
G1 X33.3417 Y155.272
G1 X32.8337 Y154.764
G1 X32.749 Y154.383
G1 X32.7913 Y154.002
G1 X32.0717 Y153.24
G1 X32.0293 Y148.2447
G1 X31.5637 Y147.779
G1 X31.479 Y147.4403
G1 Y147.2287
G1 X31.5637 Y146.89
G1 X32.0717 Y146.382
G1 X32.4103 Y146.2973
G1 X32.622
G1 X32.9607 Y146.382
G1 X33.4687 Y146.89
G1 X33.5533 Y147.2287
G1 Y147.4403
G1 X33.4687 Y147.779
G1 X33.003 Y148.2447
G1 Y148.7527
G1 X41.258
G1 X42.9937 Y146.9747
G1 X43.0783 Y146.763
G1 X43.5017 Y146.382
G1 X43.8403 Y146.2973
G1 X44.052
G1 X44.3907 Y146.382
G1 X44.8987 Y146.89
G1 X44.9833 Y147.2287
G1 Y147.4403
G1 X44.8987 Y147.779
G1 X44.3907 Y148.287
G1 X44.052 Y148.3717
G1 X43.798
G1 X43.544 Y148.287
G1 X43.2477 Y148.0753
G1 X41.5967 Y149.684
G1 X33.003 Y149.7263
G1 Y152.9013
G1 X33.4687 Y153.3247
G1 X33.8497 Y153.2823
G1 X34.2307 Y153.367
G1 X34.7387 Y153.875
G1 X34.8233 Y154.2137
G1 Y154.4253
G1 X34.7387 Y154.764
G1 X34.7175 Y154.7852
G0 Z3.0
G0 Y148.3293
G0 Z1.275
G1 Z-0.125
G1 X34.0613
G1 Y146.3397
G1 X36.051
G1 Y148.3293
G1 X34.7175
G0 Z3.0
G0 X36.1357 Y144.6887
G0 Z1.275
G1 Z-0.125
G1 X35.8393 Y144.5617
G1 X35.5007 Y144.35
G1 X35.2467 Y143.969
G1 X35.162 Y143.6303
G1 X35.2043 Y143.207
G1 X35.416 Y142.7837
G1 X35.67 Y142.572
G1 X36.0087 Y142.4027
G1 X36.6437
G1 X36.9823 Y142.572
G1 X37.2363 Y142.7837
G1 X37.448 Y143.207
G1 Y143.842
G1 X37.2363 Y144.2653
G1 X36.9823 Y144.477
G1 X36.6437 Y144.6463
G1 X36.1357 Y144.6887
G0 Z3.0
G0 X39.1837 Y146.763
G0 Z1.275
G1 Z-0.125
G1 X39.48 Y146.4243
G1 X39.8187 Y146.255
G1 X40.4537
G1 X40.7923 Y146.4243
G1 X41.0887 Y146.763
G1 X41.2157 Y147.017
G1 Y147.652
G1 X41.0887 Y147.906
G1 X40.7923 Y148.2447
G1 X40.4537 Y148.414
G1 X39.9457 Y148.4563
G1 X39.734 Y148.3717
G1 X39.48 Y148.2447
G1 X39.1837 Y147.906
G1 X39.0567 Y147.652
G1 Y147.017
G1 X39.1837 Y146.763
G0 Z3.0
G0 X40.6606 Y144.3999
G0 Z1.275
G1 Z-0.125
G1 X40.5807 Y144.35
G1 X40.3267 Y143.969
G1 X40.242 Y143.6303
G1 X40.2843 Y143.207
G1 X40.496 Y142.7837
G1 X40.75 Y142.572
G1 X41.0887 Y142.4027
G1 X41.7237
G1 X42.0623 Y142.572
G1 X42.3163 Y142.7837
G1 X42.528 Y143.207
G1 Y143.842
G1 X42.3163 Y144.2653
G1 X42.0623 Y144.477
G1 X41.7237 Y144.6463
G1 X41.2157 Y144.6887
G1 X40.9193 Y144.5617
G1 X40.6606 Y144.3999
G0 Z3.0
G0 X40.3607 Y140.8017
G0 Z1.275
G1 Z-0.125
G1 X39.9457 Y140.8363
G1 X39.734 Y140.7517
G1 X39.48 Y140.6247
G1 X39.1837 Y140.286
G1 X39.0567 Y140.032
G1 Y139.397
G1 X39.1837 Y139.143
G1 X39.48 Y138.8043
G1 X39.8187 Y138.635
G1 X40.4537
G1 X40.7923 Y138.8043
G1 X41.0887 Y139.143
G1 X41.2157 Y139.397
G1 Y140.032
G1 X41.0887 Y140.286
G1 X40.7923 Y140.6247
G1 X40.4537 Y140.794
G1 X40.3607 Y140.8017
G0 Z3.0
G0 X36.051 Y140.7093
G0 Z1.275
G1 Z-0.125
G1 X34.0613
G1 Y138.7197
G1 X36.051
G1 Y140.7093
G0 Z3.0
G0 X31.6907
G0 Z1.275
G1 Z-0.125
G1 Y142.445
G1 X31.4367 Y142.699
G1 X30.2513 Y142.7413
G1 X29.7857 Y143.207
G1 X29.447 Y143.2917
G1 X29.1507
G1 X28.8967 Y143.207
G1 X28.3887 Y142.699
G1 X28.304 Y142.3603
G1 Y142.1487
G1 X28.3887 Y141.81
G1 X28.8967 Y141.302
G1 X29.2353 Y141.2173
G1 X29.447
G1 X29.7857 Y141.302
G1 X30.2513 Y141.7677
G1 X30.7593
G1 Y138.2963
G1 X27.2457 Y138.254
G1 X26.9917 Y138.0
G1 X26.9493 Y134.2747
G1 X26.4837 Y133.809
G1 X26.399 Y133.4703
G1 Y133.2587
G1 X26.4837 Y132.92
G1 X26.9917 Y132.412
G1 X27.3303 Y132.3273
G1 X27.542
G1 X27.8807 Y132.412
G1 X28.3887 Y132.92
G1 X28.4733 Y133.2587
G1 Y133.4703
G1 X28.3887 Y133.809
G1 X27.923 Y134.2747
G1 Y137.3227
G1 X31.4367 Y137.365
G1 X31.6907 Y137.619
G1 Y140.7093
G0 Z3.0
G0 X30.2937 Y140.159
G0 Z1.275
G1 Z-0.125
G1 X29.7857 Y140.667
G1 X29.447 Y140.7517
G1 X29.1507
G1 X28.8967 Y140.667
G1 X28.3887 Y140.159
G1 X28.304 Y139.8203
G1 Y139.6087
G1 X28.3887 Y139.27
G1 X28.8967 Y138.762
G1 X29.2353 Y138.6773
G1 X29.447
G1 X29.7857 Y138.762
G1 X30.2937 Y139.27
G1 X30.3783 Y139.6087
G1 Y139.8203
G1 X30.2937 Y140.159
G0 Z3.0
G0 X27.8383 Y139.8203
G0 Z1.275
G1 Z-0.125
G1 X27.7537 Y140.159
G1 X27.2457 Y140.667
G1 X26.907 Y140.7517
G1 X26.6107
G1 X26.3567 Y140.667
G1 X25.8487 Y140.159
G1 X25.764 Y139.8203
G1 Y139.6087
G1 X25.8487 Y139.27
G1 X26.3567 Y138.762
G1 X26.6953 Y138.6773
G1 X26.907
G1 X27.2457 Y138.762
G1 X27.7537 Y139.27
G1 X27.8383 Y139.6087
G1 Y139.8203
G0 Z3.0
G0 X25.2983
G0 Z1.275
G1 Z-0.125
G1 X25.2137 Y140.159
G1 X24.7057 Y140.667
G1 X24.367 Y140.7517
G1 X24.0707
G1 X23.8167 Y140.667
G1 X23.3087 Y140.159
G1 X23.224 Y139.8203
G1 Y139.6087
G1 X23.3087 Y139.27
G1 X23.8167 Y138.762
G1 X24.1553 Y138.6773
G1 X24.367
G1 X24.7057 Y138.762
G1 X25.2137 Y139.27
G1 X25.2983 Y139.6087
G1 Y139.8203
G0 Z3.0
G0 X22.7583
G0 Z1.275
G1 Z-0.125
G1 X22.6737 Y140.159
G1 X22.1657 Y140.667
G1 X21.827 Y140.7517
G1 X21.5307
G1 X21.2767 Y140.667
G1 X20.7687 Y140.159
G1 X20.684 Y139.8203
G1 Y139.6087
G1 X20.7687 Y139.27
G1 X21.2767 Y138.762
G1 X21.6153 Y138.6773
G1 X21.827
G1 X22.1657 Y138.762
G1 X22.6737 Y139.27
G1 X22.7583 Y139.6087
G1 Y139.8203
G0 Z3.0
G0 X20.2183
G0 Z1.275
G1 Z-0.125
G1 X20.1337 Y140.159
G1 X19.6257 Y140.667
G1 X19.287 Y140.7517
G1 X18.9907
G1 X18.7367 Y140.667
G1 X18.2287 Y140.159
G1 X18.144 Y139.8203
G1 Y139.6087
G1 X18.2287 Y139.27
G1 X18.7367 Y138.762
G1 X19.0753 Y138.6773
G1 X19.287
G1 X19.6257 Y138.762
G1 X20.1337 Y139.27
G1 X20.2183 Y139.6087
G1 Y139.8203
G0 Z3.0
G0 X17.6783
G0 Z1.275
G1 Z-0.125
G1 X17.5937 Y140.159
G1 X17.0857 Y140.667
G1 X16.747 Y140.7517
G1 X16.4507
G1 X16.1967 Y140.667
G1 X15.6887 Y140.159
G1 X15.604 Y139.8203
G1 Y139.6087
G1 X15.6887 Y139.27
G1 X16.1967 Y138.762
G1 X16.5353 Y138.6773
G1 X16.747
G1 X17.0857 Y138.762
G1 X17.5937 Y139.27
G1 X17.6783 Y139.6087
G1 Y139.8203
G0 Z3.0
G0 X15.1383
G0 Z1.275
G1 Z-0.125
G1 X15.0537 Y140.159
G1 X14.5457 Y140.667
G1 X14.207 Y140.7517
G1 X13.9107
G1 X13.6567 Y140.667
G1 X13.1487 Y140.159
G1 X13.064 Y139.8203
G1 Y139.6087
G1 X13.1487 Y139.27
G1 X13.6567 Y138.762
G1 X13.9953 Y138.6773
G1 X14.207
G1 X14.5457 Y138.762
G1 X15.0537 Y139.27
G1 X15.1383 Y139.6087
G1 Y139.8203
G0 Z3.0
G0 Y136.8993
G0 Z1.275
G1 Z-0.125
G1 X15.0113
G1 Y134.9097
G1 X17.001
G1 Y136.8993
G1 X15.1383
G0 Z3.0
G0 X14.2747 Y136.4675
G0 Z1.275
G1 Z-0.125
G1 X14.2493 Y136.5183
G1 X13.9953 Y136.73
G1 X13.6567 Y136.8993
G1 X13.2757
G1 X12.8523 Y136.6877
G1 X12.6407 Y136.4337
G1 X12.4713 Y136.095
G1 Y135.714
G1 X12.6407 Y135.3753
G1 X12.8523 Y135.1213
G1 X13.2757 Y134.9097
G1 X13.6567
G1 X14.08 Y135.1213
G1 X14.2917 Y135.3753
G1 X14.461 Y135.714
G1 Y136.095
G1 X14.2747 Y136.4675
G0 Z3.0
G0 X18.779
G0 Z1.275
G1 Z-0.125
G1 Y134.8673
G1 X20.8533
G1 Y136.9417
G1 X18.779
G1 Y136.4675
G0 Z3.0
G0 X19.4834 Y134.3543
G0 Z1.275
G1 Z-0.125
G1 X19.3717 Y134.317
G1 X18.8637 Y133.809
G1 X18.779 Y133.4703
G1 Y133.2587
G1 X18.8637 Y132.92
G1 X19.3717 Y132.412
G1 X19.7103 Y132.3273
G1 X19.922
G1 X20.2607 Y132.412
G1 X20.7687 Y132.92
G1 X20.8533 Y133.2587
G1 Y133.4703
G1 X20.7687 Y133.809
G1 X20.2607 Y134.317
G1 X19.922 Y134.4017
G1 X19.6257
G1 X19.4834 Y134.3543
G0 Z3.0
G0 X17.001 Y131.8193
G0 Z1.275
G1 Z-0.125
G1 X15.0113
G1 Y129.8297
G1 X17.001
G1 Y131.8193
G0 Z3.0
G0 X14.461 Y131.015
G0 Z1.275
G1 Z-0.125
G1 X14.2493 Y131.4383
G1 X13.9953 Y131.65
G1 X13.6567 Y131.8193
G1 X13.2757
G1 X12.8523 Y131.6077
G1 X12.6407 Y131.3537
G1 X12.4713 Y131.015
G1 Y130.634
G1 X12.6407 Y130.2953
G1 X12.8523 Y130.0413
G1 X13.2757 Y129.8297
G1 X13.6567
G1 X14.08 Y130.0413
G1 X14.2917 Y130.2953
G1 X14.461 Y130.634
G1 Y131.015
G0 Z3.0
G0 Y127.4167
G0 Z1.275
G1 Z-0.125
G1 X13.699
G1 Y125.3423
G1 X15.7733
G1 Y127.4167
G1 X14.461
G0 Z3.0
G0 X13.2757
G0 Z1.275
G1 Z-0.125
G1 Y127.459
G1 X11.1167
G1 Y125.3
G1 X13.2757
G1 Y127.4167
G0 Z3.0
G0 X13.699 Y124.8767
G0 Z1.275
G1 Z-0.125
G1 Y122.8023
G1 X15.7733
G1 Y124.8767
G1 X13.699
G0 Z3.0
G0 X13.1275 Y124.3052
G0 Z1.275
G1 Z-0.125
G1 X12.6407 Y124.792
G1 X12.302 Y124.8767
G1 X12.0057
G1 X11.7517 Y124.792
G1 X11.2437 Y124.284
G1 X11.159 Y123.9453
G1 Y123.7337
G1 X11.2437 Y123.395
G1 X11.7517 Y122.887
G1 X12.0903 Y122.8023
G1 X12.302
G1 X12.6407 Y122.887
G1 X13.1487 Y123.395
G1 X13.2333 Y123.7337
G1 Y123.9453
G1 X13.1487 Y124.284
G1 X13.1275 Y124.3052
G0 Z3.0
G0 X13.699 Y122.3367
G0 Z1.275
G1 Z-0.125
G1 Y120.2623
G1 X15.7733
G1 Y122.3367
G1 X13.699
G0 Z3.0
G0 X13.1275 Y121.7652
G0 Z1.275
G1 Z-0.125
G1 X12.6407 Y122.252
G1 X12.302 Y122.3367
G1 X12.0057
G1 X11.7517 Y122.252
G1 X11.2437 Y121.744
G1 X11.159 Y121.4053
G1 Y121.1937
G1 X11.2437 Y120.855
G1 X11.7517 Y120.347
G1 X12.0903 Y120.2623
G1 X12.302
G1 X12.6407 Y120.347
G1 X13.1487 Y120.855
G1 X13.2333 Y121.1937
G1 Y121.4053
G1 X13.1487 Y121.744
G1 X13.1275 Y121.7652
G0 Z3.0
G0 X13.699 Y119.7967
G0 Z1.275
G1 Z-0.125
G1 Y117.7223
G1 X15.7733
G1 Y119.7967
G1 X13.699
G0 Z3.0
G0 X13.1275 Y119.2252
G0 Z1.275
G1 Z-0.125
G1 X12.6407 Y119.712
G1 X12.302 Y119.7967
G1 X12.0057
G1 X11.7517 Y119.712
G1 X11.2437 Y119.204
G1 X11.159 Y118.8653
G1 Y118.6537
G1 X11.2437 Y118.315
G1 X11.7517 Y117.807
G1 X12.0903 Y117.7223
G1 X12.302
G1 X12.6407 Y117.807
G1 X13.1487 Y118.315
G1 X13.2333 Y118.6537
G1 Y118.8653
G1 X13.1487 Y119.204
G1 X13.1275 Y119.2252
G0 Z3.0
G0 X13.699 Y117.2567
G0 Z1.275
G1 Z-0.125
G1 Y115.1823
G1 X15.7733
G1 Y117.2567
G1 X13.699
G0 Z3.0
G0 X13.1275 Y116.6852
G0 Z1.275
G1 Z-0.125
G1 X12.6407 Y117.172
G1 X12.302 Y117.2567
G1 X12.0057
G1 X11.7517 Y117.172
G1 X11.2437 Y116.664
G1 X11.159 Y116.3253
G1 Y116.1137
G1 X11.2437 Y115.775
G1 X11.7517 Y115.267
G1 X12.0903 Y115.1823
G1 X12.302
G1 X12.6407 Y115.267
G1 X13.1487 Y115.775
G1 X13.2333 Y116.1137
G1 Y116.3253
G1 X13.1487 Y116.664
G1 X13.1275 Y116.6852
G0 Z3.0
G0 X13.699 Y114.7167
G0 Z1.275
G1 Z-0.125
G1 Y112.6423
G1 X15.7733
G1 Y114.7167
G1 X13.699
G0 Z3.0
G0 X13.1275 Y114.1452
G0 Z1.275
G1 Z-0.125
G1 X12.6407 Y114.632
G1 X12.302 Y114.7167
G1 X12.0057
G1 X11.7517 Y114.632
G1 X11.2437 Y114.124
G1 X11.159 Y113.7853
G1 Y113.5737
G1 X11.2437 Y113.235
G1 X11.7517 Y112.727
G1 X12.0903 Y112.6423
G1 X12.302
G1 X12.6407 Y112.727
G1 X13.1487 Y113.235
G1 X13.2333 Y113.5737
G1 Y113.7853
G1 X13.1487 Y114.124
G1 X13.1275 Y114.1452
G0 Z3.0
G0 X13.699 Y112.1767
G0 Z1.275
G1 Z-0.125
G1 Y110.1023
G1 X15.7733
G1 Y112.1767
G1 X13.699
G0 Z3.0
G0 X13.1275 Y111.6052
G0 Z1.275
G1 Z-0.125
G1 X12.6407 Y112.092
G1 X12.302 Y112.1767
G1 X12.0057
G1 X11.7517 Y112.092
G1 X11.2437 Y111.584
G1 X11.159 Y111.2453
G1 Y111.0337
G1 X11.2437 Y110.695
G1 X11.7517 Y110.187
G1 X12.0903 Y110.1023
G1 X12.302
G1 X12.6407 Y110.187
G1 X13.1487 Y110.695
G1 X13.2333 Y111.0337
G1 Y111.2453
G1 X13.1487 Y111.584
G1 X13.1275 Y111.6052
G0 Z3.0
G0 X13.699 Y109.6367
G0 Z1.275
G1 Z-0.125
G1 Y107.5623
G1 X15.7733
G1 Y109.6367
G1 X13.699
G0 Z3.0
G0 X13.1275 Y109.0652
G0 Z1.275
G1 Z-0.125
G1 X12.6407 Y109.552
G1 X12.302 Y109.6367
G1 X12.0057
G1 X11.7517 Y109.552
G1 X11.2437 Y109.044
G1 X11.159 Y108.7053
G1 Y108.4937
G1 X11.2437 Y108.155
G1 X11.7517 Y107.647
G1 X12.0903 Y107.5623
G1 X12.302
G1 X12.6407 Y107.647
G1 X13.1487 Y108.155
G1 X13.2333 Y108.4937
G1 Y108.7053
G1 X13.1487 Y109.044
G1 X13.1275 Y109.0652
G0 Z3.0
G0 Y105.869
G0 Z1.275
G1 Z-0.125
G1 X11.1167
G1 Y103.71
G1 X13.2757
G1 Y105.869
G1 X13.1275
G0 Z3.0
G0 X13.699 Y105.8267
G0 Z1.275
G1 Z-0.125
G1 Y103.7523
G1 X15.7733
G1 Y105.8267
G1 X13.699
G0 Z3.0
G0 Y103.2867
G0 Z1.275
G1 Z-0.125
G1 Y101.2123
G1 X15.7733
G1 Y103.2867
G1 X13.699
G0 Z3.0
G0 X13.1275 Y102.7152
G0 Z1.275
G1 Z-0.125
G1 X12.6407 Y103.202
G1 X12.302 Y103.2867
G1 X12.0057
G1 X11.7517 Y103.202
G1 X11.2437 Y102.694
G1 X11.159 Y102.3553
G1 Y102.1437
G1 X11.2437 Y101.805
G1 X11.7517 Y101.297
G1 X12.0903 Y101.2123
G1 X12.302
G1 X12.6407 Y101.297
G1 X13.1487 Y101.805
G1 X13.2333 Y102.1437
G1 Y102.3553
G1 X13.1487 Y102.694
G1 X13.1275 Y102.7152
G0 Z3.0
G0 X13.699 Y100.7467
G0 Z1.275
G1 Z-0.125
G1 Y98.6723
G1 X15.7733
G1 Y100.7467
G1 X13.699
G0 Z3.0
G0 X13.1275 Y100.1752
G0 Z1.275
G1 Z-0.125
G1 X12.6407 Y100.662
G1 X12.302 Y100.7467
G1 X12.0057
G1 X11.7517 Y100.662
G1 X11.2437 Y100.154
G1 X11.159 Y99.8153
G1 Y99.6037
G1 X11.2437 Y99.265
G1 X11.7517 Y98.757
G1 X12.0903 Y98.6723
G1 X12.302
G1 X12.6407 Y98.757
G1 X13.1487 Y99.265
G1 X13.2333 Y99.6037
G1 Y99.8153
G1 X13.1487 Y100.154
G1 X13.1275 Y100.1752
G0 Z3.0
G0 X13.699 Y98.2067
G0 Z1.275
G1 Z-0.125
G1 Y96.1323
G1 X15.7733
G1 Y98.2067
G1 X13.699
G0 Z3.0
G0 X13.1275 Y97.6352
G0 Z1.275
G1 Z-0.125
G1 X12.6407 Y98.122
G1 X12.302 Y98.2067
G1 X12.0057
G1 X11.7517 Y98.122
G1 X11.2437 Y97.614
G1 X11.159 Y97.2753
G1 Y97.0637
G1 X11.2437 Y96.725
G1 X11.7517 Y96.217
G1 X12.0903 Y96.1323
G1 X12.302
G1 X12.6407 Y96.217
G1 X13.1487 Y96.725
G1 X13.2333 Y97.0637
G1 Y97.2753
G1 X13.1487 Y97.614
G1 X13.1275 Y97.6352
G0 Z3.0
G0 X13.699 Y95.6667
G0 Z1.275
G1 Z-0.125
G1 Y93.5923
G1 X15.7733
G1 Y95.6667
G1 X13.699
G0 Z3.0
G0 X13.1275 Y95.0952
G0 Z1.275
G1 Z-0.125
G1 X12.6407 Y95.582
G1 X12.302 Y95.6667
G1 X12.0057
G1 X11.7517 Y95.582
G1 X11.2437 Y95.074
G1 X11.159 Y94.7353
G1 Y94.5237
G1 X11.2437 Y94.185
G1 X11.7517 Y93.677
G1 X12.0903 Y93.5923
G1 X12.302
G1 X12.6407 Y93.677
G1 X13.1487 Y94.185
G1 X13.2333 Y94.5237
G1 Y94.7353
G1 X13.1487 Y95.074
G1 X13.1275 Y95.0952
G0 Z3.0
G0 X13.699 Y93.1267
G0 Z1.275
G1 Z-0.125
G1 Y91.0523
G1 X15.7733
G1 Y93.1267
G1 X13.699
G0 Z3.0
G0 X13.1275 Y92.5552
G0 Z1.275
G1 Z-0.125
G1 X12.6407 Y93.042
G1 X12.302 Y93.1267
G1 X12.0057
G1 X11.7517 Y93.042
G1 X11.2437 Y92.534
G1 X11.159 Y92.1953
G1 Y91.9837
G1 X11.2437 Y91.645
G1 X11.7517 Y91.137
G1 X12.0903 Y91.0523
G1 X12.302
G1 X12.6407 Y91.137
G1 X13.1487 Y91.645
G1 X13.2333 Y91.9837
G1 Y92.1953
G1 X13.1487 Y92.534
G1 X13.1275 Y92.5552
G0 Z3.0
G0 X13.699 Y90.5867
G0 Z1.275
G1 Z-0.125
G1 Y88.5123
G1 X15.7733
G1 Y90.5867
G1 X13.699
G0 Z3.0
G0 X13.1275 Y90.0152
G0 Z1.275
G1 Z-0.125
G1 X12.6407 Y90.502
G1 X12.302 Y90.5867
G1 X12.0057
G1 X11.7517 Y90.502
G1 X11.2437 Y89.994
G1 X11.159 Y89.6553
G1 Y89.4437
G1 X11.2437 Y89.105
G1 X11.7517 Y88.597
G1 X12.0903 Y88.5123
G1 X12.302
G1 X12.6407 Y88.597
G1 X13.1487 Y89.105
G1 X13.2333 Y89.4437
G1 Y89.6553
G1 X13.1487 Y89.994
G1 X13.1275 Y90.0152
G0 Z3.0
G0 X13.699 Y88.0467
G0 Z1.275
G1 Z-0.125
G1 Y85.9723
G1 X15.7733
G1 Y88.0467
G1 X13.699
G0 Z3.0
G0 X13.1275 Y87.4752
G0 Z1.275
G1 Z-0.125
G1 X12.6407 Y87.962
G1 X12.302 Y88.0467
G1 X12.0057
G1 X11.7517 Y87.962
G1 X11.2437 Y87.454
G1 X11.159 Y87.1153
G1 Y86.9037
G1 X11.2437 Y86.565
G1 X11.7517 Y86.057
G1 X12.0903 Y85.9723
G1 X12.302
G1 X12.6407 Y86.057
G1 X13.1487 Y86.565
G1 X13.2333 Y86.9037
G1 Y87.1153
G1 X13.1487 Y87.454
G1 X13.1275 Y87.4752
G0 Z3.0
G0 Y84.279
G0 Z1.275
G1 Z-0.125
G1 X11.1167
G1 Y82.12
G1 X13.2757
G1 Y84.279
G1 X13.1275
G0 Z3.0
G0 X13.699 Y84.2367
G0 Z1.275
G1 Z-0.125
G1 Y82.1623
G1 X15.7733
G1 Y84.2367
G1 X13.699
G0 Z3.0
G0 Y81.6967
G0 Z1.275
G1 Z-0.125
G1 Y79.6223
G1 X15.7733
G1 Y81.6967
G1 X13.699
G0 Z3.0
G0 X13.1275 Y81.1252
G0 Z1.275
G1 Z-0.125
G1 X12.6407 Y81.612
G1 X12.302 Y81.6967
G1 X12.0057
G1 X11.7517 Y81.612
G1 X11.2437 Y81.104
G1 X11.159 Y80.7653
G1 Y80.5537
G1 X11.2437 Y80.215
G1 X11.7517 Y79.707
G1 X12.0903 Y79.6223
G1 X12.302
G1 X12.6407 Y79.707
G1 X13.1487 Y80.215
G1 X13.2333 Y80.5537
G1 Y80.7653
G1 X13.1487 Y81.104
G1 X13.1275 Y81.1252
G0 Z3.0
G0 X13.699 Y79.1567
G0 Z1.275
G1 Z-0.125
G1 Y77.0823
G1 X15.7733
G1 Y79.1567
G1 X13.699
G0 Z3.0
G0 X13.1275 Y78.5852
G0 Z1.275
G1 Z-0.125
G1 X12.6407 Y79.072
G1 X12.302 Y79.1567
G1 X12.0057
G1 X11.7517 Y79.072
G1 X11.2437 Y78.564
G1 X11.159 Y78.2253
G1 Y78.0137
G1 X11.2437 Y77.675
G1 X11.7517 Y77.167
G1 X12.0903 Y77.0823
G1 X12.302
G1 X12.6407 Y77.167
G1 X13.1487 Y77.675
G1 X13.2333 Y78.0137
G1 Y78.2253
G1 X13.1487 Y78.564
G1 X13.1275 Y78.5852
G0 Z3.0
G0 X13.699 Y76.6167
G0 Z1.275
G1 Z-0.125
G1 Y74.5423
G1 X15.7733
G1 Y76.6167
G1 X13.699
G0 Z3.0
G0 X13.1275 Y76.0452
G0 Z1.275
G1 Z-0.125
G1 X12.6407 Y76.532
G1 X12.302 Y76.6167
G1 X12.0057
G1 X11.7517 Y76.532
G1 X11.2437 Y76.024
G1 X11.159 Y75.6853
G1 Y75.4737
G1 X11.2437 Y75.135
G1 X11.7517 Y74.627
G1 X12.0903 Y74.5423
G1 X12.302
G1 X12.6407 Y74.627
G1 X13.1487 Y75.135
G1 X13.2333 Y75.4737
G1 Y75.6853
G1 X13.1487 Y76.024
G1 X13.1275 Y76.0452
G0 Z3.0
G0 X13.699 Y74.0767
G0 Z1.275
G1 Z-0.125
G1 Y72.0023
G1 X15.7733
G1 Y74.0767
G1 X13.699
G0 Z3.0
G0 X13.1275 Y73.5052
G0 Z1.275
G1 Z-0.125
G1 X12.6407 Y73.992
G1 X12.302 Y74.0767
G1 X12.0057
G1 X11.7517 Y73.992
G1 X11.2437 Y73.484
G1 X11.159 Y73.1453
G1 Y72.9337
G1 X11.2437 Y72.595
G1 X11.7517 Y72.087
G1 X12.0903 Y72.0023
G1 X12.302
G1 X12.6407 Y72.087
G1 X13.1487 Y72.595
G1 X13.2333 Y72.9337
G1 Y73.1453
G1 X13.1487 Y73.484
G1 X13.1275 Y73.5052
G0 Z3.0
G0 X13.699 Y71.5367
G0 Z1.275
G1 Z-0.125
G1 Y69.4623
G1 X15.7733
G1 Y71.5367
G1 X13.699
G0 Z3.0
G0 X13.1275 Y70.9652
G0 Z1.275
G1 Z-0.125
G1 X12.6407 Y71.452
G1 X12.302 Y71.5367
G1 X12.0057
G1 X11.7517 Y71.452
G1 X11.2437 Y70.944
G1 X11.159 Y70.6053
G1 Y70.3937
G1 X11.2437 Y70.055
G1 X11.7517 Y69.547
G1 X12.0903 Y69.4623
G1 X12.302
G1 X12.6407 Y69.547
G1 X13.1487 Y70.055
G1 X13.2333 Y70.3937
G1 Y70.6053
G1 X13.1487 Y70.944
G1 X13.1275 Y70.9652
G0 Z3.0
G0 X13.699 Y68.9967
G0 Z1.275
G1 Z-0.125
G1 Y66.9223
G1 X15.7733
G1 Y68.9967
G1 X13.699
G0 Z3.0
G0 X13.1275 Y68.4252
G0 Z1.275
G1 Z-0.125
G1 X12.6407 Y68.912
G1 X12.302 Y68.9967
G1 X12.0057
G1 X11.7517 Y68.912
G1 X11.2437 Y68.404
G1 X11.159 Y68.0653
G1 Y67.8537
G1 X11.2437 Y67.515
G1 X11.7517 Y67.007
G1 X12.0903 Y66.9223
G1 X12.302
G1 X12.6407 Y67.007
G1 X13.1487 Y67.515
G1 X13.2333 Y67.8537
G1 Y68.0653
G1 X13.1487 Y68.404
G1 X13.1275 Y68.4252
G0 Z3.0
G0 X13.699 Y66.4567
G0 Z1.275
G1 Z-0.125
G1 Y64.3823
G1 X15.7733
G1 Y66.4567
G1 X13.699
G0 Z3.0
G0 X13.1275 Y65.8852
G0 Z1.275
G1 Z-0.125
G1 X12.6407 Y66.372
G1 X12.302 Y66.4567
G1 X12.0057
G1 X11.7517 Y66.372
G1 X11.2437 Y65.864
G1 X11.159 Y65.5253
G1 Y65.3137
G1 X11.2437 Y64.975
G1 X11.7517 Y64.467
G1 X12.0903 Y64.3823
G1 X12.302
G1 X12.6407 Y64.467
G1 X13.1487 Y64.975
G1 X13.2333 Y65.3137
G1 Y65.5253
G1 X13.1487 Y65.864
G1 X13.1275 Y65.8852
G0 Z3.0
G0 X12.302 Y61.3767
G0 Z1.275
G1 Z-0.125
G1 X12.0057
G1 X11.7517 Y61.292
G1 X11.2437 Y60.784
G1 X11.159 Y60.4453
G1 Y60.2337
G1 X11.2437 Y59.895
G1 X11.7517 Y59.387
G1 X12.0903 Y59.3023
G1 X12.302
G1 X12.6407 Y59.387
G1 X13.1487 Y59.895
G1 X13.2333 Y60.2337
G1 Y60.4453
G1 X13.1487 Y60.784
G1 X12.6407 Y61.292
G1 X12.302 Y61.3767
G0 Z3.0
G0 Y58.8367
G0 Z1.275
G1 Z-0.125
G1 X12.0057
G1 X11.7517 Y58.752
G1 X11.2437 Y58.244
G1 X11.159 Y57.9053
G1 Y57.6937
G1 X11.2437 Y57.355
G1 X11.7517 Y56.847
G1 X12.0903 Y56.7623
G1 X12.302
G1 X12.6407 Y56.847
G1 X13.1487 Y57.355
G1 X13.2333 Y57.6937
G1 Y57.9053
G1 X13.1487 Y58.244
G1 X12.6407 Y58.752
G1 X12.302 Y58.8367
G0 Z3.0
G0 Y56.2967
G0 Z1.275
G1 Z-0.125
G1 X12.0057
G1 X11.7517 Y56.212
G1 X11.2437 Y55.704
G1 X11.159 Y55.3653
G1 Y55.1537
G1 X11.2437 Y54.815
G1 X11.7517 Y54.307
G1 X12.0903 Y54.2223
G1 X12.302
G1 X12.6407 Y54.307
G1 X13.1487 Y54.815
G1 X13.2333 Y55.1537
G1 Y55.3653
G1 X13.1487 Y55.704
G1 X12.6407 Y56.212
G1 X12.302 Y56.2967
G0 Z3.0
G0 Y53.7567
G0 Z1.275
G1 Z-0.125
G1 X12.0057
G1 X11.7517 Y53.672
G1 X11.2437 Y53.164
G1 X11.159 Y52.8253
G1 Y52.6137
G1 X11.2437 Y52.275
G1 X11.7517 Y51.767
G1 X12.0903 Y51.6823
G1 X12.302
G1 X12.6407 Y51.767
G1 X13.1487 Y52.275
G1 X13.2333 Y52.6137
G1 Y52.8253
G1 X13.1487 Y53.164
G1 X12.6407 Y53.672
G1 X12.302 Y53.7567
G0 Z3.0
G0 Y51.2167
G0 Z1.275
G1 Z-0.125
G1 X12.0057
G1 X11.7517 Y51.132
G1 X11.2437 Y50.624
G1 X11.159 Y50.2853
G1 Y50.0737
G1 X11.2437 Y49.735
G1 X11.7517 Y49.227
G1 X12.0903 Y49.1423
G1 X12.302
G1 X12.6407 Y49.227
G1 X13.1487 Y49.735
G1 X13.2333 Y50.0737
G1 Y50.2853
G1 X13.1487 Y50.624
G1 X12.6407 Y51.132
G1 X12.302 Y51.2167
G0 Z3.0
G0 Y48.6767
G0 Z1.275
G1 Z-0.125
G1 X12.0057
G1 X11.7517 Y48.592
G1 X11.2437 Y48.084
G1 X11.159 Y47.7453
G1 Y47.5337
G1 X11.2437 Y47.195
G1 X11.7517 Y46.687
G1 X12.0903 Y46.6023
G1 X12.302
G1 X12.6407 Y46.687
G1 X13.1487 Y47.195
G1 X13.2333 Y47.5337
G1 Y47.7453
G1 X13.1487 Y48.084
G1 X12.6407 Y48.592
G1 X12.302 Y48.6767
G0 Z3.0
G0 Y46.1367
G0 Z1.275
G1 Z-0.125
G1 X12.0057
G1 X11.7517 Y46.052
G1 X11.2437 Y45.544
G1 X11.159 Y45.2053
G1 Y44.9937
G1 X11.2437 Y44.655
G1 X11.7517 Y44.147
G1 X12.0903 Y44.0623
G1 X12.302
G1 X12.6407 Y44.147
G1 X13.1487 Y44.655
G1 X13.2333 Y44.9937
G1 Y45.2053
G1 X13.1487 Y45.544
G1 X12.6407 Y46.052
G1 X12.302 Y46.1367
G0 Z3.0
G0 Y43.5967
G0 Z1.275
G1 Z-0.125
G1 X12.0057
G1 X11.7517 Y43.512
G1 X11.2437 Y43.004
G1 X11.159 Y42.6653
G1 Y42.4537
G1 X11.2437 Y42.115
G1 X11.7517 Y41.607
G1 X12.0903 Y41.5223
G1 X12.302
G1 X12.6407 Y41.607
G1 X13.1487 Y42.115
G1 X13.2333 Y42.4537
G1 Y42.6653
G1 X13.1487 Y43.004
G1 X12.6407 Y43.512
G1 X12.302 Y43.5967
G0 Z3.0
G0 Y41.0567
G0 Z1.275
G1 Z-0.125
G1 X12.0057
G1 X11.7517 Y40.972
G1 X11.2437 Y40.464
G1 X11.159 Y40.1253
G1 Y39.9137
G1 X11.2437 Y39.575
G1 X11.7517 Y39.067
G1 X12.0903 Y38.9823
G1 X12.302
G1 X12.6407 Y39.067
G1 X13.1487 Y39.575
G1 X13.2333 Y39.9137
G1 Y40.1253
G1 X13.1487 Y40.464
G1 X12.6407 Y40.972
G1 X12.302 Y41.0567
G0 Z3.0
G0 Y38.5167
G0 Z1.275
G1 Z-0.125
G1 X12.0057
G1 X11.7517 Y38.432
G1 X11.2437 Y37.924
G1 X11.159 Y37.5853
G1 Y37.3737
G1 X11.2437 Y37.035
G1 X11.7517 Y36.527
G1 X12.0903 Y36.4423
G1 X12.302
G1 X12.6407 Y36.527
G1 X13.1487 Y37.035
G1 X13.2333 Y37.3737
G1 Y37.5853
G1 X13.1487 Y37.924
G1 X12.6407 Y38.432
G1 X12.302 Y38.5167
G0 Z3.0
G0 Y35.9767
G0 Z1.275
G1 Z-0.125
G1 X12.0057
G1 X11.7517 Y35.892
G1 X11.2437 Y35.384
G1 X11.159 Y35.0453
G1 Y34.8337
G1 X11.2437 Y34.495
G1 X11.7517 Y33.987
G1 X12.0903 Y33.9023
G1 X12.302
G1 X12.6407 Y33.987
G1 X13.1487 Y34.495
G1 X13.2333 Y34.8337
G1 Y35.0453
G1 X13.1487 Y35.384
G1 X12.6407 Y35.892
G1 X12.302 Y35.9767
G0 Z3.0
G0 Y33.4367
G0 Z1.275
G1 Z-0.125
G1 X12.0057
G1 X11.7517 Y33.352
G1 X11.2437 Y32.844
G1 X11.159 Y32.5053
G1 Y32.2937
G1 X11.2437 Y31.955
G1 X11.7517 Y31.447
G1 X12.0903 Y31.3623
G1 X12.302
G1 X12.6407 Y31.447
G1 X13.1487 Y31.955
G1 X13.2333 Y32.2937
G1 Y32.5053
G1 X13.1487 Y32.844
G1 X12.6407 Y33.352
G1 X12.302 Y33.4367
G0 Z3.0
G0 Y30.8967
G0 Z1.275
G1 Z-0.125
G1 X12.0057
G1 X11.7517 Y30.812
G1 X11.2437 Y30.304
G1 X11.159 Y29.9653
G1 Y29.7537
G1 X11.2437 Y29.415
G1 X11.7517 Y28.907
G1 X12.0903 Y28.8223
G1 X12.302
G1 X12.6407 Y28.907
G1 X13.1487 Y29.415
G1 X13.2333 Y29.7537
G1 Y29.9653
G1 X13.1487 Y30.304
G1 X12.6407 Y30.812
G1 X12.302 Y30.8967
G0 Z3.0
G0 Y28.3567
G0 Z1.275
G1 Z-0.125
G1 X12.0057
G1 X11.7517 Y28.272
G1 X11.2437 Y27.764
G1 X11.159 Y27.4253
G1 Y27.2137
G1 X11.2437 Y26.875
G1 X11.7517 Y26.367
G1 X12.0903 Y26.2823
G1 X12.302
G1 X12.6407 Y26.367
G1 X13.1487 Y26.875
G1 X13.2333 Y27.2137
G1 Y27.4253
G1 X13.1487 Y27.764
G1 X12.6407 Y28.272
G1 X12.302 Y28.3567
G0 Z3.0
G0 Y25.8167
G0 Z1.275
G1 Z-0.125
G1 X12.0057
G1 X11.7517 Y25.732
G1 X11.2437 Y25.224
G1 X11.159 Y24.8853
G1 Y24.6737
G1 X11.2437 Y24.335
G1 X11.7517 Y23.827
G1 X12.0903 Y23.7423
G1 X12.302
G1 X12.6407 Y23.827
G1 X13.1487 Y24.335
G1 X13.2333 Y24.6737
G1 Y24.8853
G1 X13.1487 Y25.224
G1 X12.6407 Y25.732
G1 X12.302 Y25.8167
G0 Z3.0
G0 Y23.2767
G0 Z1.275
G1 Z-0.125
G1 X12.0057
G1 X11.7517 Y23.192
G1 X11.2437 Y22.684
G1 X11.159 Y22.3453
G1 Y22.1337
G1 X11.2437 Y21.795
G1 X11.7517 Y21.287
G1 X12.0903 Y21.2023
G1 X12.302
G1 X12.6407 Y21.287
G1 X13.1487 Y21.795
G1 X13.2333 Y22.1337
G1 Y22.3453
G1 X13.1487 Y22.684
G1 X12.6407 Y23.192
G1 X12.302 Y23.2767
G0 Z3.0
G0 X13.3951 Y18.5401
G0 Z1.275
G1 Z-0.125
G1 X13.191 Y18.493
G1 X12.6407 Y18.2813
G1 X12.1327 Y17.985
G1 X11.4977 Y17.3923
G1 X11.1167 Y16.7997
G1 X10.8627 Y16.1647
G1 X10.7357 Y15.5297
G1 Y14.9793
G1 X10.8627 Y14.3443
G1 X11.1167 Y13.7093
G1 X11.4977 Y13.1167
G1 X12.1327 Y12.524
G1 X12.6407 Y12.2277
G1 X13.191 Y12.016
G1 X13.826 Y11.889
G1 X14.3763
G1 X15.0113 Y12.016
G1 X15.5617 Y12.2277
G1 X16.0697 Y12.524
G1 X16.7047 Y13.1167
G1 X17.0857 Y13.7093
G1 X17.3397 Y14.3443
G1 X17.4667 Y14.9793
G1 Y15.5297
G1 X17.3397 Y16.1647
G1 X17.0857 Y16.7997
G1 X16.7047 Y17.3923
G1 X16.0697 Y17.985
G1 X15.5617 Y18.2813
G1 X15.0113 Y18.493
G1 X14.3763 Y18.62
G1 X13.7413
G1 X13.3951 Y18.5401
G0 Z3.0
G0 X21.319 Y21.2023
G0 Z1.275
G1 Z-0.125
G1 X23.3933
G1 Y23.2767
G1 X21.319
G1 Y21.2023
G0 Z3.0
G0 Y23.7423
G0 Z1.275
G1 Z-0.125
G1 X23.3933
G1 Y25.8167
G1 X21.319
G1 Y23.7423
G0 Z3.0
G0 Y26.2823
G0 Z1.275
G1 Z-0.125
G1 X23.3933
G1 Y28.3567
G1 X21.319
G1 Y26.2823
G0 Z3.0
G0 Y28.8223
G0 Z1.275
G1 Z-0.125
G1 X23.3933
G1 Y30.8967
G1 X21.319
G1 Y28.8223
G0 Z3.0
G0 Y31.3623
G0 Z1.275
G1 Z-0.125
G1 X23.3933
G1 Y33.4367
G1 X21.319
G1 Y31.3623
G0 Z3.0
G0 Y33.9023
G0 Z1.275
G1 Z-0.125
G1 X23.3933
G1 Y35.9767
G1 X21.319
G1 Y33.9023
G0 Z3.0
G0 Y36.4423
G0 Z1.275
G1 Z-0.125
G1 X23.3933
G1 Y38.5167
G1 X21.319
G1 Y36.4423
G0 Z3.0
G0 Y38.9823
G0 Z1.275
G1 Z-0.125
G1 X23.3933
G1 Y41.0567
G1 X21.319
G1 Y38.9823
G0 Z3.0
G0 X23.8167
G0 Z1.275
G1 Z-0.125
G1 Y38.94
G1 X25.9757
G1 Y41.099
G1 X23.8167
G1 Y38.9823
G0 Z3.0
G0 X24.4093 Y38.3897
G0 Z1.275
G1 Z-0.125
G1 X23.9437 Y37.924
G1 X23.859 Y37.5853
G1 Y37.3737
G1 X23.9437 Y37.035
G1 X24.4517 Y36.527
G1 X24.7903 Y36.4423
G1 X25.002
G1 X25.3407 Y36.527
G1 X25.8487 Y37.035
G1 X25.9333 Y37.3737
G1 Y37.5853
G1 X25.8487 Y37.924
G1 X25.3407 Y38.432
G1 X25.002 Y38.5167
G1 X24.7057
G1 X24.4517 Y38.432
G1 X24.4093 Y38.3897
G0 Z3.0
G0 X26.3143
G0 Z1.275
G1 Z-0.125
G1 Y32.0397
G1 X25.8487 Y31.574
G1 X25.764 Y31.2353
G1 Y31.0237
G1 X25.8487 Y30.685
G1 X26.3567 Y30.177
G1 X26.6953 Y30.0923
G1 X26.907
G1 X27.2457 Y30.177
G1 X27.7537 Y30.685
G1 X27.8383 Y31.0237
G1 Y31.2353
G1 X27.7537 Y31.574
G1 X27.288 Y32.0397
G1 Y50.5393
G1 X27.7537 Y51.005
G1 X27.8383 Y51.3437
G1 Y51.5553
G1 X27.7537 Y51.894
G1 X27.2457 Y52.402
G1 X26.907 Y52.4867
G1 X26.6107
G1 X26.3567 Y52.402
G1 X25.8487 Y51.894
G1 X25.764 Y51.5553
G1 Y51.3437
G1 X25.8487 Y51.005
G1 X26.3143 Y50.5393
G1 Y38.3897
G0 Z3.0
G0 X27.5975 Y38.3865
G0 Z1.275
G1 Z-0.125
G1 X27.5843 Y32.971
G1 X27.7113 Y32.717
G1 X27.669 Y32.336
G1 X27.7537 Y31.955
G1 X28.2193 Y31.4893
G1 X28.2617 Y25.859
G1 X29.1507 Y24.97
G1 X55.5243 Y24.9277
G1 Y24.4197
G1 X55.0587 Y23.954
G1 X54.974 Y23.6153
G1 Y23.4037
G1 X55.0587 Y23.065
G1 X55.5667 Y22.557
G1 X55.9053 Y22.4723
G1 X56.117
G1 X56.4557 Y22.557
G1 X56.9637 Y23.065
G1 X57.0483 Y23.4037
G1 Y23.6153
G1 X56.9637 Y23.954
G1 X56.498 Y24.4197
G1 Y24.9277
G1 X72.7117 Y24.97
G1 X73.6007 Y25.859
G1 X73.643 Y48.6343
G1 X74.1087 Y49.1
G1 X74.1933 Y49.4387
G1 Y49.6503
G1 X74.1087 Y49.989
G1 X73.643 Y50.4547
G1 X73.6007 Y57.355
G1 X72.0767 Y58.879
G1 X60.6467 Y58.9213
G1 X58.1067 Y61.419
G1 X52.3917 Y61.4613
G1 X51.4603 Y62.3503
G1 X46.338 Y62.3927
G1 Y65.7793
G1 X46.8037 Y66.245
G1 X46.8883 Y66.5837
G1 Y66.7953
G1 X46.8037 Y67.134
G1 X46.338 Y67.5997
G1 Y78.4793
G1 X46.8037 Y78.945
G1 X46.8883 Y79.2837
G1 Y79.4953
G1 X46.8037 Y79.834
G1 X46.338 Y80.2997
G1 Y87.3693
G1 X46.8037 Y87.835
G1 X46.8883 Y88.1737
G1 Y88.3853
G1 X46.8037 Y88.724
G1 X46.338 Y89.1897
G1 Y100.0693
G1 X46.8037 Y100.535
G1 X46.8883 Y100.8737
G1 Y101.0853
G1 X46.8037 Y101.424
G1 X46.338 Y101.8897
G1 Y108.9593
G1 X46.8037 Y109.425
G1 X46.8883 Y109.7637
G1 Y109.9753
G1 X46.8037 Y110.314
G1 X46.338 Y110.7797
G1 Y124.1993
G1 X46.8037 Y124.665
G1 X46.8883 Y125.0037
G1 Y125.2153
G1 X46.8037 Y125.554
G1 X46.338 Y126.0197
G1 Y126.2313
G1 X47.4387 Y127.2897
G1 X47.8197 Y127.2473
G1 X48.2007 Y127.332
G1 X48.7087 Y127.84
G1 X48.7933 Y128.1787
G1 Y128.3903
G1 X48.7087 Y128.729
G1 X48.2007 Y129.237
G1 X47.862 Y129.3217
G1 X47.5657
G1 X47.3117 Y129.237
G1 X46.8037 Y128.729
G1 X46.719 Y128.348
G1 X46.7613 Y127.967
G1 X45.4067 Y126.57
G1 X45.3643 Y126.0197
G1 X44.8987 Y125.554
G1 X44.814 Y125.2153
G1 Y125.0037
G1 X44.8987 Y124.665
G1 X45.3643 Y124.1993
G1 Y110.7797
G1 X44.8987 Y110.314
G1 X44.814 Y109.9753
G1 Y109.7637
G1 X44.8987 Y109.425
G1 X45.3643 Y108.9593
G1 Y101.8897
G1 X44.8987 Y101.424
G1 X44.814 Y101.0853
G1 Y100.8737
G1 X44.8987 Y100.535
G1 X45.3643 Y100.0693
G1 Y89.1897
G1 X44.8987 Y88.724
G1 X44.814 Y88.3853
G1 Y88.1737
G1 X44.8987 Y87.835
G1 X45.3643 Y87.3693
G1 Y80.2997
G1 X44.8987 Y79.834
G1 X44.814 Y79.4953
G1 Y79.2837
G1 X44.8987 Y78.945
G1 X45.3643 Y78.4793
G1 Y67.5997
G1 X44.8987 Y67.134
G1 X44.814 Y66.7953
G1 Y66.5837
G1 X44.8987 Y66.245
G1 X45.3643 Y65.7793
G1 Y62.3927
G1 X35.543
G1 X33.638 Y64.34
G1 Y65.7793
G1 X34.1037 Y66.245
G1 X34.1883 Y66.5837
G1 Y66.7953
G1 X34.1037 Y67.134
G1 X33.638 Y67.5997
G1 Y81.0193
G1 X34.1037 Y81.485
G1 X34.1883 Y81.8237
G1 Y82.0353
G1 X34.1037 Y82.374
G1 X33.638 Y82.8397
G1 Y89.9093
G1 X34.1037 Y90.375
G1 X34.1883 Y90.7137
G1 Y90.9253
G1 X34.1037 Y91.264
G1 X33.638 Y91.7297
G1 Y102.6093
G1 X34.1037 Y103.075
G1 X34.1883 Y103.4137
G1 Y103.6253
G1 X34.1037 Y103.964
G1 X33.638 Y104.4297
G1 Y111.4993
G1 X34.1037 Y111.965
G1 X34.1883 Y112.3037
G1 Y112.5153
G1 X34.1037 Y112.854
G1 X33.638 Y113.3197
G1 Y124.1993
G1 X34.1037 Y124.665
G1 X34.1883 Y125.0037
G1 Y125.2153
G1 X34.1037 Y125.554
G1 X33.5957 Y126.062
G1 X33.257 Y126.1467
G1 X33.0453
G1 X32.7067 Y126.062
G1 X32.1987 Y125.554
G1 X32.114 Y125.2153
G1 Y125.0037
G1 X32.1987 Y124.665
G1 X32.6643 Y124.1993
G1 Y113.3197
G1 X32.1987 Y112.854
G1 X32.114 Y112.5153
G1 Y112.3037
G1 X32.1987 Y111.965
G1 X32.6643 Y111.4993
G1 Y104.4297
G1 X32.1987 Y103.964
G1 X32.114 Y103.6253
G1 Y103.4137
G1 X32.1987 Y103.075
G1 X32.6643 Y102.6093
G1 Y91.7297
G1 X32.1987 Y91.264
G1 X32.114 Y90.9253
G1 Y90.7137
G1 X32.1987 Y90.375
G1 X32.6643 Y89.9093
G1 Y82.8397
G1 X32.1987 Y82.374
G1 X32.114 Y82.0353
G1 Y81.8237
G1 X32.1987 Y81.485
G1 X32.6643 Y81.0193
G1 Y67.5997
G1 X32.1987 Y67.134
G1 X32.114 Y66.7953
G1 Y66.5837
G1 X32.1987 Y66.245
G1 X32.6643 Y65.7793
G1 X32.7067 Y63.959
G1 X35.2043 Y61.4613
G1 X51.0793 Y61.419
G1 X52.0107 Y60.53
G1 X57.7257 Y60.4877
G1 X60.2657 Y57.99
G1 X71.6957 Y57.9477
G1 X72.6693 Y57.0163
G1 Y50.4547
G1 X72.2037 Y49.989
G1 X72.119 Y49.6503
G1 Y49.4387
G1 X72.2037 Y49.1
G1 X72.6693 Y48.6343
G1 Y44.3163
G1 X50.5713
G1 X50.1057 Y44.782
G1 X49.767 Y44.8667
G1 X49.5553
G1 X49.2167 Y44.782
G1 X48.7087 Y44.274
G1 X48.624 Y43.9353
G1 Y43.7237
G1 X48.7087 Y43.385
G1 X49.2167 Y42.877
G1 X49.5553 Y42.7923
G1 X49.767
G1 X50.1057 Y42.877
G1 X50.5713 Y43.3427
G1 X72.6693
G1 Y29.6267
G1 X72.4153
G1 X72.0767 Y29.542
G1 X71.5687 Y29.034
G1 X71.484 Y28.6953
G1 Y28.4837
G1 X71.5687 Y28.145
G1 X72.0767 Y27.637
G1 X72.4153 Y27.5523
G1 X72.6693
G1 Y26.1977
G1 X72.3307 Y25.9013
G1 X29.4893
G1 X29.193 Y26.24
G1 Y31.4893
G1 X29.6587 Y31.955
G1 X29.7433 Y32.2937
G1 Y32.5053
G1 X29.6587 Y32.844
G1 X29.1507 Y33.352
G1 X28.812 Y33.4367
G1 X28.558
G1 Y49.989
G1 X29.1507 Y50.624
G1 X29.193 Y51.8093
G1 X29.6587 Y52.275
G1 X29.7433 Y52.6137
G1 Y52.8253
G1 X29.6587 Y53.164
G1 X29.1507 Y53.672
G1 X28.812 Y53.7567
G1 X28.6003
G1 X28.2617 Y53.672
G1 X27.7537 Y53.164
G1 X27.669 Y52.8253
G1 Y52.6137
G1 X27.7537 Y52.275
G1 X28.2193 Y51.8093
G1 Y51.005
G1 X27.6267 Y50.37
G1 X27.5975 Y38.3865
G0 Z3.0
G0 X28.8967
G0 Z1.275
G1 Z-0.125
G1 Y34.114
G1 X29.828 Y33.1403
G1 X29.8703 Y30.6003
G1 X31.0557 Y29.415
G1 X33.511 Y29.3727
G1 X33.9767 Y28.907
G1 X34.3153 Y28.8223
G1 X34.527
G1 X34.8657 Y28.907
G1 X35.3313 Y29.3727
G1 X44.3907
G1 X45.6607 Y28.145
G1 X46.0417
G1 X47.3117 Y29.3727
G1 X54.5507
G1 X55.8207 Y28.145
G1 X56.2017
G1 X57.4717 Y29.3727
G1 X66.531
G1 X66.9967 Y28.907
G1 X67.3353 Y28.8223
G1 X67.547
G1 X67.8857 Y28.907
G1 X68.3937 Y29.415
G1 X68.4783 Y29.7537
G1 Y29.9653
G1 X68.3937 Y30.304
G1 X67.8857 Y30.812
G1 X67.547 Y30.8967
G1 X67.3353
G1 X66.9967 Y30.812
G1 X66.531 Y30.3463
G1 X57.0907 Y30.304
G1 X55.99 Y29.2457
G1 X54.9317 Y30.304
G1 X46.9307
G1 X45.8723 Y29.2457
G1 X44.7717 Y30.304
G1 X35.3313 Y30.3463
G1 X34.8657 Y30.812
G1 X34.527 Y30.8967
G1 X34.3153
G1 X33.9767 Y30.812
G1 X33.511 Y30.3463
G1 X31.3943
G1 X30.8017 Y30.9813
G1 X30.7593 Y33.5213
G1 X29.828 Y34.495
G1 Y48.7613
G1 X30.8017 Y49.6927
G1 X33.511
G1 X33.9767 Y49.227
G1 X34.3153 Y49.1423
G1 X34.527
G1 X34.8657 Y49.227
G1 X35.3313 Y49.6927
G1 X44.3907
G1 X45.6607 Y48.465
G1 X46.0417
G1 X47.3117 Y49.6927
G1 X54.5507
G1 X55.8207 Y48.465
G1 X56.2017
G1 X57.4717 Y49.6927
G1 X66.531
G1 X66.9967 Y49.227
G1 X67.3353 Y49.1423
G1 X67.547
G1 X67.8857 Y49.227
G1 X68.3513 Y49.6927
G1 X70.8067 Y49.735
G1 X72.3307 Y51.259
G1 Y56.72
G1 X71.4417 Y57.609
G1 X57.4717 Y57.6513
G1 X56.371 Y58.7097
G1 X56.4133 Y59.133
G1 X56.3287 Y59.514
G1 X55.8207 Y60.022
G1 X55.482 Y60.1067
G1 X55.2703
G1 X54.9317 Y60.022
G1 X54.466 Y59.5563
G1 X52.3917
G1 X50.8253 Y61.0803
G1 X34.9503 Y61.1227
G1 X31.733 Y64.2977
G1 Y68.3193
G1 X32.1987 Y68.785
G1 X32.2833 Y69.1237
G1 Y69.3353
G1 X32.1987 Y69.674
G1 X31.733 Y70.1397
G1 Y92.4493
G1 X32.1987 Y92.915
G1 X32.2833 Y93.2537
G1 Y93.4653
G1 X32.1987 Y93.804
G1 X31.733 Y94.2697
G1 Y114.0393
G1 X32.1987 Y114.505
G1 X32.2833 Y114.8437
G1 Y115.0553
G1 X32.1987 Y115.394
G1 X31.733 Y115.8597
G1 Y121.6593
G1 X32.1987 Y122.125
G1 X32.2833 Y122.4637
G1 Y122.6753
G1 X32.1987 Y123.014
G1 X31.6907 Y123.522
G1 X31.352 Y123.6067
G1 X31.0557
G1 X30.8017 Y123.522
G1 X30.2937 Y123.014
G1 X30.209 Y122.6753
G1 Y122.4637
G1 X30.2937 Y122.125
G1 X30.7593 Y121.6593
G1 Y115.8597
G1 X30.2937 Y115.394
G1 X30.209 Y115.0553
G1 Y114.8437
G1 X30.2937 Y114.505
G1 X30.7593 Y114.0393
G1 Y94.2697
G1 X30.2937 Y93.804
G1 X30.209 Y93.4653
G1 Y93.2537
G1 X30.2937 Y92.915
G1 X30.7593 Y92.4493
G1 Y70.1397
G1 X30.2937 Y69.674
G1 X30.209 Y69.3353
G1 Y69.1237
G1 X30.2937 Y68.785
G1 X30.7593 Y68.3193
G1 X30.8017 Y63.959
G1 X34.5693 Y60.1913
G1 X50.4443 Y60.149
G1 X52.0107 Y58.625
G1 X54.466 Y58.5827
G1 X54.9317 Y58.117
G1 X55.3127 Y58.0323
G1 X55.6937 Y58.0747
G1 X57.0907 Y56.72
G1 X71.0607 Y56.6777
G1 X71.3993 Y56.3813
G1 Y51.5977
G1 X70.4257 Y50.6663
G1 X68.3513
G1 X67.8857 Y51.132
G1 X67.547 Y51.2167
G1 X67.3353
G1 X66.9967 Y51.132
G1 X66.531 Y50.6663
G1 X57.0907 Y50.624
G1 X55.99 Y49.5657
G1 X54.9317 Y50.624
G1 X46.9307
G1 X45.8723 Y49.5657
G1 X44.7717 Y50.624
G1 X35.3313 Y50.6663
G1 X34.8657 Y51.132
G1 X34.527 Y51.2167
G1 X34.3153
G1 X33.9767 Y51.132
G1 X33.511 Y50.6663
G1 X30.4207 Y50.624
G1 X28.8967 Y49.1
G1 Y38.3865
G0 Z3.0
G0 X31.4139 Y35.8693
G0 Z1.275
G1 Z-0.125
G1 X30.9287 Y35.384
G1 X30.844 Y35.0453
G1 Y34.8337
G1 X30.9287 Y34.495
G1 X31.4367 Y33.987
G1 X31.7753 Y33.9023
G1 X31.987
G1 X32.3257 Y33.987
G1 X32.8337 Y34.495
G1 X32.9183 Y34.8337
G1 Y35.0453
G1 X32.8337 Y35.384
G1 X32.3257 Y35.892
G1 X31.987 Y35.9767
G1 X31.6907
G1 X31.4367 Y35.892
G1 X31.4139 Y35.8693
G0 Z3.0
G0 X33.462 Y35.3573
G0 Z1.275
G1 Z-0.125
G1 X33.384 Y35.0453
G1 Y34.8337
G1 X33.4687 Y34.495
G1 X33.9767 Y33.987
G1 X34.3153 Y33.9023
G1 X34.527
G1 X34.8657 Y33.987
G1 X35.3737 Y34.495
G1 X35.4583 Y34.8337
G1 Y35.0453
G1 X35.3737 Y35.384
G1 X34.8657 Y35.892
G1 X34.527 Y35.9767
G1 X34.2307
G1 X33.9767 Y35.892
G1 X33.4687 Y35.384
G1 X33.462 Y35.3573
G0 Z3.0
G0 X32.3257 Y33.352
G0 Z1.275
G1 Z-0.125
G1 X31.987 Y33.4367
G1 X31.7753
G1 X31.4367 Y33.352
G1 X30.9287 Y32.844
G1 X30.844 Y32.5053
G1 Y32.2937
G1 X30.9287 Y31.955
G1 X31.4367 Y31.447
G1 X31.7753 Y31.3623
G1 X31.987
G1 X32.3257 Y31.447
G1 X32.7913 Y31.9127
G1 X44.7717 Y31.955
G1 X45.83 Y33.0133
G1 X46.9307 Y31.955
G1 X54.9317
G1 X56.0323 Y33.0133
G1 X57.0907 Y31.955
G1 X69.071 Y31.9127
G1 X69.5367 Y31.447
G1 X69.8753 Y31.3623
G1 X70.087
G1 X70.4257 Y31.447
G1 X70.9337 Y31.955
G1 X71.0183 Y32.2937
G1 Y32.5053
G1 X70.9337 Y32.844
G1 X70.4257 Y33.352
G1 X70.087 Y33.4367
G1 X69.8753
G1 X69.5367 Y33.352
G1 X69.071 Y32.8863
G1 X57.4717
G1 X56.2017 Y34.114
G1 X55.8207
G1 X54.5507 Y32.8863
G1 X47.3117
G1 X46.0417 Y34.114
G1 X45.7453 Y34.1563
G1 X45.576 Y34.0717
G1 X44.433 Y32.8863
G1 X32.7913
G1 X32.3257 Y33.352
G0 Z3.0
G0 X36.0087 Y34.495
G0 Z1.275
G1 Z-0.125
G1 X36.5167 Y33.987
G1 X36.8553 Y33.9023
G1 X37.067
G1 X37.4057 Y33.987
G1 X37.9137 Y34.495
G1 X37.9983 Y34.8337
G1 Y35.0453
G1 X37.9137 Y35.384
G1 X37.4057 Y35.892
G1 X37.067 Y35.9767
G1 X36.7707
G1 X36.5167 Y35.892
G1 X36.0087 Y35.384
G1 X35.924 Y35.0453
G1 Y34.8337
G1 X36.0087 Y34.495
G0 Z3.0
G0 X38.464 Y34.8337
G0 Z1.275
G1 Z-0.125
G1 X38.5487 Y34.495
G1 X39.0567 Y33.987
G1 X39.3953 Y33.9023
G1 X39.607
G1 X39.9457 Y33.987
G1 X40.4537 Y34.495
G1 X40.5383 Y34.8337
G1 Y35.0453
G1 X40.4537 Y35.384
G1 X39.9457 Y35.892
G1 X39.607 Y35.9767
G1 X39.3107
G1 X39.0567 Y35.892
G1 X38.5487 Y35.384
G1 X38.464 Y35.0453
G1 Y34.8337
G0 Z3.0
G0 X41.004
G0 Z1.275
G1 Z-0.125
G1 X41.0887 Y34.495
G1 X41.5967 Y33.987
G1 X41.9353 Y33.9023
G1 X42.147
G1 X42.4857 Y33.987
G1 X42.9937 Y34.495
G1 X43.0783 Y34.8337
G1 Y35.0453
G1 X42.9937 Y35.384
G1 X42.4857 Y35.892
G1 X42.147 Y35.9767
G1 X41.8507
G1 X41.5967 Y35.892
G1 X41.0887 Y35.384
G1 X41.004 Y35.0453
G1 Y34.8337
G0 Z3.0
G0 X43.544
G0 Z1.275
G1 Z-0.125
G1 X43.6287 Y34.495
G1 X44.1367 Y33.987
G1 X44.4753 Y33.9023
G1 X44.687
G1 X45.0257 Y33.987
G1 X45.5337 Y34.495
G1 X45.6183 Y34.8337
G1 Y35.0453
G1 X45.5337 Y35.384
G1 X45.0257 Y35.892
G1 X44.687 Y35.9767
G1 X44.3907
G1 X44.1367 Y35.892
G1 X43.6287 Y35.384
G1 X43.544 Y35.0453
G1 Y34.8337
G0 Z3.0
G0 X46.084
G0 Z1.275
G1 Z-0.125
G1 X46.1687 Y34.495
G1 X46.6767 Y33.987
G1 X47.0153 Y33.9023
G1 X47.227
G1 X47.5657 Y33.987
G1 X48.0737 Y34.495
G1 X48.1583 Y34.8337
G1 Y35.0453
G1 X48.0737 Y35.384
G1 X47.5657 Y35.892
G1 X47.227 Y35.9767
G1 X46.9307
G1 X46.6767 Y35.892
G1 X46.1687 Y35.384
G1 X46.084 Y35.0453
G1 Y34.8337
G0 Z3.0
G0 X48.624
G0 Z1.275
G1 Z-0.125
G1 X48.7087 Y34.495
G1 X49.2167 Y33.987
G1 X49.5553 Y33.9023
G1 X49.767
G1 X50.1057 Y33.987
G1 X50.6137 Y34.495
G1 X50.6983 Y34.8337
G1 Y35.0453
G1 X50.6137 Y35.384
G1 X50.1057 Y35.892
G1 X49.767 Y35.9767
G1 X49.4707
G1 X49.2167 Y35.892
G1 X48.7087 Y35.384
G1 X48.624 Y35.0453
G1 Y34.8337
G0 Z3.0
G0 X49.2167 Y36.527
G0 Z1.275
G1 Z-0.125
G1 X49.5553 Y36.4423
G1 X49.767
G1 X50.1057 Y36.527
G1 X50.6137 Y37.035
G1 X50.6983 Y37.3737
G1 Y37.5853
G1 X50.6137 Y37.924
G1 X50.148 Y38.3897
G1 Y39.8713
G1 X51.1217 Y40.8027
G1 X53.831
G1 X54.2967 Y40.337
G1 X54.6353 Y40.2523
G1 X54.847
G1 X55.1857 Y40.337
G1 X55.6937 Y40.845
G1 X55.7783 Y41.1837
G1 Y41.3953
G1 X55.6937 Y41.734
G1 X55.1857 Y42.242
G1 X54.847 Y42.3267
G1 X54.5507
G1 X54.2967 Y42.242
G1 X53.831 Y41.7763
G1 X50.7407 Y41.734
G1 X49.2167 Y40.21
G1 X49.1743 Y38.3897
G1 X48.7087 Y37.924
G1 X48.624 Y37.5853
G1 Y37.3737
G1 X48.7087 Y37.035
G1 X49.2167 Y36.527
G0 Z3.0
G0 X47.735 Y37.9663
G0 Z1.275
G1 Z-0.125
G1 X47.9467 Y38.2203
G1 X48.116 Y38.559
G1 Y38.94
G1 X47.9043 Y39.3633
G1 X47.6503 Y39.575
G1 X47.3117 Y39.7443
G1 X46.9307
G1 X46.5073 Y39.5327
G1 X46.2957 Y39.2787
G1 X46.1263 Y38.94
G1 Y38.559
G1 X46.2957 Y38.2203
G1 X46.5073 Y37.9663
G1 X46.9307 Y37.7547
G1 X47.3117
G1 X47.735 Y37.9663
G0 Z3.0
G0 X45.576 Y38.559
G0 Z1.275
G1 Z-0.125
G1 Y38.94
G1 X45.3643 Y39.3633
G1 X45.1103 Y39.575
G1 X44.7717 Y39.7443
G1 X44.3907
G1 X43.9673 Y39.5327
G1 X43.7557 Y39.2787
G1 X43.5863 Y38.94
G1 Y38.559
G1 X43.7557 Y38.2203
G1 X43.9673 Y37.9663
G1 X44.3907 Y37.7547
G1 X44.7717
G1 X45.195 Y37.9663
G1 X45.4067 Y38.2203
G1 X45.576 Y38.559
G0 Z3.0
G0 Y42.8347
G0 Z1.275
G1 Z-0.125
G1 Y44.8243
G1 X43.5863
G1 Y42.8347
G1 X45.576
G0 Z3.0
G0 X46.1263
G0 Z1.275
G1 Z-0.125
G1 X48.116
G1 Y44.8243
G1 X46.1263
G1 Y42.8347
G0 Z3.0
G0 X47.0153 Y46.6023
G0 Z1.275
G1 Z-0.125
G1 X47.227
G1 X47.5657 Y46.687
G1 X48.0737 Y47.195
G1 X48.1583 Y47.5337
G1 Y47.7453
G1 X48.0737 Y48.084
G1 X47.5657 Y48.592
G1 X47.227 Y48.6767
G1 X46.9307
G1 X46.6767 Y48.592
G1 X46.1687 Y48.084
G1 X46.084 Y47.7453
G1 Y47.5337
G1 X46.1687 Y47.195
G1 X46.6767 Y46.687
G1 X47.0153 Y46.6023
G0 Z3.0
G0 X45.5337 Y47.195
G0 Z1.275
G1 Z-0.125
G1 X45.6183 Y47.5337
G1 Y47.7453
G1 X45.5337 Y48.084
G1 X45.0257 Y48.592
G1 X44.687 Y48.6767
G1 X44.3907
G1 X44.1367 Y48.592
G1 X43.6287 Y48.084
G1 X43.544 Y47.7453
G1 Y47.5337
G1 X43.6287 Y47.195
G1 X44.1367 Y46.687
G1 X44.4753 Y46.6023
G1 X44.687
G1 X45.0257 Y46.687
G1 X45.5337 Y47.195
G0 Z3.0
G0 X43.0783 Y47.5337
G0 Z1.275
G1 Z-0.125
G1 Y47.7453
G1 X42.9937 Y48.084
G1 X42.4857 Y48.592
G1 X42.147 Y48.6767
G1 X41.8507
G1 X41.5967 Y48.592
G1 X41.0887 Y48.084
G1 X41.004 Y47.7453
G1 Y47.5337
G1 X41.0887 Y47.195
G1 X41.5967 Y46.687
G1 X41.9353 Y46.6023
G1 X42.147
G1 X42.4857 Y46.687
G1 X42.9937 Y47.195
G1 X43.0783 Y47.5337
G0 Z3.0
G0 X40.5383
G0 Z1.275
G1 Z-0.125
G1 Y47.7453
G1 X40.4537 Y48.084
G1 X39.9457 Y48.592
G1 X39.607 Y48.6767
G1 X39.3107
G1 X39.0567 Y48.592
G1 X38.5487 Y48.084
G1 X38.464 Y47.7453
G1 Y47.5337
G1 X38.5487 Y47.195
G1 X39.0567 Y46.687
G1 X39.3953 Y46.6023
G1 X39.607
G1 X39.9457 Y46.687
G1 X40.4537 Y47.195
G1 X40.5383 Y47.5337
G0 Z3.0
G0 X37.9983
G0 Z1.275
G1 Z-0.125
G1 Y47.7453
G1 X37.9137 Y48.084
G1 X37.4057 Y48.592
G1 X37.067 Y48.6767
G1 X36.7707
G1 X36.5167 Y48.592
G1 X36.0087 Y48.084
G1 X35.924 Y47.7453
G1 Y47.5337
G1 X36.0087 Y47.195
G1 X36.5167 Y46.687
G1 X36.8553 Y46.6023
G1 X37.067
G1 X37.4057 Y46.687
G1 X37.9137 Y47.195
G1 X37.9983 Y47.5337
G0 Z3.0
G0 X35.4583
G0 Z1.275
G1 Z-0.125
G1 Y47.7453
G1 X35.3737 Y48.084
G1 X34.8657 Y48.592
G1 X34.527 Y48.6767
G1 X34.2307
G1 X33.9767 Y48.592
G1 X33.4687 Y48.084
G1 X33.384 Y47.7453
G1 Y47.5337
G1 X33.4687 Y47.195
G1 X33.9767 Y46.687
G1 X34.3153 Y46.6023
G1 X34.527
G1 X34.8657 Y46.687
G1 X35.3737 Y47.195
G1 X35.4583 Y47.5337
G0 Z3.0
G0 X32.9607
G0 Z1.275
G1 Z-0.125
G1 Y48.719
G1 X30.8017
G1 Y46.56
G1 X32.9607
G1 Y47.5337
G0 Z3.0
G0 X31.987 Y51.6823
G0 Z1.275
G1 Z-0.125
G1 X32.3257 Y51.767
G1 X32.7913 Y52.2327
G1 X44.7717 Y52.275
G1 X45.83 Y53.3333
G1 X46.9307 Y52.275
G1 X54.9317
G1 X56.0323 Y53.3333
G1 X57.0907 Y52.275
G1 X69.071 Y52.2327
G1 X69.5367 Y51.767
G1 X69.8753 Y51.6823
G1 X70.087
G1 X70.4257 Y51.767
G1 X70.9337 Y52.275
G1 X71.0183 Y52.6137
G1 Y52.8253
G1 X70.9337 Y53.164
G1 X70.4257 Y53.672
G1 X70.087 Y53.7567
G1 X69.8753
G1 X69.5367 Y53.672
G1 X69.071 Y53.2063
G1 X57.4717
G1 X56.2017 Y54.434
G1 X55.8207
G1 X54.5507 Y53.2063
G1 X47.3117
G1 X46.0417 Y54.434
G1 X45.7453 Y54.4763
G1 X45.576 Y54.3917
G1 X44.433 Y53.2063
G1 X32.7913
G1 X32.3257 Y53.672
G1 X31.987 Y53.7567
G1 X31.7753
G1 X31.4367 Y53.672
G1 X30.9287 Y53.164
G1 X30.844 Y52.8253
G1 Y52.6137
G1 X30.9287 Y52.275
G1 X31.4367 Y51.767
G1 X31.7753 Y51.6823
G1 X31.987
G0 Z3.0
G0 Y54.2223
G0 Z1.275
G1 Z-0.125
G1 X32.3257 Y54.307
G1 X32.8337 Y54.815
G1 X32.9183 Y55.1537
G1 Y55.3653
G1 X32.8337 Y55.704
G1 X32.3257 Y56.212
G1 X31.987 Y56.2967
G1 X31.6907
G1 X31.4367 Y56.212
G1 X30.9287 Y55.704
G1 X30.844 Y55.3653
G1 Y55.1537
G1 X30.9287 Y54.815
G1 X31.4367 Y54.307
G1 X31.7753 Y54.2223
G1 X31.987
G0 Z3.0
G0 X33.4687 Y54.815
G0 Z1.275
G1 Z-0.125
G1 X33.9767 Y54.307
G1 X34.3153 Y54.2223
G1 X34.527
G1 X34.8657 Y54.307
G1 X35.3737 Y54.815
G1 X35.4583 Y55.1537
G1 Y55.3653
G1 X35.3737 Y55.704
G1 X34.8657 Y56.212
G1 X34.527 Y56.2967
G1 X34.2307
G1 X33.9767 Y56.212
G1 X33.4687 Y55.704
G1 X33.384 Y55.3653
G1 Y55.1537
G1 X33.4687 Y54.815
G0 Z3.0
G0 X35.924 Y55.1537
G0 Z1.275
G1 Z-0.125
G1 X36.0087 Y54.815
G1 X36.5167 Y54.307
G1 X36.8553 Y54.2223
G1 X37.067
G1 X37.4057 Y54.307
G1 X37.9137 Y54.815
G1 X37.9983 Y55.1537
G1 Y55.3653
G1 X37.9137 Y55.704
G1 X37.4057 Y56.212
G1 X37.067 Y56.2967
G1 X36.7707
G1 X36.5167 Y56.212
G1 X36.0087 Y55.704
G1 X35.924 Y55.3653
G1 Y55.1537
G0 Z3.0
G0 X38.464
G0 Z1.275
G1 Z-0.125
G1 X38.5487 Y54.815
G1 X39.0567 Y54.307
G1 X39.3953 Y54.2223
G1 X39.607
G1 X39.9457 Y54.307
G1 X40.4537 Y54.815
G1 X40.5383 Y55.1537
G1 Y55.3653
G1 X40.4537 Y55.704
G1 X39.9457 Y56.212
G1 X39.607 Y56.2967
G1 X39.3107
G1 X39.0567 Y56.212
G1 X38.5487 Y55.704
G1 X38.464 Y55.3653
G1 Y55.1537
G0 Z3.0
G0 X41.004
G0 Z1.275
G1 Z-0.125
G1 X41.0887 Y54.815
G1 X41.5967 Y54.307
G1 X41.9353 Y54.2223
G1 X42.147
G1 X42.4857 Y54.307
G1 X42.9937 Y54.815
G1 X43.0783 Y55.1537
G1 Y55.3653
G1 X42.9937 Y55.704
G1 X42.4857 Y56.212
G1 X42.147 Y56.2967
G1 X41.8507
G1 X41.5967 Y56.212
G1 X41.0887 Y55.704
G1 X41.004 Y55.3653
G1 Y55.1537
G0 Z3.0
G0 X43.544
G0 Z1.275
G1 Z-0.125
G1 X43.6287 Y54.815
G1 X44.1367 Y54.307
G1 X44.4753 Y54.2223
G1 X44.687
G1 X45.0257 Y54.307
G1 X45.5337 Y54.815
G1 X45.6183 Y55.1537
G1 Y55.3653
G1 X45.5337 Y55.704
G1 X45.0257 Y56.212
G1 X44.687 Y56.2967
G1 X44.3907
G1 X44.1367 Y56.212
G1 X43.6287 Y55.704
G1 X43.544 Y55.3653
G1 Y55.1537
G0 Z3.0
G0 X46.084
G0 Z1.275
G1 Z-0.125
G1 X46.1687 Y54.815
G1 X46.6767 Y54.307
G1 X47.0153 Y54.2223
G1 X47.227
G1 X47.5657 Y54.307
G1 X48.0737 Y54.815
G1 X48.1583 Y55.1537
G1 Y55.3653
G1 X48.0737 Y55.704
G1 X47.5657 Y56.212
G1 X47.227 Y56.2967
G1 X46.9307
G1 X46.6767 Y56.212
G1 X46.1687 Y55.704
G1 X46.084 Y55.3653
G1 Y55.1537
G0 Z3.0
G0 X48.624
G0 Z1.275
G1 Z-0.125
G1 X48.7087 Y54.815
G1 X49.2167 Y54.307
G1 X49.5553 Y54.2223
G1 X49.767
G1 X50.1057 Y54.307
G1 X50.6137 Y54.815
G1 X50.6983 Y55.1537
G1 Y55.3653
G1 X50.6137 Y55.704
G1 X50.1057 Y56.212
G1 X49.767 Y56.2967
G1 X49.4707
G1 X49.2167 Y56.212
G1 X48.7087 Y55.704
G1 X48.624 Y55.3653
G1 Y55.1537
G0 Z3.0
G0 X51.164
G0 Z1.275
G1 Z-0.125
G1 X51.2487 Y54.815
G1 X51.7567 Y54.307
G1 X52.0953 Y54.2223
G1 X52.307
G1 X52.6457 Y54.307
G1 X53.1537 Y54.815
G1 X53.2383 Y55.1537
G1 Y55.3653
G1 X53.1537 Y55.704
G1 X52.6457 Y56.212
G1 X52.307 Y56.2967
G1 X52.0107
G1 X51.7567 Y56.212
G1 X51.2487 Y55.704
G1 X51.164 Y55.3653
G1 Y55.1537
G0 Z3.0
G0 X53.704
G0 Z1.275
G1 Z-0.125
G1 X53.7887 Y54.815
G1 X54.2967 Y54.307
G1 X54.6353 Y54.2223
G1 X54.847
G1 X55.1857 Y54.307
G1 X55.6937 Y54.815
G1 X55.7783 Y55.1537
G1 Y55.3653
G1 X55.6937 Y55.704
G1 X55.1857 Y56.212
G1 X54.847 Y56.2967
G1 X54.5507
G1 X54.2967 Y56.212
G1 X53.7887 Y55.704
G1 X53.704 Y55.3653
G1 Y55.1537
G0 Z3.0
G0 X56.244
G0 Z1.275
G1 Z-0.125
G1 X56.3287 Y54.815
G1 X56.8367 Y54.307
G1 X57.1753 Y54.2223
G1 X57.387
G1 X57.7257 Y54.307
G1 X58.2337 Y54.815
G1 X58.3183 Y55.1537
G1 Y55.3653
G1 X58.2337 Y55.704
G1 X57.7257 Y56.212
G1 X57.387 Y56.2967
G1 X57.0907
G1 X56.8367 Y56.212
G1 X56.3287 Y55.704
G1 X56.244 Y55.3653
G1 Y55.1537
G0 Z3.0
G0 X58.784
G0 Z1.275
G1 Z-0.125
G1 X58.8687 Y54.815
G1 X59.3767 Y54.307
G1 X59.7153 Y54.2223
G1 X59.927
G1 X60.2657 Y54.307
G1 X60.7737 Y54.815
G1 X60.8583 Y55.1537
G1 Y55.3653
G1 X60.7737 Y55.704
G1 X60.2657 Y56.212
G1 X59.927 Y56.2967
G1 X59.6307
G1 X59.3767 Y56.212
G1 X58.8687 Y55.704
G1 X58.784 Y55.3653
G1 Y55.1537
G0 Z3.0
G0 X61.324
G0 Z1.275
G1 Z-0.125
G1 X61.4087 Y54.815
G1 X61.9167 Y54.307
G1 X62.2553 Y54.2223
G1 X62.467
G1 X62.8057 Y54.307
G1 X63.3137 Y54.815
G1 X63.3983 Y55.1537
G1 Y55.3653
G1 X63.3137 Y55.704
G1 X62.8057 Y56.212
G1 X62.467 Y56.2967
G1 X62.1707
G1 X61.9167 Y56.212
G1 X61.4087 Y55.704
G1 X61.324 Y55.3653
G1 Y55.1537
G0 Z3.0
G0 X63.864
G0 Z1.275
G1 Z-0.125
G1 X63.9487 Y54.815
G1 X64.4567 Y54.307
G1 X64.7953 Y54.2223
G1 X65.007
G1 X65.3457 Y54.307
G1 X65.8537 Y54.815
G1 X65.9383 Y55.1537
G1 Y55.3653
G1 X65.8537 Y55.704
G1 X65.3457 Y56.212
G1 X65.007 Y56.2967
G1 X64.7107
G1 X64.4567 Y56.212
G1 X63.9487 Y55.704
G1 X63.864 Y55.3653
G1 Y55.1537
G0 Z3.0
G0 X66.404
G0 Z1.275
G1 Z-0.125
G1 X66.4887 Y54.815
G1 X66.9967 Y54.307
G1 X67.3353 Y54.2223
G1 X67.547
G1 X67.8857 Y54.307
G1 X68.3937 Y54.815
G1 X68.4783 Y55.1537
G1 Y55.3653
G1 X68.3937 Y55.704
G1 X67.8857 Y56.212
G1 X67.547 Y56.2967
G1 X67.2507
G1 X66.9967 Y56.212
G1 X66.4887 Y55.704
G1 X66.404 Y55.3653
G1 Y55.1537
G0 Z3.0
G0 X68.9017
G0 Z1.275
G1 Z-0.125
G1 Y54.18
G1 X71.0607
G1 Y56.339
G1 X68.9017
G1 Y55.1537
G0 Z3.0
G0 X74.5743
G0 Z1.275
G1 Z-0.125
G1 Y52.3597
G1 X74.1087 Y51.894
G1 X74.024 Y51.5553
G1 Y51.3437
G1 X74.1087 Y51.005
G1 X74.5743 Y50.5393
G1 Y32.0397
G1 X74.1087 Y31.574
G1 X74.024 Y31.2353
G1 Y31.0237
G1 X74.1087 Y30.685
G1 X74.6167 Y30.177
G1 X74.9553 Y30.0923
G1 X75.167
G1 X75.5057 Y30.177
G1 X76.0137 Y30.685
G1 X76.0983 Y31.0237
G1 Y31.2353
G1 X76.0137 Y31.574
G1 X75.548 Y32.0397
G1 Y50.5393
G1 X76.0137 Y51.005
G1 X76.0983 Y51.3437
G1 Y51.5553
G1 X76.0137 Y51.894
G1 X75.548 Y52.3597
G1 X75.5057 Y57.99
G1 X70.8067 Y62.689
G1 X60.0117 Y62.7313
G1 X59.673 Y63.0277
G1 Y126.1043
G1 X60.1387 Y126.57
G1 X60.2233 Y126.9087
G1 Y127.1203
G1 X60.1387 Y127.459
G1 X59.6307 Y127.967
G1 X59.292 Y128.0517
G1 X58.9957
G1 X58.7417 Y127.967
G1 X58.2337 Y127.459
G1 X58.149 Y127.1203
G1 Y126.9087
G1 X58.2337 Y126.57
G1 X58.6993 Y126.1043
G1 X58.7417 Y62.689
G1 X59.6307 Y61.8
G1 X70.4257 Y61.7577
G1 X74.5743 Y57.6513
G1 Y55.1537
G0 Z3.0
G0 X75.929
G0 Z1.275
G1 Z-0.125
G1 X76.0137 Y54.815
G1 X76.5217 Y54.307
G1 X76.8603 Y54.2223
G1 X77.072
G1 X77.4107 Y54.307
G1 X77.9187 Y54.815
G1 X78.0033 Y55.1537
G1 Y55.3653
G1 X77.9187 Y55.704
G1 X77.4107 Y56.212
G1 X77.072 Y56.2967
G1 X76.7757
G1 X76.5217 Y56.212
G1 X76.0137 Y55.704
G1 X75.929 Y55.3653
G1 Y55.1537
G0 Z3.0
G0 X76.5217 Y53.672
G0 Z1.275
G1 Z-0.125
G1 X76.0137 Y53.164
G1 X75.929 Y52.8253
G1 Y52.6137
G1 X76.0137 Y52.275
G1 X76.5217 Y51.767
G1 X76.8603 Y51.6823
G1 X77.072
G1 X77.4107 Y51.767
G1 X77.9187 Y52.275
G1 X78.0033 Y52.6137
G1 Y52.8253
G1 X77.9187 Y53.164
G1 X77.4107 Y53.672
G1 X77.072 Y53.7567
G1 X76.7757
G1 X76.5217 Y53.672
G0 Z3.0
G0 X78.469
G0 Z1.275
G1 Z-0.125
G1 Y51.6823
G1 X80.5433
G1 Y53.7567
G1 X78.469
G1 Y53.672
G0 Z3.0
G0 Y54.2223
G0 Z1.275
G1 Z-0.125
G1 X80.5433
G1 Y56.2967
G1 X78.469
G1 Y54.2223
G0 Z3.0
G0 Y56.7623
G0 Z1.275
G1 Z-0.125
G1 X80.5433
G1 Y58.8367
G1 X78.469
G1 Y56.7623
G0 Z3.0
G0 X77.8975 Y57.3338
G0 Z1.275
G1 Z-0.125
G1 X77.9187 Y57.355
G1 X78.0033 Y57.6937
G1 Y57.9053
G1 X77.9187 Y58.244
G1 X77.4107 Y58.752
G1 X77.072 Y58.8367
G1 X76.7757
G1 X76.5217 Y58.752
G1 X76.0137 Y58.244
G1 X75.929 Y57.9053
G1 Y57.6937
G1 X76.0137 Y57.355
G1 X76.5217 Y56.847
G1 X76.8603 Y56.7623
G1 X77.072
G1 X77.4107 Y56.847
G1 X77.8975 Y57.3338
G0 Z3.0
G0 X78.469 Y59.3023
G0 Z1.275
G1 Z-0.125
G1 X80.5433
G1 Y61.3767
G1 X78.469
G1 Y59.3023
G0 Z3.0
G0 X77.8975 Y59.8738
G0 Z1.275
G1 Z-0.125
G1 X77.9187 Y59.895
G1 X78.0033 Y60.2337
G1 Y60.4453
G1 X77.9187 Y60.784
G1 X77.4107 Y61.292
G1 X77.072 Y61.3767
G1 X76.7757
G1 X76.5217 Y61.292
G1 X76.0137 Y60.784
G1 X75.929 Y60.4453
G1 Y60.2337
G1 X76.0137 Y59.895
G1 X76.5217 Y59.387
G1 X76.8603 Y59.3023
G1 X77.072
G1 X77.4107 Y59.387
G1 X77.8975 Y59.8738
G0 Z3.0
G0 X78.469 Y51.2167
G0 Z1.275
G1 Z-0.125
G1 Y49.1423
G1 X80.5433
G1 Y51.2167
G1 X78.469
G0 Z3.0
G0 X77.8975 Y50.6452
G0 Z1.275
G1 Z-0.125
G1 X77.4107 Y51.132
G1 X77.072 Y51.2167
G1 X76.7757
G1 X76.5217 Y51.132
G1 X76.0137 Y50.624
G1 X75.929 Y50.2853
G1 Y50.0737
G1 X76.0137 Y49.735
G1 X76.5217 Y49.227
G1 X76.8603 Y49.1423
G1 X77.072
G1 X77.4107 Y49.227
G1 X77.9187 Y49.735
G1 X78.0033 Y50.0737
G1 Y50.2853
G1 X77.9187 Y50.624
G1 X77.8975 Y50.6452
G0 Z3.0
G0 X78.469 Y48.6767
G0 Z1.275
G1 Z-0.125
G1 Y46.6023
G1 X80.5433
G1 Y48.6767
G1 X78.469
G0 Z3.0
G0 X77.8975 Y48.1052
G0 Z1.275
G1 Z-0.125
G1 X77.4107 Y48.592
G1 X77.072 Y48.6767
G1 X76.7757
G1 X76.5217 Y48.592
G1 X76.0137 Y48.084
G1 X75.929 Y47.7453
G1 Y47.5337
G1 X76.0137 Y47.195
G1 X76.5217 Y46.687
G1 X76.8603 Y46.6023
G1 X77.072
G1 X77.4107 Y46.687
G1 X77.9187 Y47.195
G1 X78.0033 Y47.5337
G1 Y47.7453
G1 X77.9187 Y48.084
G1 X77.8975 Y48.1052
G0 Z3.0
G0 X78.469 Y46.1367
G0 Z1.275
G1 Z-0.125
G1 Y44.0623
G1 X80.5433
G1 Y46.1367
G1 X78.469
G0 Z3.0
G0 X77.8975 Y45.5652
G0 Z1.275
G1 Z-0.125
G1 X77.4107 Y46.052
G1 X77.072 Y46.1367
G1 X76.7757
G1 X76.5217 Y46.052
G1 X76.0137 Y45.544
G1 X75.929 Y45.2053
G1 Y44.9937
G1 X76.0137 Y44.655
G1 X76.5217 Y44.147
G1 X76.8603 Y44.0623
G1 X77.072
G1 X77.4107 Y44.147
G1 X77.9187 Y44.655
G1 X78.0033 Y44.9937
G1 Y45.2053
G1 X77.9187 Y45.544
G1 X77.8975 Y45.5652
G0 Z3.0
G0 Y43.639
G0 Z1.275
G1 Z-0.125
G1 X75.8867
G1 Y41.48
G1 X78.0457
G1 Y43.639
G1 X77.8975
G0 Z3.0
G0 X78.469 Y43.5967
G0 Z1.275
G1 Z-0.125
G1 Y41.5223
G1 X80.5433
G1 Y43.5967
G1 X78.469
G0 Z3.0
G0 Y41.0567
G0 Z1.275
G1 Z-0.125
G1 Y38.9823
G1 X80.5433
G1 Y41.0567
G1 X78.469
G0 Z3.0
G0 X77.8975 Y40.4852
G0 Z1.275
G1 Z-0.125
G1 X77.4107 Y40.972
G1 X77.072 Y41.0567
G1 X76.7757
G1 X76.5217 Y40.972
G1 X76.0137 Y40.464
G1 X75.929 Y40.1253
G1 Y39.9137
G1 X76.0137 Y39.575
G1 X76.5217 Y39.067
G1 X76.8603 Y38.9823
G1 X77.072
G1 X77.4107 Y39.067
G1 X77.9187 Y39.575
G1 X78.0033 Y39.9137
G1 Y40.1253
G1 X77.9187 Y40.464
G1 X77.8975 Y40.4852
G0 Z3.0
G0 X78.469 Y38.5167
G0 Z1.275
G1 Z-0.125
G1 Y36.4423
G1 X80.5433
G1 Y38.5167
G1 X78.469
G0 Z3.0
G0 X77.8975 Y37.9452
G0 Z1.275
G1 Z-0.125
G1 X77.4107 Y38.432
G1 X77.072 Y38.5167
G1 X76.7757
G1 X76.5217 Y38.432
G1 X76.0137 Y37.924
G1 X75.929 Y37.5853
G1 Y37.3737
G1 X76.0137 Y37.035
G1 X76.5217 Y36.527
G1 X76.8603 Y36.4423
G1 X77.072
G1 X77.4107 Y36.527
G1 X77.9187 Y37.035
G1 X78.0033 Y37.3737
G1 Y37.5853
G1 X77.9187 Y37.924
G1 X77.8975 Y37.9452
G0 Z3.0
G0 X78.469 Y35.9767
G0 Z1.275
G1 Z-0.125
G1 Y33.9023
G1 X80.5433
G1 Y35.9767
G1 X78.469
G0 Z3.0
G0 X77.8975 Y35.4052
G0 Z1.275
G1 Z-0.125
G1 X77.4107 Y35.892
G1 X77.072 Y35.9767
G1 X76.7757
G1 X76.5217 Y35.892
G1 X76.0137 Y35.384
G1 X75.929 Y35.0453
G1 Y34.8337
G1 X76.0137 Y34.495
G1 X76.5217 Y33.987
G1 X76.8603 Y33.9023
G1 X77.072
G1 X77.4107 Y33.987
G1 X77.9187 Y34.495
G1 X78.0033 Y34.8337
G1 Y35.0453
G1 X77.9187 Y35.384
G1 X77.8975 Y35.4052
G0 Z3.0
G0 X78.469 Y33.4367
G0 Z1.275
G1 Z-0.125
G1 Y31.3623
G1 X80.5433
G1 Y33.4367
G1 X78.469
G0 Z3.0
G0 X77.8975 Y32.8652
G0 Z1.275
G1 Z-0.125
G1 X77.4107 Y33.352
G1 X77.072 Y33.4367
G1 X76.7757
G1 X76.5217 Y33.352
G1 X76.0137 Y32.844
G1 X75.929 Y32.5053
G1 Y32.2937
G1 X76.0137 Y31.955
G1 X76.5217 Y31.447
G1 X76.8603 Y31.3623
G1 X77.072
G1 X77.4107 Y31.447
G1 X77.9187 Y31.955
G1 X78.0033 Y32.2937
G1 Y32.5053
G1 X77.9187 Y32.844
G1 X77.8975 Y32.8652
G0 Z3.0
G0 X78.469 Y30.8967
G0 Z1.275
G1 Z-0.125
G1 Y28.8223
G1 X80.5433
G1 Y30.8967
G1 X78.469
G0 Z3.0
G0 X77.8975 Y30.3252
G0 Z1.275
G1 Z-0.125
G1 X77.4107 Y30.812
G1 X77.072 Y30.8967
G1 X76.7757
G1 X76.5217 Y30.812
G1 X76.0137 Y30.304
G1 X75.929 Y29.9653
G1 Y29.7537
G1 X76.0137 Y29.415
G1 X76.5217 Y28.907
G1 X76.8603 Y28.8223
G1 X77.072
G1 X77.4107 Y28.907
G1 X77.9187 Y29.415
G1 X78.0033 Y29.7537
G1 Y29.9653
G1 X77.9187 Y30.304
G1 X77.8975 Y30.3252
G0 Z3.0
G0 X78.469 Y28.3567
G0 Z1.275
G1 Z-0.125
G1 Y26.2823
G1 X80.5433
G1 Y28.3567
G1 X78.469
G0 Z3.0
G0 X77.8975 Y27.7852
G0 Z1.275
G1 Z-0.125
G1 X77.4107 Y28.272
G1 X77.072 Y28.3567
G1 X76.7757
G1 X76.5217 Y28.272
G1 X76.0137 Y27.764
G1 X75.929 Y27.4253
G1 Y27.2137
G1 X76.0137 Y26.875
G1 X76.5217 Y26.367
G1 X76.8603 Y26.2823
G1 X77.072
G1 X77.4107 Y26.367
G1 X77.9187 Y26.875
G1 X78.0033 Y27.2137
G1 Y27.4253
G1 X77.9187 Y27.764
G1 X77.8975 Y27.7852
G0 Z3.0
G0 X78.469 Y25.8167
G0 Z1.275
G1 Z-0.125
G1 Y23.7423
G1 X80.5433
G1 Y25.8167
G1 X78.469
G0 Z3.0
G0 X77.8975 Y25.2452
G0 Z1.275
G1 Z-0.125
G1 X77.4107 Y25.732
G1 X77.072 Y25.8167
G1 X76.7757
G1 X76.5217 Y25.732
G1 X76.0137 Y25.224
G1 X75.929 Y24.8853
G1 Y24.6737
G1 X76.0137 Y24.335
G1 X76.5217 Y23.827
G1 X76.8603 Y23.7423
G1 X77.072
G1 X77.4107 Y23.827
G1 X77.9187 Y24.335
G1 X78.0033 Y24.6737
G1 Y24.8853
G1 X77.9187 Y25.224
G1 X77.8975 Y25.2452
G0 Z3.0
G0 Y23.319
G0 Z1.275
G1 Z-0.125
G1 X75.8867
G1 Y21.16
G1 X78.0457
G1 Y23.319
G1 X77.8975
G0 Z3.0
G0 X78.469 Y23.2767
G0 Z1.275
G1 Z-0.125
G1 Y21.2023
G1 X80.5433
G1 Y23.2767
G1 X78.469
G0 Z3.0
G0 X70.9337 Y26.875
G0 Z1.275
G1 Z-0.125
G1 X71.0183 Y27.2137
G1 Y27.4253
G1 X70.9337 Y27.764
G1 X70.4257 Y28.272
G1 X70.087 Y28.3567
G1 X69.7907
G1 X69.5367 Y28.272
G1 X69.0287 Y27.764
G1 X68.944 Y27.4253
G1 Y27.2137
G1 X69.0287 Y26.875
G1 X69.5367 Y26.367
G1 X69.8753 Y26.2823
G1 X70.087
G1 X70.4257 Y26.367
G1 X70.9337 Y26.875
G0 Z3.0
G0 X68.4783 Y27.2137
G0 Z1.275
G1 Z-0.125
G1 Y27.4253
G1 X68.3937 Y27.764
G1 X67.8857 Y28.272
G1 X67.547 Y28.3567
G1 X67.2507
G1 X66.9967 Y28.272
G1 X66.4887 Y27.764
G1 X66.404 Y27.4253
G1 Y27.2137
G1 X66.4887 Y26.875
G1 X66.9967 Y26.367
G1 X67.3353 Y26.2823
G1 X67.547
G1 X67.8857 Y26.367
G1 X68.3937 Y26.875
G1 X68.4783 Y27.2137
G0 Z3.0
G0 X65.9383
G0 Z1.275
G1 Z-0.125
G1 Y27.4253
G1 X65.8537 Y27.764
G1 X65.3457 Y28.272
G1 X65.007 Y28.3567
G1 X64.7107
G1 X64.4567 Y28.272
G1 X63.9487 Y27.764
G1 X63.864 Y27.4253
G1 Y27.2137
G1 X63.9487 Y26.875
G1 X64.4567 Y26.367
G1 X64.7953 Y26.2823
G1 X65.007
G1 X65.3457 Y26.367
G1 X65.8537 Y26.875
G1 X65.9383 Y27.2137
G0 Z3.0
G0 X63.3983
G0 Z1.275
G1 Z-0.125
G1 Y27.4253
G1 X63.3137 Y27.764
G1 X62.8057 Y28.272
G1 X62.467 Y28.3567
G1 X62.1707
G1 X61.9167 Y28.272
G1 X61.4087 Y27.764
G1 X61.324 Y27.4253
G1 Y27.2137
G1 X61.4087 Y26.875
G1 X61.9167 Y26.367
G1 X62.2553 Y26.2823
G1 X62.467
G1 X62.8057 Y26.367
G1 X63.3137 Y26.875
G1 X63.3983 Y27.2137
G0 Z3.0
G0 X60.8583
G0 Z1.275
G1 Z-0.125
G1 Y27.4253
G1 X60.7737 Y27.764
G1 X60.2657 Y28.272
G1 X59.927 Y28.3567
G1 X59.6307
G1 X59.3767 Y28.272
G1 X58.8687 Y27.764
G1 X58.784 Y27.4253
G1 Y27.2137
G1 X58.8687 Y26.875
G1 X59.3767 Y26.367
G1 X59.7153 Y26.2823
G1 X59.927
G1 X60.2657 Y26.367
G1 X60.7737 Y26.875
G1 X60.8583 Y27.2137
G0 Z3.0
G0 X58.3183
G0 Z1.275
G1 Z-0.125
G1 Y27.4253
G1 X58.2337 Y27.764
G1 X57.7257 Y28.272
G1 X57.387 Y28.3567
G1 X57.0907
G1 X56.8367 Y28.272
G1 X56.3287 Y27.764
G1 X56.244 Y27.4253
G1 Y27.2137
G1 X56.3287 Y26.875
G1 X56.8367 Y26.367
G1 X57.1753 Y26.2823
G1 X57.387
G1 X57.7257 Y26.367
G1 X58.2337 Y26.875
G1 X58.3183 Y27.2137
G0 Z3.0
G0 X55.7783
G0 Z1.275
G1 Z-0.125
G1 Y27.4253
G1 X55.6937 Y27.764
G1 X55.1857 Y28.272
G1 X54.847 Y28.3567
G1 X54.5507
G1 X54.2967 Y28.272
G1 X53.7887 Y27.764
G1 X53.704 Y27.4253
G1 Y27.2137
G1 X53.7887 Y26.875
G1 X54.2967 Y26.367
G1 X54.6353 Y26.2823
G1 X54.847
G1 X55.1857 Y26.367
G1 X55.6937 Y26.875
G1 X55.7783 Y27.2137
G0 Z3.0
G0 X53.2383
G0 Z1.275
G1 Z-0.125
G1 Y27.4253
G1 X53.1537 Y27.764
G1 X52.6457 Y28.272
G1 X52.307 Y28.3567
G1 X52.0107
G1 X51.7567 Y28.272
G1 X51.2487 Y27.764
G1 X51.164 Y27.4253
G1 Y27.2137
G1 X51.2487 Y26.875
G1 X51.7567 Y26.367
G1 X52.0953 Y26.2823
G1 X52.307
G1 X52.6457 Y26.367
G1 X53.1537 Y26.875
G1 X53.2383 Y27.2137
G0 Z3.0
G0 X50.6983
G0 Z1.275
G1 Z-0.125
G1 Y27.4253
G1 X50.6137 Y27.764
G1 X50.1057 Y28.272
G1 X49.767 Y28.3567
G1 X49.4707
G1 X49.2167 Y28.272
G1 X48.7087 Y27.764
G1 X48.624 Y27.4253
G1 Y27.2137
G1 X48.7087 Y26.875
G1 X49.2167 Y26.367
G1 X49.5553 Y26.2823
G1 X49.767
G1 X50.1057 Y26.367
G1 X50.6137 Y26.875
G1 X50.6983 Y27.2137
G0 Z3.0
G0 X48.1583
G0 Z1.275
G1 Z-0.125
G1 Y27.4253
G1 X48.0737 Y27.764
G1 X47.5657 Y28.272
G1 X47.227 Y28.3567
G1 X46.9307
G1 X46.6767 Y28.272
G1 X46.1687 Y27.764
G1 X46.084 Y27.4253
G1 Y27.2137
G1 X46.1687 Y26.875
G1 X46.6767 Y26.367
G1 X47.0153 Y26.2823
G1 X47.227
G1 X47.5657 Y26.367
G1 X48.0737 Y26.875
G1 X48.1583 Y27.2137
G0 Z3.0
G0 X45.6183
G0 Z1.275
G1 Z-0.125
G1 Y27.4253
G1 X45.5337 Y27.764
G1 X45.0257 Y28.272
G1 X44.687 Y28.3567
G1 X44.3907
G1 X44.1367 Y28.272
G1 X43.6287 Y27.764
G1 X43.544 Y27.4253
G1 Y27.2137
G1 X43.6287 Y26.875
G1 X44.1367 Y26.367
G1 X44.4753 Y26.2823
G1 X44.687
G1 X45.0257 Y26.367
G1 X45.5337 Y26.875
G1 X45.6183 Y27.2137
G0 Z3.0
G0 X43.0783
G0 Z1.275
G1 Z-0.125
G1 Y27.4253
G1 X42.9937 Y27.764
G1 X42.4857 Y28.272
G1 X42.147 Y28.3567
G1 X41.8507
G1 X41.5967 Y28.272
G1 X41.0887 Y27.764
G1 X41.004 Y27.4253
G1 Y27.2137
G1 X41.0887 Y26.875
G1 X41.5967 Y26.367
G1 X41.9353 Y26.2823
G1 X42.147
G1 X42.4857 Y26.367
G1 X42.9937 Y26.875
G1 X43.0783 Y27.2137
G0 Z3.0
G0 X40.5383
G0 Z1.275
G1 Z-0.125
G1 Y27.4253
G1 X40.4537 Y27.764
G1 X39.9457 Y28.272
G1 X39.607 Y28.3567
G1 X39.3107
G1 X39.0567 Y28.272
G1 X38.5487 Y27.764
G1 X38.464 Y27.4253
G1 Y27.2137
G1 X38.5487 Y26.875
G1 X39.0567 Y26.367
G1 X39.3953 Y26.2823
G1 X39.607
G1 X39.9457 Y26.367
G1 X40.4537 Y26.875
G1 X40.5383 Y27.2137
