( Made using CamBam - http://www.cambam.co.uk )
( midi_organ_v0.2_mm.gcode.drill 6/4/2014 11:39:58 PM )
( T0 : 0.0 )
G21 G90 G64 G40
G0 Z3.0
( T0 : 0.0 )
T0 M6
( 0.9 )
G17
M3 S1000
G0 X77.8871 Y174.5275
G98
G81 X77.8871 Y174.5275 Z-1.55 R3.0 F300.0
G81 X75.1439 Z-1.55
G81 X72.4007 Z-1.55
G81 X69.6575 Z-1.55
G81 X66.9143 Z-1.55
G81 X68.2859 Y177.3723 Z-1.55
G81 X71.0291 Z-1.55
G81 X73.7723 Z-1.55
G81 X76.5155 Z-1.55
G81 X87.2851 Y170.8699 Z-1.55
G81 Y168.3299 Z-1.55
G81 Y165.7899 Z-1.55
G81 Y163.2499 Z-1.55
G81 Y160.7099 Z-1.55
G81 Y158.1699 Z-1.55
G81 Y155.6299 Z-1.55
G81 Y153.0899 Z-1.55
G81 X89.8251 Y126.4199 Z-1.55
G81 Y123.8799 Z-1.55
G81 Y121.3399 Z-1.55
G81 Y118.7999 Z-1.55
G81 Y116.2599 Z-1.55
G81 Y113.7199 Z-1.55
G81 Y111.1799 Z-1.55
G81 Y108.6399 Z-1.55
G81 Y104.8299 Z-1.55
G81 Y102.2899 Z-1.55
G81 Y99.7499 Z-1.55
G81 Y97.2099 Z-1.55
G81 Y94.6699 Z-1.55
G81 Y92.1299 Z-1.55
G81 Y89.5899 Z-1.55
G81 Y87.0499 Z-1.55
G81 Y83.2399 Z-1.55
G81 Y80.6999 Z-1.55
G81 Y78.1599 Z-1.55
G81 Y75.6199 Z-1.55
G81 Y73.0799 Z-1.55
G81 Y70.5399 Z-1.55
G81 Y67.9999 Z-1.55
G81 Y65.4599 Z-1.55
G81 X77.1251 Y60.3799 Z-1.55
G81 Y57.8399 Z-1.55
G81 Y55.2999 Z-1.55
G81 Y52.7599 Z-1.55
G81 Y50.2199 Z-1.55
G81 Y47.6799 Z-1.55
G81 Y45.1399 Z-1.55
G81 Y42.5999 Z-1.55
G81 Y40.0599 Z-1.55
G81 Y37.5199 Z-1.55
G81 Y34.9799 Z-1.55
G81 Y32.4399 Z-1.55
G81 Y29.8999 Z-1.55
G81 Y27.3599 Z-1.55
G81 Y24.8199 Z-1.55
G81 Y22.2799 Z-1.55
G81 X25.0551 Z-1.55
G81 Y24.8199 Z-1.55
G81 Y27.3599 Z-1.55
G81 Y29.8999 Z-1.55
G81 Y32.4399 Z-1.55
G81 Y34.9799 Z-1.55
G81 Y37.5199 Z-1.55
G81 Y40.0599 Z-1.55
G81 Y42.5999 Z-1.55
G81 Y45.1399 Z-1.55
G81 Y47.6799 Z-1.55
G81 Y50.2199 Z-1.55
G81 Y52.7599 Z-1.55
G81 Y55.2999 Z-1.55
G81 Y57.8399 Z-1.55
G81 Y60.3799 Z-1.55
G81 X35.2151 Y65.4599 Z-1.55
G81 Y67.9999 Z-1.55
G81 Y70.5399 Z-1.55
G81 Y73.0799 Z-1.55
G81 Y75.6199 Z-1.55
G81 Y78.1599 Z-1.55
G81 Y80.6999 Z-1.55
G81 Y83.2399 Z-1.55
G81 Y87.0499 Z-1.55
G81 Y89.5899 Z-1.55
G81 Y92.1299 Z-1.55
G81 Y94.6699 Z-1.55
G81 Y97.2099 Z-1.55
G81 Y99.7499 Z-1.55
G81 Y102.2899 Z-1.55
G81 Y104.8299 Z-1.55
G81 Y108.6399 Z-1.55
G81 Y111.1799 Z-1.55
G81 Y113.7199 Z-1.55
G81 Y116.2599 Z-1.55
G81 Y118.7999 Z-1.55
G81 Y121.3399 Z-1.55
G81 Y123.8799 Z-1.55
G81 Y126.4199 Z-1.55
G81 X38.3901 Y133.4049 Z-1.55
G81 Y135.9449 Z-1.55
G81 X40.9301 Z-1.55
G81 Y133.4049 Z-1.55
G81 Y138.4849 Z-1.55
G81 X38.3901 Z-1.55
G81 X40.9301 Y143.5649 Z-1.55
G81 Y146.1049 Z-1.55
G81 Y148.6449 Z-1.55
G81 X32.6751 Y142.2949 Z-1.55
G81 X28.1793 Z-1.55
G81 Y135.7925 Z-1.55
G81 X32.6751 Z-1.55
G81 X20.6566 Y135.7117 Z-1.55
G81 X18.1166 Z-1.55
G81 X15.5766 Z-1.55
G81 X16.8001 Y158.8049 Z-1.55
G81 X19.3401 Z-1.55
G81 X21.8801 Z-1.55
G81 X24.4201 Z-1.55
G81 X26.9601 Z-1.55
G81 X29.5001 Z-1.55
G81 X32.0401 Z-1.55
G81 X34.5801 Z-1.55
G81 X37.1201 Z-1.55
G81 Y166.4249 Z-1.55
G81 X34.5801 Z-1.55
G81 X32.0401 Z-1.55
G81 X29.5001 Z-1.55
G81 X26.9601 Z-1.55
G81 X24.4201 Z-1.55
G81 X21.8801 Z-1.55
G81 X19.3401 Z-1.55
G81 X16.8001 Z-1.55
G81 X14.2601 Z-1.55
G81 Y158.8049 Z-1.55
G81 X36.4851 Y172.7749 Z-1.55
G81 X39.0251 Y170.2349 Z-1.55
G81 X44.1051 Y172.7749 Z-1.55
G81 X49.1851 Y170.2349 Z-1.55
G81 X51.7251 Y172.7749 Z-1.55
G81 X58.7101 Y133.4049 Z-1.55
G81 X61.2501 Z-1.55
G81 X63.7901 Z-1.55
G81 X66.3301 Z-1.55
G81 X68.8701 Z-1.55
G80
G0 Z3.0
M5
M30
