( Made using CamBam - http://www.cambam.co.uk )
( midi_out_connector.gcode.all 6/5/2014 4:05:18 PM )
( T0 : 0.0 )
G21 G90 G64 G40
G0 Z3.0
( T0 : 0.0 )
T0 M6
( 0.9 )
G17
M3 S1000
G0 X26.26 Y68.8
G98
G81 X26.26 Y68.8 Z-1.55 R3.0 F300.0
G81 Y71.34 Z-1.55
G81 Y73.88 Z-1.55
G81 X33.88 Z-1.55
G81 Y71.34 Z-1.55
G81 Y68.8 Z-1.55
G81 Y45.88 Z-1.55
G81 Y43.34 Z-1.55
G81 Y40.8 Z-1.55
G81 X26.26 Z-1.55
G81 Y43.34 Z-1.55
G81 Y45.88 Z-1.55
G81 Y17.88 Z-1.55
G81 Y15.34 Z-1.55
G81 Y12.8 Z-1.55
G81 X33.88 Z-1.55
G81 Y15.34 Z-1.55
G81 Y17.88 Z-1.55
G80
( 1.15 0.9  )
S1000
G0 Z3.0
G0 X5.94
G0 Z3.0
G0 X6.265 Y17.88
G0 Z1.0
G1 F300.0 Z0.0
G2 F100.0 X5.7775 Y17.5985 Z-0.2 I-0.325 J0.0
G2 Y18.1615 Z-0.4 I0.1625 J0.2815
G2 X6.265 Y17.88 Z-0.6 I0.1625 J-0.2815
G2 X5.7775 Y17.5985 Z-0.8 I-0.325 J0.0
G2 Y18.1615 Z-1.0 I0.1625 J0.2815
G2 X6.265 Y17.88 Z-1.2 I0.1625 J-0.2815
G2 X5.7775 Y17.5985 Z-1.4 I-0.325 J0.0
G2 X5.6585 Y18.0425 Z-1.55 I0.1625 J0.2815
G2 X6.2215 I0.2815 J-0.1625
G2 X5.94 Y17.555 I-0.2815 J-0.1625
G2 X5.6585 Y18.0425 I0.0 J0.325
G0 Z3.0
G0 X6.265 Y12.8
G0 Z1.0
G1 F300.0 Z0.0
G2 F100.0 X5.7775 Y12.5185 Z-0.2 I-0.325 J0.0
G2 Y13.0815 Z-0.4 I0.1625 J0.2815
G2 X6.265 Y12.8 Z-0.6 I0.1625 J-0.2815
G2 X5.7775 Y12.5185 Z-0.8 I-0.325 J0.0
G2 Y13.0815 Z-1.0 I0.1625 J0.2815
G2 X6.265 Y12.8 Z-1.2 I0.1625 J-0.2815
G2 X5.7775 Y12.5185 Z-1.4 I-0.325 J0.0
G2 X5.6585 Y12.9625 Z-1.55 I0.1625 J0.2815
G2 X6.2215 I0.2815 J-0.1625
G2 X5.94 Y12.475 I-0.2815 J-0.1625
G2 X5.6585 Y12.9625 I0.0 J0.325
G0 Z3.0
G0 X6.265 Y40.8
G0 Z1.0
G1 F300.0 Z0.0
G2 F100.0 X5.7775 Y40.5185 Z-0.2 I-0.325 J0.0
G2 Y41.0815 Z-0.4 I0.1625 J0.2815
G2 X6.265 Y40.8 Z-0.6 I0.1625 J-0.2815
G2 X5.7775 Y40.5185 Z-0.8 I-0.325 J0.0
G2 Y41.0815 Z-1.0 I0.1625 J0.2815
G2 X6.265 Y40.8 Z-1.2 I0.1625 J-0.2815
G2 X5.7775 Y40.5185 Z-1.4 I-0.325 J0.0
G2 X5.6585 Y40.9625 Z-1.55 I0.1625 J0.2815
G2 X6.2215 I0.2815 J-0.1625
G2 X5.94 Y40.475 I-0.2815 J-0.1625
G2 X5.6585 Y40.9625 I0.0 J0.325
G0 Z3.0
G0 X6.265 Y45.88
G0 Z1.0
G1 F300.0 Z0.0
G2 F100.0 X5.7775 Y45.5985 Z-0.2 I-0.325 J0.0
G2 Y46.1615 Z-0.4 I0.1625 J0.2815
G2 X6.265 Y45.88 Z-0.6 I0.1625 J-0.2815
G2 X5.7775 Y45.5985 Z-0.8 I-0.325 J0.0
G2 Y46.1615 Z-1.0 I0.1625 J0.2815
G2 X6.265 Y45.88 Z-1.2 I0.1625 J-0.2815
G2 X5.7775 Y45.5985 Z-1.4 I-0.325 J0.0
G2 X5.6585 Y46.0425 Z-1.55 I0.1625 J0.2815
G2 X6.2215 I0.2815 J-0.1625
G2 X5.94 Y45.555 I-0.2815 J-0.1625
G2 X5.6585 Y46.0425 I0.0 J0.325
G0 Z3.0
G0 X6.265 Y68.8
G0 Z1.0
G1 F300.0 Z0.0
G2 F100.0 X5.7775 Y68.5185 Z-0.2 I-0.325 J0.0
G2 Y69.0815 Z-0.4 I0.1625 J0.2815
G2 X6.265 Y68.8 Z-0.6 I0.1625 J-0.2815
G2 X5.7775 Y68.5185 Z-0.8 I-0.325 J0.0
G2 Y69.0815 Z-1.0 I0.1625 J0.2815
G2 X6.265 Y68.8 Z-1.2 I0.1625 J-0.2815
G2 X5.7775 Y68.5185 Z-1.4 I-0.325 J0.0
G2 X5.6585 Y68.9625 Z-1.55 I0.1625 J0.2815
G2 X6.2215 I0.2815 J-0.1625
G2 X5.94 Y68.475 I-0.2815 J-0.1625
G2 X5.6585 Y68.9625 I0.0 J0.325
G0 Z3.0
G0 X6.265 Y73.88
G0 Z1.0
G1 F300.0 Z0.0
G2 F100.0 X5.7775 Y73.5985 Z-0.2 I-0.325 J0.0
G2 Y74.1615 Z-0.4 I0.1625 J0.2815
G2 X6.265 Y73.88 Z-0.6 I0.1625 J-0.2815
G2 X5.7775 Y73.5985 Z-0.8 I-0.325 J0.0
G2 Y74.1615 Z-1.0 I0.1625 J0.2815
G2 X6.265 Y73.88 Z-1.2 I0.1625 J-0.2815
G2 X5.7775 Y73.5985 Z-1.4 I-0.325 J0.0
G2 X5.6585 Y74.0425 Z-1.55 I0.1625 J0.2815
G2 X6.2215 I0.2815 J-0.1625
G2 X5.94 Y73.555 I-0.2815 J-0.1625
G2 X5.6585 Y74.0425 I0.0 J0.325
G0 Z3.0
M5
M30
