( Made using CamBam - http://www.cambam.co.uk )
( midi_organ_v0.2_mm.gcode.drill 6/4/2014 11:41:29 PM )
( T0 : 2.0 )
G21 G90 G64 G40
G0 Z3.0
( T0 : 2.0 )
T0 M6
( 3.25 )
G17
M3 S1000
G0 X14.2601 Y190.5549
G0 Z3.0
G0 X14.8851 Y190.5549
G0 Z1.0
G1 F300.0 Z0.0
G2 F800.0 X13.9476 Y190.0136 Z-0.1333 I-0.625 J0.0
G2 Y191.0962 Z-0.2667 I0.3125 J0.5413
G2 X14.8851 Y190.5549 Z-0.4 I0.3125 J-0.5413
G2 X13.9476 Y190.0136 Z-0.5333 I-0.625 J0.0
G2 Y191.0962 Z-0.6667 I0.3125 J0.5413
G2 X14.8851 Y190.5549 Z-0.8 I0.3125 J-0.5413
G2 X13.9476 Y190.0136 Z-0.9333 I-0.625 J0.0
G2 Y191.0962 Z-1.0667 I0.3125 J0.5413
G2 X14.8851 Y190.5549 Z-1.2 I0.3125 J-0.5413
G2 X13.9476 Y190.0136 Z-1.3333 I-0.625 J0.0
G2 Y191.0962 Z-1.4667 I0.3125 J0.5413
G2 X14.702 Y190.9968 Z-1.55 I0.3125 J-0.5413
G2 X14.4218 Y189.9512 I-0.4419 J-0.4419
G2 X13.6564 Y190.7166 I-0.1618 J0.6037
G2 X14.702 Y190.9968 I0.6037 J-0.1618
G0 Z3.0
G0 X18.7416 Y152.7297
G0 Z1.0
G1 F300.0 Z0.0
G2 F800.0 X17.8041 Y152.1884 Z-0.1333 I-0.625 J0.0
G2 Y153.271 Z-0.2667 I0.3125 J0.5413
G2 X18.7416 Y152.7297 Z-0.4 I0.3125 J-0.5413
G2 X17.8041 Y152.1884 Z-0.5333 I-0.625 J0.0
G2 Y153.271 Z-0.6667 I0.3125 J0.5413
G2 X18.7416 Y152.7297 Z-0.8 I0.3125 J-0.5413
G2 X17.8041 Y152.1884 Z-0.9333 I-0.625 J0.0
G2 Y153.271 Z-1.0667 I0.3125 J0.5413
G2 X18.7416 Y152.7297 Z-1.2 I0.3125 J-0.5413
G2 X17.8041 Y152.1884 Z-1.3333 I-0.625 J0.0
G2 Y153.271 Z-1.4667 I0.3125 J0.5413
G2 X18.5585 Y153.1717 Z-1.55 I0.3125 J-0.5413
G2 X18.2783 Y152.126 I-0.4419 J-0.4419
G2 X17.5129 Y152.8915 I-0.1618 J0.6037
G2 X18.5585 Y153.1717 I0.6037 J-0.1618
G0 Z3.0
G0 X60.6813 Y175.9499
G0 Z1.0
G1 F300.0 Z0.0
G2 F800.0 X59.7438 Y175.4086 Z-0.1333 I-0.625 J0.0
G2 Y176.4912 Z-0.2667 I0.3125 J0.5413
G2 X60.6813 Y175.9499 Z-0.4 I0.3125 J-0.5413
G2 X59.7438 Y175.4086 Z-0.5333 I-0.625 J0.0
G2 Y176.4912 Z-0.6667 I0.3125 J0.5413
G2 X60.6813 Y175.9499 Z-0.8 I0.3125 J-0.5413
G2 X59.7438 Y175.4086 Z-0.9333 I-0.625 J0.0
G2 Y176.4912 Z-1.0667 I0.3125 J0.5413
G2 X60.6813 Y175.9499 Z-1.2 I0.3125 J-0.5413
G2 X59.7438 Y175.4086 Z-1.3333 I-0.625 J0.0
G2 Y176.4912 Z-1.4667 I0.3125 J0.5413
G2 X60.4982 Y176.3918 Z-1.55 I0.3125 J-0.5413
G2 X60.218 Y175.3462 I-0.4419 J-0.4419
G2 X59.4526 Y176.1116 I-0.1618 J0.6037
G2 X60.4982 Y176.3918 I0.6037 J-0.1618
G0 Z3.0
G0 X85.3701 Y175.9499
G0 Z1.0
G1 F300.0 Z0.0
G2 F800.0 X84.4326 Y175.4086 Z-0.1333 I-0.625 J0.0
G2 Y176.4912 Z-0.2667 I0.3125 J0.5413
G2 X85.3701 Y175.9499 Z-0.4 I0.3125 J-0.5413
G2 X84.4326 Y175.4086 Z-0.5333 I-0.625 J0.0
G2 Y176.4912 Z-0.6667 I0.3125 J0.5413
G2 X85.3701 Y175.9499 Z-0.8 I0.3125 J-0.5413
G2 X84.4326 Y175.4086 Z-0.9333 I-0.625 J0.0
G2 Y176.4912 Z-1.0667 I0.3125 J0.5413
G2 X85.3701 Y175.9499 Z-1.2 I0.3125 J-0.5413
G2 X84.4326 Y175.4086 Z-1.3333 I-0.625 J0.0
G2 Y176.4912 Z-1.4667 I0.3125 J0.5413
G2 X85.187 Y176.3918 Z-1.55 I0.3125 J-0.5413
G2 X84.9068 Y175.3462 I-0.4419 J-0.4419
G2 X84.1414 Y176.1116 I-0.1618 J0.6037
G2 X85.187 Y176.3918 I0.6037 J-0.1618
G0 Z3.0
G0 X88.5451 Y190.5549
G0 Z1.0
G1 F300.0 Z0.0
G2 F800.0 X87.6076 Y190.0136 Z-0.1333 I-0.625 J0.0
G2 Y191.0962 Z-0.2667 I0.3125 J0.5413
G2 X88.5451 Y190.5549 Z-0.4 I0.3125 J-0.5413
G2 X87.6076 Y190.0136 Z-0.5333 I-0.625 J0.0
G2 Y191.0962 Z-0.6667 I0.3125 J0.5413
G2 X88.5451 Y190.5549 Z-0.8 I0.3125 J-0.5413
G2 X87.6076 Y190.0136 Z-0.9333 I-0.625 J0.0
G2 Y191.0962 Z-1.0667 I0.3125 J0.5413
G2 X88.5451 Y190.5549 Z-1.2 I0.3125 J-0.5413
G2 X87.6076 Y190.0136 Z-1.3333 I-0.625 J0.0
G2 Y191.0962 Z-1.4667 I0.3125 J0.5413
G2 X88.362 Y190.9968 Z-1.55 I0.3125 J-0.5413
G2 X88.0818 Y189.9512 I-0.4419 J-0.4419
G2 X87.3164 Y190.7166 I-0.1618 J0.6037
G2 X88.362 Y190.9968 I0.6037 J-0.1618
G0 Z3.0
G0 X88.5451 Y15.2949
G0 Z1.0
G1 F300.0 Z0.0
G2 F800.0 X87.6076 Y14.7536 Z-0.1333 I-0.625 J0.0
G2 Y15.8362 Z-0.2667 I0.3125 J0.5413
G2 X88.5451 Y15.2949 Z-0.4 I0.3125 J-0.5413
G2 X87.6076 Y14.7536 Z-0.5333 I-0.625 J0.0
G2 Y15.8362 Z-0.6667 I0.3125 J0.5413
G2 X88.5451 Y15.2949 Z-0.8 I0.3125 J-0.5413
G2 X87.6076 Y14.7536 Z-0.9333 I-0.625 J0.0
G2 Y15.8362 Z-1.0667 I0.3125 J0.5413
G2 X88.5451 Y15.2949 Z-1.2 I0.3125 J-0.5413
G2 X87.6076 Y14.7536 Z-1.3333 I-0.625 J0.0
G2 Y15.8362 Z-1.4667 I0.3125 J0.5413
G2 X88.362 Y15.7368 Z-1.55 I0.3125 J-0.5413
G2 X88.0818 Y14.6912 I-0.4419 J-0.4419
G2 X87.3164 Y15.4566 I-0.1618 J0.6037
G2 X88.362 Y15.7368 I0.6037 J-0.1618
G0 Z3.0
G0 X14.8851 Y15.2949
G0 Z1.0
G1 F300.0 Z0.0
G2 F800.0 X13.9476 Y14.7536 Z-0.1333 I-0.625 J0.0
G2 Y15.8362 Z-0.2667 I0.3125 J0.5413
G2 X14.8851 Y15.2949 Z-0.4 I0.3125 J-0.5413
G2 X13.9476 Y14.7536 Z-0.5333 I-0.625 J0.0
G2 Y15.8362 Z-0.6667 I0.3125 J0.5413
G2 X14.8851 Y15.2949 Z-0.8 I0.3125 J-0.5413
G2 X13.9476 Y14.7536 Z-0.9333 I-0.625 J0.0
G2 Y15.8362 Z-1.0667 I0.3125 J0.5413
G2 X14.8851 Y15.2949 Z-1.2 I0.3125 J-0.5413
G2 X13.9476 Y14.7536 Z-1.3333 I-0.625 J0.0
G2 Y15.8362 Z-1.4667 I0.3125 J0.5413
G2 X14.702 Y15.7368 Z-1.55 I0.3125 J-0.5413
G2 X14.4218 Y14.6912 I-0.4419 J-0.4419
G2 X13.6564 Y15.4566 I-0.1618 J0.6037
G2 X14.702 Y15.7368 I0.6037 J-0.1618
G0 Z3.0
M5
M30
