( Made using CamBam - http://www.cambam.co.uk )
( midi_organ_v0.2_mm.gcode.all 6/4/2014 11:50:52 PM )
( T0 : 0.0 )
G21 G90 G64 G40
G0 Z3.0
( T0 : 0.0 )
T0 M6
( bottom )
G17
M3 S1000
G0 X13.8683 Y193.88
G0 Z1.275
G1 F300.0 Z-0.125
G1 F400.0 X13.318 Y193.753
G1 X12.7677 Y193.5413
G1 X12.2597 Y193.245
G1 X11.6247 Y192.6523
G1 X11.2437 Y192.0597
G1 X10.9897 Y191.4247
G1 X10.8627 Y190.7897
G1 Y190.2393
G1 X10.9897 Y189.6043
G1 X11.2437 Y188.9693
G1 X11.6247 Y188.3767
G1 X12.2597 Y187.784
G1 X12.7677 Y187.4877
G1 X13.318 Y187.276
G1 X13.953 Y187.149
G1 X14.5033
G1 X15.1383 Y187.276
G1 X15.6887 Y187.4877
G1 X16.1967 Y187.784
G1 X16.8317 Y188.3767
G1 X17.2127 Y188.9693
G1 X17.4667 Y189.6043
G1 X17.5937 Y190.2393
G1 Y190.7897
G1 X17.4667 Y191.4247
G1 X17.2127 Y192.0597
G1 X16.8317 Y192.6523
G1 X16.1967 Y193.245
G1 X15.6887 Y193.5413
G1 X15.1383 Y193.753
G1 X14.5033 Y193.88
G1 X13.8683
G0 Z3.0
G0 Y180.799
G0 Z1.275
G1 F300.0 Z-0.125
G1 F400.0 X13.1487
G1 Y178.64
G1 X14.3763
G1 X20.2183 Y172.7557
G1 X20.0913 Y172.2477
G1 X20.1337 Y171.6973
G1 X20.303 Y171.2317
G1 X20.9803 Y170.5543
G1 X21.446 Y170.385
G1 X22.2503
G1 X22.716 Y170.5543
G1 X23.3933 Y171.2317
G1 X23.5627 Y171.6973
G1 Y172.5017
G1 X23.3933 Y172.9673
G1 X22.716 Y173.6447
G1 X22.2503 Y173.814
G1 X21.7 Y173.8563
G1 X21.192 Y173.7293
G1 X15.3077 Y179.5713
G1 Y180.799
G1 X13.8683
G0 Z3.0
G0 X14.0377 Y173.1367
G0 Z1.275
G1 F300.0 Z-0.125
G1 F400.0 X13.7837 Y173.052
G1 X13.2757 Y172.544
G1 X13.191 Y172.163
G1 X13.2333 Y171.782
G1 X11.8787 Y170.385
G1 Y143.334
G1 X12.1327 Y143.08
G1 X20.1337 Y143.0377
G1 Y136.857
G1 X19.4563
G1 Y134.4863
G1 X21.1497
G1 X22.0387 Y133.555
G1 Y131.65
G1 X21.4883
G1 Y129.5333
G1 X23.605
G1 Y131.65
G1 X23.0123
G1 X22.97 Y133.936
G1 X21.827 Y135.1213
G1 Y136.857
G1 X21.1073
G1 X21.065 Y143.6727
G1 X20.7687 Y143.969
G1 X12.81 Y144.0113
G1 Y170.0463
G1 X13.9107 Y171.1047
G1 X14.2917 Y171.0623
G1 X14.6727 Y171.147
G1 X15.1807 Y171.655
G1 X15.2653 Y171.9937
G1 Y172.2053
G1 X15.1807 Y172.544
G1 X14.6727 Y173.052
G1 X14.334 Y173.1367
G1 X14.0377
G0 Z3.0
G0 Y169.9617
G0 Z1.275
G1 F300.0 Z-0.125
G1 F400.0 X13.7837 Y169.877
G1 X13.2757 Y169.369
G1 X13.191 Y169.0303
G1 Y168.8187
G1 X13.2757 Y168.48
G1 X13.7413 Y168.0143
G1 Y167.2947
G1 X13.2757 Y166.829
G1 X13.191 Y166.4903
G1 Y166.2787
G1 X13.2757 Y165.94
G1 X13.7413 Y165.4743
G1 Y159.6747
G1 X13.2757 Y159.209
G1 X13.191 Y158.8703
G1 Y158.6587
G1 X13.2757 Y158.32
G1 X13.7413 Y157.8543
G1 Y157.1347
G1 X13.2757 Y156.669
G1 X13.191 Y156.3303
G1 Y156.1187
G1 X13.2757 Y155.78
G1 X13.7837 Y155.272
G1 X14.1223 Y155.1873
G1 X14.334
G1 X14.6727 Y155.272
G1 X15.1807 Y155.78
G1 X15.2653 Y156.1187
G1 Y156.3303
G1 X15.1807 Y156.669
G1 X14.715 Y157.1347
G1 Y157.8543
G1 X15.1807 Y158.32
G1 X15.2653 Y158.6587
G1 Y158.8703
G1 X15.1807 Y159.209
G1 X14.715 Y159.6747
G1 Y165.4743
G1 X15.1807 Y165.94
G1 X15.2653 Y166.2787
G1 Y166.4903
G1 X15.1807 Y166.829
G1 X14.715 Y167.2947
G1 Y168.0143
G1 X15.1807 Y168.48
G1 X15.2653 Y168.8187
G1 Y169.0303
G1 X15.1807 Y169.369
G1 X14.6727 Y169.877
G1 X14.334 Y169.9617
G1 X14.0377
G0 Z3.0
G0 X16.3237 Y167.337
G0 Z1.275
G1 F300.0 Z-0.125
G1 F400.0 X15.8157 Y166.829
G1 X15.731 Y166.4903
G1 Y166.2787
G1 X15.8157 Y165.94
G1 X16.2813 Y165.4743
G1 X16.3237 Y164.924
G1 X19.7527 Y161.495
G1 X45.7877 Y161.4527
G1 X46.4227 Y160.86
G1 X46.973 Y160.8177
G1 X47.4387 Y160.352
G1 X47.7773 Y160.2673
G1 X47.989
G1 X48.3277 Y160.352
G1 X48.8357 Y160.86
G1 X48.9203 Y161.1987
G1 Y161.4103
G1 X48.8357 Y161.749
G1 X48.3277 Y162.257
G1 X47.989 Y162.3417
G1 X47.7773
G1 X47.4387 Y162.257
G1 X46.973 Y161.7913
G1 X46.8037
G1 X46.1687 Y162.384
G1 X20.1337 Y162.4263
G1 X17.255 Y165.2627
G1 Y165.4743
G1 X17.7207 Y165.94
G1 X17.8053 Y166.2787
G1 Y166.4903
G1 X17.7207 Y166.829
G1 X17.2127 Y167.337
G1 X16.874 Y167.4217
G1 X16.5777
G1 X16.3237 Y167.337
G0 Z3.0
G0 X18.2287
G0 Z1.275
G1 F300.0 Z-0.125
G1 F400.0 Y165.305
G1 X18.8213
G1 X18.8637 Y164.289
G1 X19.7527 Y163.4
G1 X20.938 Y163.3577
G1 X21.4037 Y162.892
G1 X21.7423 Y162.8073
G1 X21.954
G1 X22.2927 Y162.892
G1 X22.8007 Y163.4
G1 X22.8853 Y163.7387
G1 Y163.9503
G1 X22.8007 Y164.289
G1 X22.2927 Y164.797
G1 X21.954 Y164.8817
G1 X21.7423
G1 X21.4037 Y164.797
G1 X20.938 Y164.3313
G1 X20.0913
G1 X19.795 Y164.67
G1 Y165.305
G1 X20.3877
G1 Y167.464
G1 X18.2287
G1 Y167.337
G0 Z3.0
G0 X20.8583 Y166.6796
G0 Z1.275
G1 F300.0 Z-0.125
G1 F400.0 X20.811 Y166.4903
G1 Y166.2787
G1 X20.8957 Y165.94
G1 X21.4037 Y165.432
G1 X21.7423 Y165.3473
G1 X21.954
G1 X22.2927 Y165.432
G1 X22.8007 Y165.94
G1 X22.8853 Y166.2787
G1 Y166.4903
G1 X22.8007 Y166.829
G1 X22.335 Y167.2947
G1 Y168.0143
G1 X22.8007 Y168.48
G1 X22.8853 Y168.8187
G1 Y169.0303
G1 X22.8007 Y169.369
G1 X22.2927 Y169.877
G1 X21.954 Y169.9617
G1 X21.6577
G1 X21.4037 Y169.877
G1 X20.8957 Y169.369
G1 X20.811 Y169.0303
G1 Y168.8187
G1 X20.8957 Y168.48
G1 X21.3613 Y168.0143
G1 Y167.2947
G1 X20.8957 Y166.829
G1 X20.8583 Y166.6796
G0 Z3.0
G0 X23.351 Y166.4903
G0 Z1.275
G1 F300.0 Z-0.125
G1 F400.0 Y166.2787
G1 X23.4357 Y165.94
G1 X23.9013 Y165.4743
G1 X23.9437 Y163.019
G1 X24.1977 Y162.765
G1 X46.1687
G1 X46.8037 Y163.3577
G1 X46.973
G1 X47.4387 Y162.892
G1 X47.7773 Y162.8073
G1 X47.989
G1 X48.3277 Y162.892
G1 X48.8357 Y163.4
G1 X48.9203 Y163.7387
G1 Y163.9503
G1 X48.8357 Y164.289
G1 X48.3277 Y164.797
G1 X47.989 Y164.8817
G1 X47.7773
G1 X47.4387 Y164.797
G1 X46.973 Y164.3313
G1 X46.4227 Y164.289
G1 X45.7877 Y163.6963
G1 X24.875
G1 Y165.4743
G1 X25.3407 Y165.94
G1 X25.4253 Y166.2787
G1 Y166.4903
G1 X25.3407 Y166.829
G1 X24.8327 Y167.337
G1 X24.494 Y167.4217
G1 X24.1977
G1 X23.9437 Y167.337
G1 X23.4357 Y166.829
G1 X23.351 Y166.4903
G0 Z3.0
G0 X25.8487
G0 Z1.275
G1 F300.0 Z-0.125
G1 F400.0 Y165.305
G1 X28.0077
G1 Y167.464
G1 X27.415
G1 Y170.3427
G1 X34.0613
G1 Y167.464
G1 X33.4687
G1 Y165.305
G1 X35.6277
G1 Y165.8977
G1 X36.178
G1 X36.6437 Y165.432
G1 X36.9823 Y165.3473
G1 X37.194
G1 X37.5327 Y165.432
G1 X38.0407 Y165.94
G1 X38.1253 Y166.2787
G1 Y166.4903
G1 X38.0407 Y166.829
G1 X37.5327 Y167.337
G1 X37.194 Y167.4217
G1 X36.9823
G1 X36.6437 Y167.337
G1 X36.178 Y166.8713
G1 X35.6277
G1 Y167.464
G1 X35.035
G1 X34.9927 Y171.02
G1 X34.7387 Y171.274
G1 X26.8223 Y171.3163
G1 X26.653 Y171.2317
G1 X26.4837 Y171.02
G1 X26.4413 Y167.464
G1 X25.8487
G1 Y166.4903
G0 Z3.0
G0 X28.431
G0 Z1.275
G1 F300.0 Z-0.125
G1 F400.0 Y166.2787
G1 X28.5157 Y165.94
G1 X29.0237 Y165.432
G1 X29.3623 Y165.3473
G1 X29.574
G1 X29.9127 Y165.432
G1 X30.4207 Y165.94
G1 X30.5053 Y166.2787
G1 Y166.4903
G1 X30.4207 Y166.829
G1 X29.955 Y167.2947
G1 Y168.0143
G1 X30.4207 Y168.48
G1 X30.5053 Y168.8187
G1 Y169.0303
G1 X30.4207 Y169.369
G1 X29.9127 Y169.877
G1 X29.574 Y169.9617
G1 X29.2777
G1 X29.0237 Y169.877
G1 X28.5157 Y169.369
G1 X28.431 Y169.0303
G1 Y168.8187
G1 X28.5157 Y168.48
G1 X28.9813 Y168.0143
G1 Y167.2947
G1 X28.5157 Y166.829
G1 X28.431 Y166.4903
G0 Z3.0
G0 X30.971
G0 Z1.275
G1 F300.0 Z-0.125
G1 F400.0 Y166.2787
G1 X31.0557 Y165.94
G1 X31.5213 Y165.4743
G1 X31.5637 Y164.289
G1 X31.8177 Y164.035
G1 X45.5337
G1 X47.1847 Y165.6437
G1 X47.481 Y165.432
G1 X47.735 Y165.3473
G1 X47.989
G1 X48.3277 Y165.432
G1 X48.8357 Y165.94
G1 X48.9203 Y166.2787
G1 Y166.4903
G1 X48.8357 Y166.829
G1 X48.3277 Y167.337
G1 X47.989 Y167.4217
G1 X47.7773
G1 X47.4387 Y167.337
G1 X47.0153 Y166.956
G1 X46.9307 Y166.7443
G1 X45.195 Y164.9663
G1 X32.495
G1 Y165.4743
G1 X32.9607 Y165.94
G1 X33.0453 Y166.2787
G1 Y166.4903
G1 X32.9607 Y166.829
G1 X32.4527 Y167.337
G1 X32.114 Y167.4217
G1 X31.8177
G1 X31.5637 Y167.337
G1 X31.0557 Y166.829
G1 X30.971 Y166.4903
G0 Z3.0
G0 X30.9561 Y161.1245
G0 Z1.275
G1 F300.0 Z-0.125
G1 F400.0 X19.4987 Y161.1563
G1 X18.2287 Y162.384
G1 X17.6783 Y162.4263
G1 X17.2127 Y162.892
G1 X16.874 Y162.9767
G1 X16.5777
G1 X16.3237 Y162.892
G1 X15.8157 Y162.384
G1 X15.731 Y162.0453
G1 Y161.8337
G1 X15.8157 Y161.495
G1 X16.3237 Y160.987
G1 X16.6623 Y160.9023
G1 X16.874
G1 X17.2127 Y160.987
G1 X17.6783 Y161.4527
G1 X17.89
G1 X18.8213 Y160.479
G1 Y159.844
G1 X18.2287
G1 Y157.685
G1 X20.3877
G1 Y159.844
G1 X19.795
G1 Y160.1827
G1 X26.4413
G1 Y159.844
G1 X25.8487
G1 Y157.685
G1 X28.0077
G1 Y159.844
G1 X27.415
G1 Y160.1827
G1 X34.0613
G1 Y159.844
G1 X33.4687
G1 Y157.685
G1 X35.6277
G1 Y158.2777
G1 X36.178
G1 X36.6437 Y157.812
G1 X36.9823 Y157.7273
G1 X37.194
G1 X37.5327 Y157.812
G1 X38.0407 Y158.32
G1 X38.1253 Y158.6587
G1 Y158.8703
G1 X38.0407 Y159.209
G1 X37.5327 Y159.717
G1 X37.194 Y159.8017
G1 X36.9823
G1 X36.6437 Y159.717
G1 X36.178 Y159.2513
G1 X35.6277
G1 Y159.844
G1 X35.035
G1 X34.9927 Y160.86
G1 X34.7387 Y161.114
G1 X30.9561 Y161.1245
G0 Z3.0
G0 X31.5637 Y159.717
G0 Z1.275
G1 F300.0 Z-0.125
G1 F400.0 X31.0557 Y159.209
G1 X30.971 Y158.8703
G1 Y158.6587
G1 X31.0557 Y158.32
G1 X31.5213 Y157.8543
G1 X31.5637 Y156.669
G1 X31.8177 Y156.415
G1 X45.5337
G1 X47.1847 Y158.0237
G1 X47.481 Y157.812
G1 X47.735 Y157.7273
G1 X47.989
G1 X48.3277 Y157.812
G1 X48.8357 Y158.32
G1 X48.9203 Y158.6587
G1 Y158.8703
G1 X48.8357 Y159.209
G1 X48.3277 Y159.717
G1 X47.989 Y159.8017
G1 X47.7773
G1 X47.4387 Y159.717
G1 X47.0153 Y159.336
G1 X46.9307 Y159.1243
G1 X45.195 Y157.3463
G1 X32.495
G1 Y157.8543
G1 X32.9607 Y158.32
G1 X33.0453 Y158.6587
G1 Y158.8703
G1 X32.9607 Y159.209
G1 X32.4527 Y159.717
G1 X32.114 Y159.8017
G1 X31.8177
G1 X31.5637 Y159.717
G0 Z3.0
G0 X30.4207 Y159.209
G0 Z1.275
G1 F300.0 Z-0.125
G1 F400.0 X29.9127 Y159.717
G1 X29.574 Y159.8017
G1 X29.2777
G1 X29.0237 Y159.717
G1 X28.5157 Y159.209
G1 X28.431 Y158.8703
G1 Y158.6587
G1 X28.5157 Y158.32
G1 X28.9813 Y157.8543
G1 Y157.1347
G1 X28.5157 Y156.669
G1 X28.431 Y156.3303
G1 Y156.1187
G1 X28.5157 Y155.78
G1 X29.0237 Y155.272
G1 X29.3623 Y155.1873
G1 X29.574
G1 X29.9127 Y155.272
G1 X30.4207 Y155.78
G1 X30.5053 Y156.1187
G1 Y156.3303
G1 X30.4207 Y156.669
G1 X29.955 Y157.1347
G1 Y157.8543
G1 X30.4207 Y158.32
G1 X30.5053 Y158.6587
G1 Y158.8703
G1 X30.4207 Y159.209
G0 Z3.0
G0 X31.8177 Y156.034
G0 Z1.275
G1 F300.0 Z-0.125
G1 F400.0 X30.5477 Y154.8063
G1 X24.875
G1 Y157.8543
G1 X25.3407 Y158.32
G1 X25.4253 Y158.6587
G1 Y158.8703
G1 X25.3407 Y159.209
G1 X24.8327 Y159.717
G1 X24.494 Y159.8017
G1 X24.1977
G1 X23.9437 Y159.717
G1 X23.4357 Y159.209
G1 X23.351 Y158.8703
G1 Y158.6587
G1 X23.4357 Y158.32
G1 X23.9013 Y157.8543
G1 X23.9437 Y154.129
G1 X24.1977 Y153.875
G1 X30.9287
G1 X32.1987 Y155.1027
G1 X46.1687 Y155.145
G1 X46.8037 Y155.7377
G1 X46.973
G1 X47.4387 Y155.272
G1 X47.7773 Y155.1873
G1 X47.989
G1 X48.3277 Y155.272
G1 X48.8357 Y155.78
G1 X48.9203 Y156.1187
G1 Y156.3303
G1 X48.8357 Y156.669
G1 X48.3277 Y157.177
G1 X47.989 Y157.2617
G1 X47.7773
G1 X47.4387 Y157.177
G1 X46.973 Y156.7113
G1 X46.4227 Y156.669
G1 X45.7877 Y156.0763
G1 X31.8177 Y156.034
G0 Z3.0
G0 X32.4527 Y154.764
G0 Z1.275
G1 F300.0 Z-0.125
G1 F400.0 X31.1827 Y153.5363
G1 X22.6737
G1 X19.4987 Y156.669
G1 X17.255 Y156.7113
G1 Y157.8543
G1 X17.7207 Y158.32
G1 X17.8053 Y158.6587
G1 Y158.8703
G1 X17.7207 Y159.209
G1 X17.2127 Y159.717
G1 X16.874 Y159.8017
G1 X16.5777
G1 X16.3237 Y159.717
G1 X15.8157 Y159.209
G1 X15.731 Y158.8703
G1 Y158.6587
G1 X15.8157 Y158.32
G1 X16.2813 Y157.8543
G1 X16.3237 Y156.034
G1 X16.5777 Y155.78
G1 X19.1177 Y155.7377
G1 X22.2927 Y152.605
G1 X31.5637
G1 X32.8337 Y153.8327
G1 X45.7877
G1 X46.4227 Y153.24
G1 X46.973 Y153.1977
G1 X47.4387 Y152.732
G1 X47.7773 Y152.6473
G1 X47.989
G1 X48.3277 Y152.732
G1 X48.8357 Y153.24
G1 X48.9203 Y153.5787
G1 Y153.7903
G1 X48.8357 Y154.129
G1 X48.3277 Y154.637
G1 X47.989 Y154.7217
G1 X47.7773
G1 X47.4387 Y154.637
G1 X46.973 Y154.1713
G1 X46.8037
G1 X46.1687 Y154.764
G1 X32.4527
G0 Z3.0
G0 Y151.6313
G0 Z1.275
G1 F300.0 Z-0.125
G1 F400.0 X30.3783
G1 X29.9127 Y152.097
G1 X29.574 Y152.1817
G1 X29.2777
G1 X29.0237 Y152.097
G1 X28.558 Y151.6313
G1 X26.7377 Y151.589
G1 X22.6737 Y147.525
G1 Y144.604
G1 X24.6633 Y142.572
G1 X24.621 Y142.191
G1 X24.7057 Y141.81
G1 X25.2137 Y141.302
G1 X25.5523 Y141.2173
G1 X25.764
G1 X26.1027 Y141.302
G1 X26.5683 Y141.7677
G1 X27.1187
G1 X27.669 Y141.2173
G1 Y139.2277
G1 X24.5787 Y136.095
G1 Y134.444
G1 X26.1027 Y132.92
G1 X27.0763 Y132.8777
G1 X27.1187 Y128.729
G1 X27.3727 Y128.475
G1 X32.1987
G1 X32.4527 Y128.729
G1 X32.495 Y132.4543
G1 X32.9607 Y132.92
G1 X33.0453 Y133.2587
G1 Y133.4703
G1 X32.9607 Y133.809
G1 X32.4527 Y134.317
G1 X32.114 Y134.4017
G1 X31.9023
G1 X31.5637 Y134.317
G1 X31.0557 Y133.809
G1 X30.971 Y133.4703
G1 Y133.2587
G1 X31.0557 Y132.92
G1 X31.5213 Y132.4543
G1 Y129.4063
G1 X28.05
G1 X28.0077 Y133.555
G1 X27.7537 Y133.809
G1 X26.4837 Y133.8513
G1 X25.51 Y134.7827
G1 Y135.714
G1 X28.6003 Y138.8467
G1 X28.685 Y141.2597
G1 X29.066 Y141.5983
G1 X29.2353 Y141.937
G1 Y142.572
G1 X29.1083 Y142.826
G1 X28.812 Y143.1647
G1 X28.4733 Y143.334
G1 X27.8383
G1 X27.4997 Y143.1647
G1 X27.1187 Y142.7413
G1 X26.5683
G1 X26.1027 Y143.207
G1 X25.7217 Y143.2917
G1 X25.3407 Y143.2493
G1 X23.605 Y144.9427
G1 Y147.1863
G1 X27.1187 Y150.6577
G1 X28.558
G1 X29.0237 Y150.192
G1 X29.3623 Y150.1073
G1 X29.574
G1 X29.9127 Y150.192
G1 X30.3783 Y150.6577
G1 X46.973
G1 X47.4387 Y150.192
G1 X47.7773 Y150.1073
G1 X48.0313
G1 X48.2853 Y150.192
G1 X48.5817 Y150.4037
G1 X48.7933 Y150.2343
G1 X48.751 Y149.811
G1 X48.8357 Y149.43
G1 X49.3437 Y148.922
G1 X49.6823 Y148.8373
G1 X49.894
G1 X50.2327 Y148.922
G1 X50.7407 Y149.43
G1 X50.8253 Y149.7687
G1 Y149.9803
G1 X50.7407 Y150.319
G1 X50.2327 Y150.827
G1 X49.8517 Y150.9117
G1 X49.4283 Y150.8693
G1 X48.8357 Y151.5043
G1 X48.751 Y151.716
G1 X48.3277 Y152.097
G1 X47.989 Y152.1817
G1 X47.7773
G1 X47.4387 Y152.097
G1 X46.973 Y151.6313
G1 X32.4527
G0 Z3.0
G0 X31.1827 Y149.557
G0 Z1.275
G1 F300.0 Z-0.125
G1 F400.0 X30.844 Y149.6417
G1 X30.5477
G1 X30.2937 Y149.557
G1 X29.7857 Y149.049
G1 X29.701 Y148.7103
G1 Y148.4987
G1 X29.7857 Y148.16
G1 X30.2937 Y147.652
G1 X30.6323 Y147.5673
G1 X30.844
G1 X31.1827 Y147.652
G1 X31.6483 Y148.1177
G1 X39.988
G1 X40.4537 Y147.652
G1 X40.7923 Y147.5673
G1 X41.004
G1 X41.3427 Y147.652
G1 X41.8507 Y148.16
G1 X41.9353 Y148.4987
G1 Y148.7103
G1 X41.8507 Y149.049
G1 X41.3427 Y149.557
G1 X41.004 Y149.6417
G1 X40.7923
G1 X40.4537 Y149.557
G1 X39.988 Y149.0913
G1 X31.6483
G1 X31.1827 Y149.557
G0 Z3.0
G0 X32.1987 Y147.017
G0 Z1.275
G1 F300.0 Z-0.125
G1 F400.0 X31.6907 Y146.509
G1 X31.606 Y146.1703
G1 Y145.9587
G1 X31.6907 Y145.62
G1 X32.1987 Y145.112
G1 X32.5373 Y145.0273
G1 X32.749
G1 X33.0877 Y145.112
G1 X33.5533 Y145.5777
G1 X34.781
G1 Y145.0273
G1 X36.8553
G1 Y145.5777
G1 X39.988
G1 X40.4537 Y145.112
G1 X40.7923 Y145.0273
G1 X41.004
G1 X41.3427 Y145.112
G1 X41.8083 Y145.5777
G1 X46.973
G1 X47.4387 Y145.112
G1 X47.8197 Y145.0273
G1 X48.2007 Y145.0697
G1 X52.4763 Y140.8363
G1 Y138.635
G1 X51.2487 Y137.365
G1 Y130.634
G1 X53.2383 Y128.602
G1 X53.196 Y128.221
G1 X53.2807 Y127.84
G1 X53.7887 Y127.332
G1 X54.1273 Y127.2473
G1 X54.339
G1 X54.6777 Y127.332
G1 X55.1857 Y127.84
G1 X55.2703 Y128.1787
G1 Y128.3903
G1 X55.1857 Y128.729
G1 X54.6777 Y129.237
G1 X54.2967 Y129.3217
G1 X53.9157 Y129.2793
G1 X52.18 Y130.9727
G1 Y136.984
G1 X53.4077 Y138.254
G1 Y141.175
G1 X48.878 Y145.747
G1 X48.9203 Y146.128
G1 X48.8357 Y146.509
G1 X48.37 Y146.9747
G1 Y147.525
G1 X51.8837
G1 X52.1377 Y147.779
G1 X52.18 Y151.2927
G1 X54.466
G1 Y151.0387
G1 X54.5507 Y150.7
G1 X55.0587 Y150.192
G1 X55.3973 Y150.1073
G1 X55.609
G1 X55.9477 Y150.192
G1 X56.4133 Y150.6577
G1 X56.625
G1 X57.0483 Y150.192
G1 X57.006 Y149.811
G1 X57.0907 Y149.43
G1 X57.5987 Y148.922
G1 X57.9373 Y148.8373
G1 X58.149
G1 X58.4877 Y148.922
G1 X58.9957 Y149.43
G1 X59.0803 Y149.7687
G1 Y149.9803
G1 X58.9957 Y150.319
G1 X58.4877 Y150.827
G1 X58.1067 Y150.9117
G1 X57.7257 Y150.8693
G1 X56.9637 Y151.589
G1 X56.4133 Y151.6313
G1 X55.9477 Y152.097
G1 X55.5667 Y152.1817
G1 X55.1857 Y152.1393
G1 X54.974 Y152.2663
G1 X51.5873
G1 X51.418 Y152.1817
G1 X51.2487 Y151.97
G1 X51.2063 Y148.4563
G1 X48.9203
G1 Y148.7103
G1 X48.8357 Y149.049
G1 X48.3277 Y149.557
G1 X47.989 Y149.6417
G1 X47.7773
G1 X47.4387 Y149.557
G1 X46.9307 Y149.049
G1 X46.846 Y148.7103
G1 Y148.4987
G1 X46.9307 Y148.16
G1 X47.3963 Y147.6943
G1 Y146.9747
G1 X46.973 Y146.5513
G1 X41.8083
G1 X41.3427 Y147.017
G1 X41.004 Y147.1017
G1 X40.7923
G1 X40.4537 Y147.017
G1 X39.988 Y146.5513
G1 X36.8553
G1 Y147.1017
G1 X34.781
G1 Y146.5513
G1 X33.5533
G1 X33.0877 Y147.017
G1 X32.749 Y147.1017
G1 X32.5373
G1 X32.1987 Y147.017
G0 Z3.0
G0 X30.3779 Y145.1723
G0 Z1.275
G1 F300.0 Z-0.125
G1 F400.0 X29.0237 Y146.509
G1 X26.6953 Y146.5937
G1 X26.399 Y146.9323
G1 X25.9757 Y147.1863
G1 X25.4677 Y147.2287
G1 X25.1713 Y147.1017
G1 X24.8327 Y146.89
G1 X24.5787 Y146.509
G1 X24.494 Y146.1703
G1 X24.5363 Y145.747
G1 X24.748 Y145.3237
G1 X25.002 Y145.112
G1 X25.3407 Y144.9427
G1 X25.9757
G1 X26.399 Y145.1967
G1 X26.6953 Y145.5777
G1 X28.6427
G1 X31.606 Y142.6567
G1 X31.5213 Y142.3603
G1 X31.5637 Y141.937
G1 X31.733 Y141.5983
G1 X32.0717 Y141.302
G1 X32.3257 Y141.175
G1 X32.9607
G1 X33.2993 Y141.3443
G1 X33.6803 Y141.7677
G1 X34.908
G1 X35.3313 Y141.3443
G1 Y141.1327
G1 X33.0877 Y138.9313
G1 X30.5477 Y138.889
G1 X29.6587 Y138.0
G1 X29.6163 Y131.7347
G1 X29.1507 Y131.269
G1 X29.066 Y130.9303
G1 Y130.7187
G1 X29.1507 Y130.38
G1 X29.6587 Y129.872
G1 X29.9973 Y129.7873
G1 X30.209
G1 X30.5477 Y129.872
G1 X31.0557 Y130.38
G1 X31.1403 Y130.7187
G1 Y130.9303
G1 X31.0557 Y131.269
G1 X30.59 Y131.7347
G1 Y137.6613
G1 X30.9287 Y137.9577
G1 X33.4687 Y138.0
G1 X36.2627 Y140.794
G1 X36.305 Y141.3443
G1 X36.7707 Y141.81
G1 X36.8553 Y142.1487
G1 Y142.3603
G1 X36.7707 Y142.699
G1 X36.2627 Y143.207
G1 X35.924 Y143.2917
G1 X35.7123
G1 X35.3737 Y143.207
G1 X34.908 Y142.7413
G1 X33.6803
G1 X33.2993 Y143.1647
G1 X32.9607 Y143.334
G1 X32.5373 Y143.3763
G1 X32.2833 Y143.2917
G1 X30.3779 Y145.1723
G0 Z3.0
G0 X37.9137 Y141.175
G0 Z1.275
G1 F300.0 Z-0.125
G1 F400.0 X37.8713 Y139.3547
G1 X37.4057 Y138.889
G1 X37.321 Y138.5503
G1 Y138.3387
G1 X37.4057 Y138.0
G1 X37.9137 Y137.492
G1 X38.2523 Y137.4073
G1 X38.464
G1 X38.8027 Y137.492
G1 X39.3107 Y138.0
G1 X39.3953 Y138.3387
G1 Y138.5503
G1 X39.3107 Y138.889
G1 X38.845 Y139.3547
G1 Y140.794
G1 X40.4537 Y142.445
G1 X41.9777
G1 Y144.604
G1 X39.8187
G1 Y143.1223
G1 X37.9137 Y141.175
G0 Z3.0
G0 X39.8187 Y139.524
G0 Z1.275
G1 F300.0 Z-0.125
G1 F400.0 Y137.365
G1 X41.9777
G1 Y139.524
G1 X41.385
G1 Y140.4977
G1 X44.433
G1 X44.8987 Y140.032
G1 X45.2373 Y139.9473
G1 X45.449
G1 X45.7877 Y140.032
G1 X46.2533 Y140.4977
G1 X46.973
G1 X47.4387 Y140.032
G1 X47.7773 Y139.9473
G1 X47.989
G1 X48.3277 Y140.032
G1 X48.8357 Y140.54
G1 X48.9203 Y140.8787
G1 Y141.0903
G1 X48.8357 Y141.429
G1 X48.3277 Y141.937
G1 X47.989 Y142.0217
G1 X47.7773
G1 X47.4387 Y141.937
G1 X46.973 Y141.4713
G1 X46.2533
G1 X45.7877 Y141.937
G1 X45.449 Y142.0217
G1 X45.1527
G1 X44.8987 Y141.937
G1 X44.433 Y141.4713
G1 X40.7077 Y141.429
G1 X40.4537 Y141.175
G1 X40.4113 Y139.524
G1 X39.8187
G0 Z3.0
G0 X40.4836 Y136.8645
G0 Z1.275
G1 F300.0 Z-0.125
G1 F400.0 X40.4537 Y136.857
G1 X39.9457 Y136.349
G1 X39.861 Y136.0103
G1 Y135.7987
G1 X39.9457 Y135.46
G1 X40.4537 Y134.952
G1 X40.7923 Y134.8673
G1 X41.004
G1 X41.3427 Y134.952
G1 X41.8083 Y135.4177
G1 X42.3587 Y135.46
G1 X43.8827 Y136.984
G1 X43.925 Y137.5343
G1 X44.3907 Y138.0
G1 X44.4753 Y138.3387
G1 Y138.5503
G1 X44.3907 Y138.889
G1 X43.8827 Y139.397
G1 X43.544 Y139.4817
G1 X43.2477
G1 X42.9937 Y139.397
G1 X42.4857 Y138.889
G1 X42.401 Y138.5503
G1 Y138.3387
G1 X42.4857 Y138.0
G1 X42.9513 Y137.5343
G1 Y137.3227
G1 X41.9777 Y136.3913
G1 X41.8083
G1 X41.3427 Y136.857
G1 X41.004 Y136.9417
G1 X40.7923
G1 X40.4836 Y136.8645
G0 Z3.0
G0 X39.3107 Y136.349
G0 Z1.275
G1 F300.0 Z-0.125
G1 F400.0 X38.8027 Y136.857
G1 X38.464 Y136.9417
G1 X38.1677
G1 X37.9137 Y136.857
G1 X37.448 Y136.3913
G1 X35.6277 Y136.349
G1 X33.4687 Y134.19
G1 Y130.634
G1 X34.8233 Y129.237
G1 X34.781 Y128.856
G1 X34.8657 Y128.475
G1 X35.3737 Y127.967
G1 X35.7123 Y127.8823
G1 X35.924
G1 X36.2627 Y127.967
G1 X36.7707 Y128.475
G1 X36.8553 Y128.8137
G1 Y129.0253
G1 X36.7707 Y129.364
G1 X36.2627 Y129.872
G1 X35.8817 Y129.9567
G1 X35.5007 Y129.9143
G1 X34.4 Y130.9727
G1 Y133.8513
G1 X36.0087 Y135.4177
G1 X37.448
G1 X37.9137 Y134.952
G1 X38.2523 Y134.8673
G1 X38.464
G1 X38.8027 Y134.952
G1 X39.3107 Y135.46
G1 X39.3953 Y135.7987
G1 Y136.0103
G1 X39.3107 Y136.349
G0 Z3.0
G0 X38.8027 Y134.317
G0 Z1.275
G1 F300.0 Z-0.125
G1 F400.0 X38.464 Y134.4017
G1 X38.2523
G1 X37.9137 Y134.317
G1 X37.448 Y133.8513
G1 X36.7283
G1 X36.2627 Y134.317
G1 X35.924 Y134.4017
G1 X35.6277
G1 X35.3737 Y134.317
G1 X34.8657 Y133.809
G1 X34.781 Y133.4703
G1 Y133.2587
G1 X34.8657 Y132.92
G1 X35.3737 Y132.412
G1 X35.7123 Y132.3273
G1 X35.924
G1 X36.2627 Y132.412
G1 X36.7283 Y132.8777
G1 X37.448
G1 X37.8713 Y132.4543
G1 X37.9137 Y129.999
G1 X39.7763 Y128.094
G1 X39.8187 Y126.189
G1 X41.3427 Y124.665
G1 X44.2637
G1 X47.1 Y127.459
G1 X48.6663
G1 X49.4283 Y126.697
G1 X49.386 Y126.316
G1 X49.4707 Y125.935
G1 X49.9787 Y125.427
G1 X50.3173 Y125.3423
G1 X50.529
G1 X50.8677 Y125.427
G1 X51.3333 Y125.8927
G1 X55.0587 Y125.935
G1 X56.9637 Y127.7977
G1 X59.5883
G1 Y127.2897
G1 X61.578
G1 Y127.7977
G1 X62.0013
G1 Y119.5003
G1 X61.705 Y119.2463
G1 X60.3927 Y119.204
G1 X60.1387 Y118.95
G1 X60.0963 Y116.7063
G1 X58.9533
G1 X58.4877 Y117.172
G1 X58.149 Y117.2567
G1 X57.9373
G1 X57.5987 Y117.172
G1 X57.0907 Y116.664
G1 X57.006 Y116.3253
G1 Y116.1137
G1 X57.0907 Y115.775
G1 X57.5987 Y115.267
G1 X57.9373 Y115.1823
G1 X58.149
G1 X58.4877 Y115.267
G1 X58.9533 Y115.7327
G1 X60.0963
G1 Y107.6893
G1 X59.5883
G1 Y107.1813
G1 X55.3127 Y107.139
G1 X54.0427 Y105.9113
G1 X50.9523
G1 X50.7407 Y105.7843
G1 X50.3597 Y105.8267
G1 X49.9787 Y105.742
G1 X49.4707 Y105.234
G1 X49.386 Y104.8953
G1 Y104.6837
G1 X49.4707 Y104.345
G1 X49.9787 Y103.837
G1 X50.3173 Y103.7523
G1 X50.529
G1 X50.8677 Y103.837
G1 X51.3757 Y104.345
G1 X51.4603 Y104.6837
G1 Y104.9377
G1 X54.4237 Y104.98
G1 X55.6937 Y106.2077
G1 X59.5883
G1 Y105.6997
G1 X61.578
G1 Y106.2077
G1 X62.0013
G1 Y95.1163
G1 X58.9533
G1 X58.4877 Y95.582
G1 X58.149 Y95.6667
G1 X57.9373
G1 X57.5987 Y95.582
G1 X57.0907 Y95.074
G1 X57.006 Y94.7353
G1 Y94.5237
G1 X57.0907 Y94.185
G1 X57.5987 Y93.677
G1 X57.9373 Y93.5923
G1 X58.149
G1 X58.4877 Y93.677
G1 X58.9533 Y94.1427
G1 X62.0013
G1 Y85.5913
G1 X61.578
G1 Y86.0993
G1 X59.5883
G1 Y85.5913
G1 X55.3127 Y85.549
G1 X54.0427 Y84.3213
G1 X50.9523
G1 X50.7407 Y84.1943
G1 X50.3597 Y84.2367
G1 X49.9787 Y84.152
G1 X49.4707 Y83.644
G1 X49.386 Y83.3053
G1 Y83.0937
G1 X49.4707 Y82.755
G1 X49.9787 Y82.247
G1 X50.3173 Y82.1623
G1 X50.529
G1 X50.8677 Y82.247
G1 X51.3757 Y82.755
G1 X51.4603 Y83.0937
G1 Y83.3477
G1 X54.4237 Y83.39
G1 X55.6937 Y84.6177
G1 X59.5883
G1 Y84.1097
G1 X61.578
G1 Y84.6177
G1 X62.0013
G1 Y73.5263
G1 X58.9533
G1 X58.4877 Y73.992
G1 X58.149 Y74.0767
G1 X57.9373
G1 X57.5987 Y73.992
G1 X57.0907 Y73.484
G1 X57.006 Y73.1453
G1 Y72.9337
G1 X57.0907 Y72.595
G1 X57.5987 Y72.087
G1 X57.9373 Y72.0023
G1 X58.149
G1 X58.4877 Y72.087
G1 X58.9533 Y72.5527
G1 X62.0013
G1 X62.0437 Y63.324
G1 X62.2977 Y63.07
G1 X63.3983 Y63.0277
G1 Y62.7313
G1 X52.7727 Y62.689
G1 X47.6927 Y57.6513
G1 X45.5337
G1 X40.4537 Y62.689
G1 X14.0377
G1 X12.6407 Y61.3343
G1 X12.2597 Y61.3767
G1 X11.8787 Y61.292
G1 X11.3707 Y60.784
G1 X11.286 Y60.4453
G1 Y60.2337
G1 X11.3707 Y59.895
G1 X11.8363 Y59.4293
G1 Y58.7097
G1 X11.3707 Y58.244
G1 X11.286 Y57.9053
G1 Y57.6937
G1 X11.3707 Y57.355
G1 X11.8363 Y56.8893
G1 Y56.1697
G1 X11.3707 Y55.704
G1 X11.286 Y55.3653
G1 Y55.1537
G1 X11.3707 Y54.815
G1 X11.8363 Y54.3493
G1 Y53.6297
G1 X11.3707 Y53.164
G1 X11.286 Y52.8253
G1 Y52.6137
G1 X11.3707 Y52.275
G1 X11.8363 Y51.8093
G1 Y51.0897
G1 X11.3707 Y50.624
G1 X11.286 Y50.2853
G1 Y50.0737
G1 X11.3707 Y49.735
G1 X11.8363 Y49.2693
G1 Y48.5497
G1 X11.3707 Y48.084
G1 X11.286 Y47.7453
G1 Y47.5337
G1 X11.3707 Y47.195
G1 X11.8363 Y46.7293
G1 Y46.0097
G1 X11.3707 Y45.544
G1 X11.286 Y45.2053
G1 Y44.9937
G1 X11.3707 Y44.655
G1 X11.8363 Y44.1893
G1 Y43.4697
G1 X11.3707 Y43.004
G1 X11.286 Y42.6653
G1 Y42.4537
G1 X11.3707 Y42.115
G1 X11.8363 Y41.6493
G1 Y40.9297
G1 X11.3707 Y40.464
G1 X11.286 Y40.1253
G1 Y39.9137
G1 X11.3707 Y39.575
G1 X11.8363 Y39.1093
G1 Y38.3897
G1 X11.3707 Y37.924
G1 X11.286 Y37.5853
G1 Y37.3737
G1 X11.3707 Y37.035
G1 X11.8363 Y36.5693
G1 Y35.8497
G1 X11.3707 Y35.384
G1 X11.286 Y35.0453
G1 Y34.8337
G1 X11.3707 Y34.495
G1 X11.8363 Y34.0293
G1 Y33.3097
G1 X11.3707 Y32.844
G1 X11.286 Y32.5053
G1 Y32.2937
G1 X11.3707 Y31.955
G1 X11.8363 Y31.4893
G1 Y30.7697
G1 X11.3707 Y30.304
G1 X11.286 Y29.9653
G1 Y29.7537
G1 X11.3707 Y29.415
G1 X11.8363 Y28.9493
G1 Y28.2297
G1 X11.3707 Y27.764
G1 X11.286 Y27.4253
G1 Y27.2137
G1 X11.3707 Y26.875
G1 X11.8363 Y26.4093
G1 Y25.6897
G1 X11.3707 Y25.224
G1 X11.286 Y24.8853
G1 Y24.6737
G1 X11.3707 Y24.335
G1 X11.8363 Y23.8693
G1 Y23.1497
G1 X11.3707 Y22.684
G1 X11.286 Y22.3453
G1 Y22.1337
G1 X11.3707 Y21.795
G1 X11.8787 Y21.287
G1 X12.2173 Y21.2023
G1 X12.429
G1 X12.7677 Y21.287
G1 X13.2757 Y21.795
G1 X13.3603 Y22.1337
G1 Y22.3453
G1 X13.2757 Y22.684
G1 X12.81 Y23.1497
G1 Y23.8693
G1 X13.2757 Y24.335
G1 X13.3603 Y24.6737
G1 Y24.8853
G1 X13.2757 Y25.224
G1 X12.81 Y25.6897
G1 Y26.4093
G1 X13.2757 Y26.875
G1 X13.3603 Y27.2137
G1 Y27.4253
G1 X13.2757 Y27.764
G1 X12.81 Y28.2297
G1 Y28.9493
G1 X13.2757 Y29.415
G1 X13.3603 Y29.7537
G1 Y29.9653
G1 X13.2757 Y30.304
G1 X12.81 Y30.7697
G1 Y31.4893
G1 X13.2757 Y31.955
G1 X13.3603 Y32.2937
G1 Y32.5053
G1 X13.2757 Y32.844
G1 X12.81 Y33.3097
G1 Y34.0293
G1 X13.2757 Y34.495
G1 X13.3603 Y34.8337
G1 Y35.0453
G1 X13.2757 Y35.384
G1 X12.81 Y35.8497
G1 Y36.5693
G1 X13.2757 Y37.035
G1 X13.3603 Y37.3737
G1 Y37.5853
G1 X13.2757 Y37.924
G1 X12.81 Y38.3897
G1 Y39.1093
G1 X13.2757 Y39.575
G1 X13.3603 Y39.9137
G1 Y40.1253
G1 X13.2757 Y40.464
G1 X12.81 Y40.9297
G1 Y41.6493
G1 X13.2757 Y42.115
G1 X13.3603 Y42.4537
G1 Y42.6653
G1 X13.2757 Y43.004
G1 X12.81 Y43.4697
G1 Y44.1893
G1 X13.2757 Y44.655
G1 X13.3603 Y44.9937
G1 Y45.2053
G1 X13.2757 Y45.544
G1 X12.81 Y46.0097
G1 Y46.7293
G1 X13.2757 Y47.195
G1 X13.3603 Y47.5337
G1 Y47.7453
G1 X13.2757 Y48.084
G1 X12.81 Y48.5497
G1 Y49.2693
G1 X13.2757 Y49.735
G1 X13.3603 Y50.0737
G1 Y50.2853
G1 X13.2757 Y50.624
G1 X12.81 Y51.0897
G1 Y51.8093
G1 X13.2757 Y52.275
G1 X13.3603 Y52.6137
G1 Y52.8253
G1 X13.2757 Y53.164
G1 X12.81 Y53.6297
G1 Y54.3493
G1 X13.2757 Y54.815
G1 X13.3603 Y55.1537
G1 Y55.3653
G1 X13.2757 Y55.704
G1 X12.81 Y56.1697
G1 Y56.8893
G1 X13.2757 Y57.355
G1 X13.3603 Y57.6937
G1 Y57.9053
G1 X13.2757 Y58.244
G1 X12.81 Y58.7097
G1 Y59.4293
G1 X13.2757 Y59.895
G1 X13.3603 Y60.276
G1 X13.318 Y60.657
G1 X14.3763 Y61.7577
G1 X40.0727
G1 X45.1527 Y56.72
G1 X47.6927 Y56.6777
G1 X48.7933 Y55.6193
G1 X48.751 Y54.8997
G1 X46.338 Y52.4443
G1 X45.9147 Y52.4867
G1 X45.5337 Y52.402
G1 X45.068 Y51.9363
G1 X38.1677 Y51.894
G1 X34.8657 Y48.6343
G1 X34.4847 Y48.6767
G1 X34.1037 Y48.592
G1 X33.5957 Y48.084
G1 X33.511 Y47.7453
G1 Y47.5337
G1 X33.5957 Y47.195
G1 X34.1037 Y46.687
G1 X34.4423 Y46.6023
G1 X34.654
G1 X34.9927 Y46.687
G1 X35.5007 Y47.195
G1 X35.5853 Y47.576
G1 X35.543 Y47.957
G1 X38.5063 Y50.9627
G1 X45.068
G1 X45.5337 Y50.497
G1 X45.8723 Y50.4123
G1 X46.084
G1 X46.4227 Y50.497
G1 X46.9307 Y51.005
G1 X47.0153 Y51.386
G1 X46.973 Y51.8093
G1 X49.4707 Y54.2647
G1 X49.8517 Y54.2223
G1 X50.2327 Y54.307
G1 X50.7407 Y54.815
G1 X50.8253 Y55.1537
G1 Y55.3653
G1 X50.7407 Y55.704
G1 X50.2327 Y56.212
G1 X49.8517 Y56.2967
G1 X49.4707 Y56.2543
G1 X48.5393 Y57.1433
G1 X53.1113 Y61.7577
G1 X87.74
G1 X88.7983 Y60.657
G1 X88.756 Y60.276
G1 X88.8407 Y59.895
G1 X89.3063 Y59.4293
G1 Y58.7097
G1 X88.8407 Y58.244
G1 X88.756 Y57.9053
G1 Y57.6937
G1 X88.8407 Y57.355
G1 X89.3063 Y56.8893
G1 Y56.1697
G1 X88.8407 Y55.704
G1 X88.756 Y55.3653
G1 Y55.1537
G1 X88.8407 Y54.815
G1 X89.3063 Y54.3493
G1 Y53.6297
G1 X88.8407 Y53.164
G1 X88.756 Y52.8253
G1 Y52.6137
G1 X88.8407 Y52.275
G1 X89.3063 Y51.8093
G1 Y51.0897
G1 X88.8407 Y50.624
G1 X88.756 Y50.2853
G1 Y50.0737
G1 X88.8407 Y49.735
G1 X89.3063 Y49.2693
G1 Y48.5497
G1 X88.8407 Y48.084
G1 X88.756 Y47.7453
G1 Y47.5337
G1 X88.8407 Y47.195
G1 X89.3063 Y46.7293
G1 Y46.0097
G1 X88.8407 Y45.544
G1 X88.756 Y45.2053
G1 Y44.9937
G1 X88.8407 Y44.655
G1 X89.3063 Y44.1893
G1 Y43.4697
G1 X88.8407 Y43.004
G1 X88.756 Y42.6653
G1 Y42.4537
G1 X88.8407 Y42.115
G1 X89.3063 Y41.6493
G1 Y40.9297
G1 X88.8407 Y40.464
G1 X88.756 Y40.1253
G1 Y39.9137
G1 X88.8407 Y39.575
G1 X89.3063 Y39.1093
G1 Y38.3897
G1 X88.8407 Y37.924
G1 X88.756 Y37.5853
G1 Y37.3737
G1 X88.8407 Y37.035
G1 X89.3063 Y36.5693
G1 Y35.8497
G1 X88.8407 Y35.384
G1 X88.756 Y35.0453
G1 Y34.8337
G1 X88.8407 Y34.495
G1 X89.3063 Y34.0293
G1 Y33.3097
G1 X88.8407 Y32.844
G1 X88.756 Y32.5053
G1 Y32.2937
G1 X88.8407 Y31.955
G1 X89.3063 Y31.4893
G1 Y30.7697
G1 X88.8407 Y30.304
G1 X88.756 Y29.9653
G1 Y29.7537
G1 X88.8407 Y29.415
G1 X89.3063 Y28.9493
G1 Y28.2297
G1 X88.8407 Y27.764
G1 X88.756 Y27.4253
G1 Y27.2137
G1 X88.8407 Y26.875
G1 X89.3063 Y26.4093
G1 Y25.6897
G1 X88.8407 Y25.224
G1 X88.756 Y24.8853
G1 Y24.6737
G1 X88.8407 Y24.335
G1 X89.3063 Y23.8693
G1 Y23.1497
G1 X88.8407 Y22.684
G1 X88.756 Y22.3453
G1 Y22.1337
G1 X88.8407 Y21.795
G1 X89.3487 Y21.287
G1 X89.6873 Y21.2023
G1 X89.899
G1 X90.2377 Y21.287
G1 X90.7457 Y21.795
G1 X90.8303 Y22.1337
G1 Y22.3453
G1 X90.7457 Y22.684
G1 X90.28 Y23.1497
G1 Y23.8693
G1 X90.7457 Y24.335
G1 X90.8303 Y24.6737
G1 Y24.8853
G1 X90.7457 Y25.224
G1 X90.28 Y25.6897
G1 Y26.4093
G1 X90.7457 Y26.875
G1 X90.8303 Y27.2137
G1 Y27.4253
G1 X90.7457 Y27.764
G1 X90.28 Y28.2297
G1 Y28.9493
G1 X90.7457 Y29.415
G1 X90.8303 Y29.7537
G1 Y29.9653
G1 X90.7457 Y30.304
G1 X90.28 Y30.7697
G1 Y31.4893
G1 X90.7457 Y31.955
G1 X90.8303 Y32.2937
G1 Y32.5053
G1 X90.7457 Y32.844
G1 X90.28 Y33.3097
G1 Y34.0293
G1 X90.7457 Y34.495
G1 X90.8303 Y34.8337
G1 Y35.0453
G1 X90.7457 Y35.384
G1 X90.28 Y35.8497
G1 Y36.5693
G1 X90.7457 Y37.035
G1 X90.8303 Y37.3737
G1 Y37.5853
G1 X90.7457 Y37.924
G1 X90.28 Y38.3897
G1 Y39.1093
G1 X90.7457 Y39.575
G1 X90.8303 Y39.9137
G1 Y40.1253
G1 X90.7457 Y40.464
G1 X90.28 Y40.9297
G1 Y41.6493
G1 X90.7457 Y42.115
G1 X90.8303 Y42.4537
G1 Y42.6653
G1 X90.7457 Y43.004
G1 X90.28 Y43.4697
G1 Y44.1893
G1 X90.7457 Y44.655
G1 X90.8303 Y44.9937
G1 Y45.2053
G1 X90.7457 Y45.544
G1 X90.28 Y46.0097
G1 Y46.7293
G1 X90.7457 Y47.195
G1 X90.8303 Y47.5337
G1 Y47.7453
G1 X90.7457 Y48.084
G1 X90.28 Y48.5497
G1 Y49.2693
G1 X90.7457 Y49.735
G1 X90.8303 Y50.0737
G1 Y50.2853
G1 X90.7457 Y50.624
G1 X90.28 Y51.0897
G1 Y51.8093
G1 X90.7457 Y52.275
G1 X90.8303 Y52.6137
G1 Y52.8253
G1 X90.7457 Y53.164
G1 X90.28 Y53.6297
G1 Y54.3493
G1 X90.7457 Y54.815
G1 X90.8303 Y55.1537
G1 Y55.3653
G1 X90.7457 Y55.704
G1 X90.28 Y56.1697
G1 Y56.8893
G1 X90.7457 Y57.355
G1 X90.8303 Y57.6937
G1 Y57.9053
G1 X90.7457 Y58.244
G1 X90.28 Y58.7097
G1 Y59.4293
G1 X90.7457 Y59.895
G1 X90.8303 Y60.2337
G1 Y60.4453
G1 X90.7457 Y60.784
G1 X90.2377 Y61.292
G1 X89.8567 Y61.3767
G1 X89.4757 Y61.3343
G1 X88.0787 Y62.689
G1 X75.04 Y62.7313
G1 Y64.5093
G1 X75.5057 Y64.975
G1 X75.5903 Y65.3137
G1 Y65.5253
G1 X75.5057 Y65.864
G1 X74.9977 Y66.372
G1 X74.659 Y66.4567
G1 X74.4473
G1 X74.1087 Y66.372
G1 X73.6007 Y65.864
G1 X73.516 Y65.5253
G1 Y65.2713
G1 X70.5527 Y65.229
G1 X69.2827 Y64.0013
G1 X65.388
G1 Y64.5093
G1 X63.3983
G1 Y64.0013
G1 X62.975
G1 Y75.0927
G1 X66.023
G1 X66.4887 Y74.627
G1 X66.8273 Y74.5423
G1 X67.039
G1 X67.3777 Y74.627
G1 X67.8857 Y75.135
G1 X67.9703 Y75.4737
G1 Y75.6853
G1 X67.8857 Y76.024
G1 X67.3777 Y76.532
G1 X67.039 Y76.6167
G1 X66.8273
G1 X66.4887 Y76.532
G1 X66.023 Y76.0663
G1 X62.975
G1 Y84.6177
G1 X63.3983
G1 Y84.1097
G1 X65.388
G1 Y84.6177
G1 X69.6637 Y84.66
G1 X70.9337 Y85.8877
G1 X74.024
G1 X74.2357 Y86.0147
G1 X74.6167 Y85.9723
G1 X74.9977 Y86.057
G1 X75.5057 Y86.565
G1 X75.5903 Y86.9037
G1 Y87.1153
G1 X75.5057 Y87.454
G1 X74.9977 Y87.962
G1 X74.659 Y88.0467
G1 X74.4473
G1 X74.1087 Y87.962
G1 X73.6007 Y87.454
G1 X73.516 Y87.1153
G1 Y86.8613
G1 X70.5527 Y86.819
G1 X69.2827 Y85.5913
G1 X65.388
G1 Y86.0993
G1 X63.3983
G1 Y85.5913
G1 X62.975
G1 Y96.6827
G1 X66.023
G1 X66.4887 Y96.217
G1 X66.8273 Y96.1323
G1 X67.039
G1 X67.3777 Y96.217
G1 X67.8857 Y96.725
G1 X67.9703 Y97.0637
G1 Y97.2753
G1 X67.8857 Y97.614
G1 X67.3777 Y98.122
G1 X67.039 Y98.2067
G1 X66.8273
G1 X66.4887 Y98.122
G1 X66.023 Y97.6563
G1 X62.975
G1 Y106.2077
G1 X63.3983
G1 Y105.6997
G1 X65.388
G1 Y106.2077
G1 X69.6637 Y106.25
G1 X70.9337 Y107.4777
G1 X74.024
G1 X74.2357 Y107.6047
G1 X74.6167 Y107.5623
G1 X74.9977 Y107.647
G1 X75.5057 Y108.155
G1 X75.5903 Y108.4937
G1 Y108.7053
G1 X75.5057 Y109.044
G1 X74.9977 Y109.552
G1 X74.659 Y109.6367
G1 X74.4473
G1 X74.1087 Y109.552
G1 X73.6007 Y109.044
G1 X73.516 Y108.7053
G1 Y108.4513
G1 X70.5527 Y108.409
G1 X69.2827 Y107.1813
G1 X65.388
G1 Y107.6893
G1 X63.3983
G1 Y107.1813
G1 X61.578
G1 Y107.6893
G1 X61.07
G1 Y118.2727
G1 X61.7473
G1 X61.959 Y118.0187
G1 X62.2977 Y117.8493
G1 X62.6787
G1 X63.0173 Y118.0187
G1 X63.229 Y118.2727
G1 X66.023
G1 X66.4887 Y117.807
G1 X66.8273 Y117.7223
G1 X67.039
G1 X67.3777 Y117.807
G1 X67.8857 Y118.315
G1 X67.9703 Y118.6537
G1 Y118.8653
G1 X67.8857 Y119.204
G1 X67.3777 Y119.712
G1 X67.039 Y119.7967
G1 X66.8273
G1 X66.4887 Y119.712
G1 X66.023 Y119.2463
G1 X63.229
G1 X62.975 Y119.5427
G1 X62.9327 Y128.475
G1 X62.6787 Y128.729
G1 X61.578 Y128.7713
G1 Y129.2793
G1 X59.5883
G1 Y128.7713
G1 X56.5827 Y128.729
G1 X54.6777 Y126.8663
G1 X51.3333
G1 X50.8677 Y127.332
G1 X50.4867 Y127.4167
G1 X50.0633 Y127.3743
G1 X49.005 Y128.3903
G1 X46.719
G1 X43.8827 Y125.5963
G1 X41.6813
G1 X40.75 Y126.57
G1 X40.7077 Y128.475
G1 X38.845 Y130.38
G1 Y132.4543
G1 X39.3107 Y132.92
G1 X39.3953 Y133.2587
G1 Y133.4703
G1 X39.3107 Y133.809
G1 X38.8027 Y134.317
G0 Z3.0
G0 X65.388 Y63.0277
G0 Z1.275
G1 F300.0 Z-0.125
G1 F400.0 Y62.7313
G1 X74.0663
G1 Y64.0013
G1 X73.7277 Y64.2977
G1 X70.8913
G1 X69.6637 Y63.07
G1 X65.388 Y63.0277
G0 Z3.0
G0 Y61.4613
G0 Z1.275
G1 F300.0 Z-0.125
G1 F400.0 X63.0173
G1 X62.848 Y61.3767
G1 X57.768 Y56.2543
G1 X57.3447 Y56.2967
G1 X56.9637 Y56.212
G1 X56.4557 Y55.704
G1 X56.371 Y55.3653
G1 Y55.1537
G1 X56.4557 Y54.815
G1 X56.9637 Y54.307
G1 X57.3023 Y54.2223
G1 X57.514
G1 X57.8527 Y54.307
G1 X58.3607 Y54.815
G1 X58.4453 Y55.196
G1 X58.403 Y55.577
G1 X63.2713 Y60.4877
G1 X76.0137
G1 Y59.26
G1 X78.1727
G1 Y59.8527
G1 X78.596
G1 Y59.3023
G1 X80.6703
G1 Y61.3767
G1 X78.596
G1 Y60.8263
G1 X78.1727
G1 Y61.419
G1 X75.7597 Y61.4613
G1 X65.388
G0 Z3.0
G0 X65.3831 Y60.1872
G0 Z1.275
G1 F300.0 Z-0.125
G1 F400.0 X64.2873 Y60.1913
G1 X64.118 Y60.1067
G1 X60.308 Y56.2543
G1 X59.8847 Y56.2967
G1 X59.5037 Y56.212
G1 X58.9957 Y55.704
G1 X58.911 Y55.3653
G1 Y55.1537
G1 X58.9957 Y54.815
G1 X59.5037 Y54.307
G1 X59.8423 Y54.2223
G1 X60.054
G1 X60.3927 Y54.307
G1 X60.9007 Y54.815
G1 X60.9853 Y55.196
G1 X60.943 Y55.577
G1 X64.5413 Y59.2177
G1 X74.7013
G1 X74.7437 Y58.879
G1 X76.1407 Y57.4397
G1 X76.2253 Y57.228
G1 X76.6487 Y56.847
G1 X76.9873 Y56.7623
G1 X77.199
G1 X77.5377 Y56.847
G1 X78.0033 Y57.3127
G1 X78.596
G1 Y56.7623
G1 X80.6703
G1 Y58.8367
G1 X78.596
G1 Y58.2863
G1 X78.0033
G1 X77.5377 Y58.752
G1 X77.199 Y58.8367
G1 X76.945
G1 X76.691 Y58.752
G1 X76.3947 Y58.5403
G1 X75.675 Y59.2177
G1 X75.6327 Y59.895
G1 X75.3787 Y60.149
G1 X65.3831 Y60.1872
G0 Z3.0
G0 X65.5573 Y58.9213
G0 Z1.275
G1 F300.0 Z-0.125
G1 F400.0 X65.388 Y58.8367
G1 X62.848 Y56.2543
G1 X62.4247 Y56.2967
G1 X62.0437 Y56.212
G1 X61.5357 Y55.704
G1 X61.451 Y55.3653
G1 Y55.1537
G1 X61.5357 Y54.815
G1 X62.0437 Y54.307
G1 X62.3823 Y54.2223
G1 X62.594
G1 X62.9327 Y54.307
G1 X63.4407 Y54.815
G1 X63.5253 Y55.196
G1 X63.483 Y55.577
G1 X65.8113 Y57.9477
G1 X73.77
G1 X76.0983 Y55.577
G1 X76.056 Y55.196
G1 X76.1407 Y54.815
G1 X76.6487 Y54.307
G1 X76.9873 Y54.2223
G1 X77.199
G1 X77.5377 Y54.307
G1 X78.0033 Y54.7727
G1 X78.596
G1 Y54.2223
G1 X80.6703
G1 Y56.2967
G1 X78.596
G1 Y55.7463
G1 X78.0033
G1 X77.5377 Y56.212
G1 X77.1567 Y56.2967
G1 X76.7757 Y56.2543
G1 X74.1087 Y58.879
G1 X65.5573 Y58.9213
G0 Z3.0
G0 X66.658 Y57.5667
G0 Z1.275
G1 F300.0 Z-0.125
G1 F400.0 X65.388 Y56.2543
G1 X64.9647 Y56.2967
G1 X64.5837 Y56.212
G1 X64.0757 Y55.704
G1 X63.991 Y55.3653
G1 Y55.1537
G1 X64.0757 Y54.815
G1 X64.5837 Y54.307
G1 X64.9223 Y54.2223
G1 X65.134
G1 X65.4727 Y54.307
G1 X65.9807 Y54.815
G1 X66.0653 Y55.196
G1 X66.023 Y55.577
G1 X67.0813 Y56.6777
G1 X72.5
G1 X76.0983 Y53.037
G1 X76.056 Y52.656
G1 X76.1407 Y52.275
G1 X76.6487 Y51.767
G1 X76.9873 Y51.6823
G1 X77.199
G1 X77.5377 Y51.767
G1 X78.0033 Y52.2327
G1 X78.596
G1 Y51.6823
G1 X80.6703
G1 Y53.7567
G1 X78.596
G1 Y53.2063
G1 X78.0033
G1 X77.5377 Y53.672
G1 X77.1567 Y53.7567
G1 X76.7757 Y53.7143
G1 X72.8387 Y57.609
G1 X66.8273 Y57.6513
G1 X66.658 Y57.5667
G0 Z3.0
G0 X67.1237 Y56.212
G0 Z1.275
G1 F300.0 Z-0.125
G1 F400.0 X66.6157 Y55.704
G1 X66.531 Y55.323
G1 X66.5733 Y54.942
G1 X63.61 Y51.9363
G1 X57.0483
G1 X56.5827 Y52.402
G1 X56.244 Y52.4867
G1 X56.0323
G1 X55.6937 Y52.402
G1 X55.1857 Y51.894
G1 X55.101 Y51.513
G1 X55.1433 Y51.0897
G1 X52.6457 Y48.6343
G1 X52.2647 Y48.6767
G1 X51.8837 Y48.592
G1 X51.3757 Y48.084
G1 X51.291 Y47.703
G1 X51.3333 Y47.322
G1 X49.3437 Y45.29
G1 X49.3013 Y35.8497
G1 X48.8357 Y35.384
G1 X48.751 Y35.003
G1 X48.7933 Y34.5797
G1 X46.2957 Y32.1243
G1 X45.9147 Y32.1667
G1 X45.5337 Y32.082
G1 X45.068 Y31.6163
G1 X38.1677 Y31.574
G1 X34.8657 Y28.3143
G1 X34.4847 Y28.3567
G1 X34.1037 Y28.272
G1 X33.5957 Y27.764
G1 X33.511 Y27.4253
G1 Y27.2137
G1 X33.5957 Y26.875
G1 X34.1037 Y26.367
G1 X34.4423 Y26.2823
G1 X34.654
G1 X34.9927 Y26.367
G1 X35.5007 Y26.875
G1 X35.5853 Y27.256
G1 X35.543 Y27.637
G1 X38.5063 Y30.6427
G1 X45.068
G1 X45.5337 Y30.177
G1 X45.8723 Y30.0923
G1 X46.084
G1 X46.4227 Y30.177
G1 X46.9307 Y30.685
G1 X47.0153 Y31.066
G1 X46.973 Y31.447
G1 X49.4283 Y33.9447
G1 X49.8517 Y33.9023
G1 X50.2327 Y33.987
G1 X50.7407 Y34.495
G1 X50.8253 Y34.8337
G1 Y35.0453
G1 X50.7407 Y35.384
G1 X50.275 Y35.8497
G1 Y40.8027
G1 X50.8677
G1 X53.4077 Y38.305
G1 X54.0003 Y38.2627
G1 X54.2543 Y37.9663
G1 X54.6777 Y37.7547
G1 X55.0587
G1 X55.482 Y37.9663
G1 X55.736 Y38.2627
G1 X56.5403
G1 X56.7943 Y37.9663
G1 X57.2177 Y37.7547
G1 X57.5987
G1 X57.9373 Y37.924
G1 X58.1913 Y38.1357
G1 X58.403 Y38.559
G1 Y38.94
G1 X58.1913 Y39.3633
G1 X57.9373 Y39.575
G1 X57.5987 Y39.7443
G1 X57.2177
G1 X56.7943 Y39.5327
G1 X56.5403 Y39.2363
G1 X55.736
G1 X55.482 Y39.5327
G1 X55.0587 Y39.7443
G1 X54.6777
G1 X54.2543 Y39.5327
G1 X54.0003 Y39.2363
G1 X53.7887
G1 X51.2487 Y41.734
G1 X50.275 Y41.7763
G1 Y44.9513
G1 X52.0107 Y46.6447
G1 X52.3917 Y46.6023
G1 X52.7727 Y46.687
G1 X53.2807 Y47.195
G1 X53.3653 Y47.576
G1 X53.323 Y47.957
G1 X55.7783 Y50.4547
G1 X56.2017 Y50.4123
G1 X56.5827 Y50.497
G1 X57.0483 Y50.9627
G1 X63.9487 Y51.005
G1 X67.2507 Y54.2647
G1 X67.6317 Y54.2223
G1 X68.0127 Y54.307
G1 X68.5207 Y54.815
G1 X68.6053 Y55.1537
G1 Y55.3653
G1 X68.5207 Y55.704
G1 X68.0127 Y56.212
G1 X67.674 Y56.2967
G1 X67.3777
G1 X67.1237 Y56.212
G0 Z3.0
G0 X69.1557 Y55.704
G0 Z1.275
G1 F300.0 Z-0.125
G1 F400.0 X69.071 Y55.3653
G1 Y55.1537
G1 X69.1557 Y54.815
G1 X69.6637 Y54.307
G1 X70.0023 Y54.2223
G1 X70.2563
G1 X70.5103 Y54.307
G1 X70.8067 Y54.5187
G1 X72.2883 Y53.0793
G1 X72.246 Y52.656
G1 X72.3307 Y52.275
G1 X72.8387 Y51.767
G1 X73.1773 Y51.6823
G1 X73.389
G1 X73.7277 Y51.767
G1 X74.2357 Y52.275
G1 X74.3203 Y52.6137
G1 Y52.8253
G1 X74.2357 Y53.164
G1 X73.7277 Y53.672
G1 X73.3467 Y53.7567
G1 X72.9233 Y53.7143
G1 X71.0607 Y55.6193
G1 X70.976 Y55.831
G1 X70.5527 Y56.212
G1 X70.214 Y56.2967
G1 X69.9177
G1 X69.6637 Y56.212
G1 X69.1557 Y55.704
G0 Z3.0
G0 X69.8161 Y53.7228
G0 Z1.275
G1 F300.0 Z-0.125
G1 F400.0 X69.6637 Y53.672
G1 X69.1557 Y53.164
G1 X69.071 Y52.8253
G1 Y52.6137
G1 X69.1557 Y52.275
G1 X69.6213 Y51.8093
G1 Y48.719
G1 X69.0287
G1 Y46.56
G1 X71.1877
G1 Y47.1527
G1 X72.2037 Y47.195
G1 X75.548 Y50.497
G1 X75.7597 Y50.5817
G1 X76.1407 Y51.005
G1 X76.2253 Y51.3437
G1 Y51.5553
G1 X76.1407 Y51.894
G1 X75.6327 Y52.402
G1 X75.294 Y52.4867
G1 X75.0823
G1 X74.7437 Y52.402
G1 X74.2357 Y51.894
G1 X74.151 Y51.5553
G1 Y51.3013
G1 X74.2357 Y51.0473
G1 X74.4473 Y50.751
G1 X71.865 Y48.1263
G1 X71.1877
G1 Y48.719
G1 X70.595
G1 Y51.8093
G1 X71.0607 Y52.275
G1 X71.1453 Y52.6137
G1 Y52.8253
G1 X71.0607 Y53.164
G1 X70.5527 Y53.672
G1 X70.214 Y53.7567
G1 X69.9177
G1 X69.8161 Y53.7228
G0 Z3.0
G0 X68.0127 Y51.132
G0 Z1.275
G1 F300.0 Z-0.125
G1 F400.0 X67.674 Y51.2167
G1 X67.3777
G1 X67.1237 Y51.132
G1 X66.6157 Y50.624
G1 X66.531 Y50.2853
G1 Y50.0737
G1 X66.6157 Y49.735
G1 X67.0813 Y49.2693
G1 Y48.5497
G1 X66.6157 Y48.084
G1 X66.531 Y47.7453
G1 Y47.5337
G1 X66.6157 Y47.195
G1 X67.1237 Y46.687
G1 X67.4623 Y46.6023
G1 X67.674
G1 X68.0127 Y46.687
G1 X68.5207 Y47.195
G1 X68.6053 Y47.5337
G1 Y47.7453
G1 X68.5207 Y48.084
G1 X68.055 Y48.5497
G1 Y49.2693
G1 X68.5207 Y49.735
G1 X68.6053 Y50.0737
G1 Y50.2853
G1 X68.5207 Y50.624
G1 X68.0127 Y51.132
G0 Z3.0
G0 X65.4727 Y48.592
G0 Z1.275
G1 F300.0 Z-0.125
G1 F400.0 X65.134 Y48.6767
G1 X64.9223
G1 X64.5837 Y48.592
G1 X64.0757 Y48.084
G1 X63.991 Y47.7453
G1 Y47.5337
G1 X64.0757 Y47.195
G1 X64.5837 Y46.687
G1 X64.9647 Y46.6023
G1 X65.3457 Y46.6447
G1 X66.7427 Y45.29
G1 X72.8387
G1 X76.7757 Y49.1847
G1 X77.1567 Y49.1423
G1 X77.5377 Y49.227
G1 X78.0033 Y49.6927
G1 X78.596
G1 Y49.1423
G1 X80.6703
G1 Y51.2167
G1 X78.596
G1 Y50.6663
G1 X78.0033
G1 X77.5377 Y51.132
G1 X77.199 Y51.2167
G1 X76.9027
G1 X76.6487 Y51.132
G1 X76.1407 Y50.624
G1 X76.056 Y50.243
G1 X76.0983 Y49.862
G1 X72.5 Y46.2213
G1 X67.0813
G1 X66.023 Y47.322
G1 X66.0653 Y47.703
G1 X65.9807 Y48.084
G1 X65.4727 Y48.592
G0 Z3.0
G0 X63.4407 Y48.084
G0 Z1.275
G1 F300.0 Z-0.125
G1 F400.0 X62.9327 Y48.592
G1 X62.594 Y48.6767
G1 X62.2977
G1 X62.0437 Y48.592
G1 X61.5357 Y48.084
G1 X61.451 Y47.7453
G1 Y47.5337
G1 X61.5357 Y47.195
G1 X62.0437 Y46.687
G1 X62.4247 Y46.6023
G1 X62.8057 Y46.6447
G1 X65.4727 Y44.02
G1 X74.1087
G1 X76.7757 Y46.6447
G1 X77.1567 Y46.6023
G1 X77.5377 Y46.687
G1 X78.0033 Y47.1527
G1 X78.596
G1 Y46.6023
G1 X80.6703
G1 Y48.6767
G1 X78.596
G1 Y48.1263
G1 X78.0033
G1 X77.5377 Y48.592
G1 X77.199 Y48.6767
G1 X76.9873
G1 X76.6487 Y48.592
G1 X76.1407 Y48.084
G1 X76.056 Y47.703
G1 X76.0983 Y47.322
G1 X73.77 Y44.9513
G1 X65.8113
G1 X63.483 Y47.322
G1 X63.5253 Y47.703
G1 X63.4407 Y48.084
G0 Z3.0
G0 X61.7963 Y46.4587
G0 Z1.275
G1 F300.0 Z-0.125
G1 F400.0 X60.943 Y47.322
G1 X60.9853 Y47.703
G1 X60.9007 Y48.084
G1 X60.3927 Y48.592
G1 X60.054 Y48.6767
G1 X59.7577
G1 X59.5037 Y48.592
G1 X58.9957 Y48.084
G1 X58.911 Y47.7453
G1 Y47.5337
G1 X58.9957 Y47.195
G1 X59.5037 Y46.687
G1 X59.8847 Y46.6023
G1 X60.2657 Y46.6447
G1 X64.2027 Y42.75
G1 X75.3787
G1 X76.7757 Y44.1047
G1 X77.1567 Y44.0623
G1 X77.5377 Y44.147
G1 X78.0033 Y44.6127
G1 X78.596
G1 Y44.0623
G1 X80.6703
G1 Y46.1367
G1 X78.596
G1 Y45.5863
G1 X78.0033
G1 X77.5377 Y46.052
G1 X77.199 Y46.1367
G1 X76.9873
G1 X76.6487 Y46.052
G1 X76.1407 Y45.544
G1 X76.056 Y45.163
G1 X76.0983 Y44.782
G1 X75.04 Y43.6813
G1 X64.5413
G1 X61.7963 Y46.4587
G0 Z3.0
G0 X60.5166 Y45.1901
G0 Z1.275
G1 F300.0 Z-0.125
G1 F400.0 X58.403 Y47.322
G1 X58.4453 Y47.703
G1 X58.3607 Y48.084
G1 X57.8527 Y48.592
G1 X57.514 Y48.6767
G1 X57.2177
G1 X56.9637 Y48.592
G1 X56.4557 Y48.084
G1 X56.371 Y47.7453
G1 Y47.5337
G1 X56.4557 Y47.195
G1 X56.9637 Y46.687
G1 X57.3447 Y46.6023
G1 X57.7257 Y46.6447
G1 X62.9327 Y41.48
G1 X76.5217 Y41.4377
G1 X76.7757 Y41.5647
G1 X77.1567 Y41.5223
G1 X77.5377 Y41.607
G1 X78.0033 Y42.0727
G1 X78.596
G1 Y41.5223
G1 X80.6703
G1 Y43.5967
G1 X78.596
G1 Y43.0463
G1 X78.0033
G1 X77.5377 Y43.512
G1 X77.199 Y43.5967
G1 X76.9873
G1 X76.6487 Y43.512
G1 X76.1407 Y43.004
G1 X76.056 Y42.6653
G1 Y42.4113
G1 X63.2713
G1 X60.5166 Y45.1901
G0 Z3.0
G0 X58.403 Y44.8243
G0 Z1.275
G1 F300.0 Z-0.125
G1 F400.0 X56.4133
G1 Y44.3163
G1 X55.863
G1 Y44.8243
G1 X53.8733
G1 Y44.3163
G1 X53.2383
G1 X52.7727 Y44.782
G1 X52.434 Y44.8667
G1 X52.1377
G1 X51.8837 Y44.782
G1 X51.3757 Y44.274
G1 X51.291 Y43.9353
G1 Y43.7237
G1 X51.3757 Y43.385
G1 X51.8837 Y42.877
G1 X52.2223 Y42.7923
G1 X52.434
G1 X52.7727 Y42.877
G1 X53.2383 Y43.3427
G1 X53.8733
G1 Y42.8347
G1 X55.863
G1 Y43.3427
G1 X56.4133
G1 Y42.8347
G1 X58.403
G1 Y44.8243
G0 Z3.0
G0 X55.8207 Y47.195
G0 Z1.275
G1 F300.0 Z-0.125
G1 F400.0 X55.9053 Y47.5337
G1 Y47.7453
G1 X55.8207 Y48.084
G1 X55.3127 Y48.592
G1 X54.974 Y48.6767
G1 X54.6777
G1 X54.4237 Y48.592
G1 X53.9157 Y48.084
G1 X53.831 Y47.7453
G1 Y47.5337
G1 X53.9157 Y47.195
G1 X54.4237 Y46.687
G1 X54.7623 Y46.6023
G1 X54.974
G1 X55.3127 Y46.687
G1 X55.8207 Y47.195
G0 Z3.0
G0 X50.8253 Y47.5337
G0 Z1.275
G1 F300.0 Z-0.125
G1 F400.0 Y47.7453
G1 X50.7407 Y48.084
G1 X50.275 Y48.5497
G1 Y50.0313
G1 X54.5507 Y54.2647
G1 X54.9317 Y54.2223
G1 X55.3127 Y54.307
G1 X55.8207 Y54.815
G1 X55.9053 Y55.1537
G1 Y55.3653
G1 X55.8207 Y55.704
G1 X55.3127 Y56.212
G1 X54.974 Y56.2967
G1 X54.6777
G1 X54.4237 Y56.212
G1 X53.9157 Y55.704
G1 X53.831 Y55.323
G1 X53.8733 Y54.942
G1 X49.3437 Y50.37
G1 X49.3013 Y48.5497
G1 X48.8357 Y48.084
G1 X48.751 Y47.7453
G1 Y47.5337
G1 X48.8357 Y47.195
G1 X49.3437 Y46.687
G1 X49.6823 Y46.6023
G1 X49.894
G1 X50.2327 Y46.687
G1 X50.7407 Y47.195
G1 X50.8253 Y47.5337
G0 Z3.0
G0 X48.2853
G0 Z1.275
G1 F300.0 Z-0.125
G1 F400.0 Y47.7453
G1 X48.2007 Y48.084
G1 X47.6927 Y48.592
G1 X47.354 Y48.6767
G1 X47.0577
G1 X46.8037 Y48.592
G1 X46.2957 Y48.084
G1 X46.211 Y47.7453
G1 Y47.5337
G1 X46.2957 Y47.195
G1 X46.7613 Y46.7293
G1 Y42.1997
G1 X46.2957 Y41.734
G1 X46.211 Y41.3953
G1 Y41.1837
G1 X46.2957 Y40.845
G1 X46.8037 Y40.337
G1 X47.1423 Y40.2523
G1 X47.354
G1 X47.6927 Y40.337
G1 X48.2007 Y40.845
G1 X48.2853 Y41.1837
G1 Y41.3953
G1 X48.2007 Y41.734
G1 X47.735 Y42.1997
G1 Y46.7293
G1 X48.2007 Y47.195
G1 X48.2853 Y47.5337
G0 Z3.0
G0 X45.7453
G0 Z1.275
G1 F300.0 Z-0.125
G1 F400.0 Y47.7453
G1 X45.6607 Y48.084
G1 X45.1527 Y48.592
G1 X44.814 Y48.6767
G1 X44.5177
G1 X44.2637 Y48.592
G1 X43.7557 Y48.084
G1 X43.671 Y47.703
G1 X43.7133 Y47.322
G1 X38.845 Y42.4113
G1 X26.1027
G1 Y43.639
G1 X23.9437
G1 Y43.0463
G1 X23.5203
G1 Y43.5967
G1 X21.446
G1 Y41.5223
G1 X23.5203
G1 Y42.0727
G1 X23.9437
G1 Y41.48
G1 X27.2033 Y41.4377
G1 X39.1837 Y41.48
G1 X44.3907 Y46.6447
G1 X44.7717 Y46.6023
G1 X45.1527 Y46.687
G1 X45.6607 Y47.195
G1 X45.7453 Y47.5337
G0 Z3.0
G0 X43.2053
G0 Z1.275
G1 F300.0 Z-0.125
G1 F400.0 Y47.7453
G1 X43.1207 Y48.084
G1 X42.6127 Y48.592
G1 X42.274 Y48.6767
G1 X41.9777
G1 X41.7237 Y48.592
G1 X41.2157 Y48.084
G1 X41.131 Y47.703
G1 X41.1733 Y47.322
G1 X37.575 Y43.6813
G1 X27.415
G1 X27.3727 Y44.02
G1 X25.9757 Y45.4593
G1 X25.891 Y45.671
G1 X25.4677 Y46.052
G1 X25.129 Y46.1367
G1 X24.9173
G1 X24.5787 Y46.052
G1 X24.113 Y45.5863
G1 X23.5203
G1 Y46.1367
G1 X21.446
G1 Y44.0623
G1 X23.5203
G1 Y44.6127
G1 X24.113
G1 X24.5787 Y44.147
G1 X24.9173 Y44.0623
G1 X25.1713
G1 X25.4253 Y44.147
G1 X25.7217 Y44.3587
G1 X26.4413 Y43.6813
G1 X26.4837 Y43.004
G1 X26.7377 Y42.75
G1 X37.9137
G1 X41.8507 Y46.6447
G1 X42.2317 Y46.6023
G1 X42.6127 Y46.687
G1 X43.1207 Y47.195
G1 X43.2053 Y47.5337
G0 Z3.0
G0 X40.6653
G0 Z1.275
G1 F300.0 Z-0.125
G1 F400.0 Y47.7453
G1 X40.5807 Y48.084
G1 X40.0727 Y48.592
G1 X39.734 Y48.6767
G1 X39.5223
G1 X39.1837 Y48.592
G1 X38.6757 Y48.084
G1 X38.591 Y47.703
G1 X38.6333 Y47.322
G1 X36.305 Y44.9513
G1 X28.3463
G1 X26.018 Y47.322
G1 X26.0603 Y47.703
G1 X25.9757 Y48.084
G1 X25.4677 Y48.592
G1 X25.129 Y48.6767
G1 X24.9173
G1 X24.5787 Y48.592
G1 X24.113 Y48.1263
G1 X23.5203
G1 Y48.6767
G1 X21.446
G1 Y46.6023
G1 X23.5203
G1 Y47.1527
G1 X24.113
G1 X24.5787 Y46.687
G1 X24.9597 Y46.6023
G1 X25.3407 Y46.6447
G1 X28.0077 Y44.02
G1 X36.6437
G1 X39.3107 Y46.6447
G1 X39.6917 Y46.6023
G1 X40.0727 Y46.687
G1 X40.5807 Y47.195
G1 X40.6653 Y47.5337
G0 Z3.0
G0 X38.1253
G0 Z1.275
G1 F300.0 Z-0.125
G1 F400.0 Y47.7453
G1 X38.0407 Y48.084
G1 X37.5327 Y48.592
G1 X37.194 Y48.6767
G1 X36.9823
G1 X36.6437 Y48.592
G1 X36.1357 Y48.084
G1 X36.051 Y47.703
G1 X36.0933 Y47.322
G1 X35.035 Y46.2213
G1 X29.6163
G1 X26.018 Y49.862
G1 X26.0603 Y50.243
G1 X25.9757 Y50.624
G1 X25.4677 Y51.132
G1 X25.129 Y51.2167
G1 X24.9173
G1 X24.5787 Y51.132
G1 X24.113 Y50.6663
G1 X23.5203
G1 Y51.2167
G1 X21.446
G1 Y49.1423
G1 X23.5203
G1 Y49.6927
G1 X24.113
G1 X24.5787 Y49.227
G1 X24.9597 Y49.1423
G1 X25.3407 Y49.1847
G1 X29.2777 Y45.29
G1 X35.3737
G1 X36.7707 Y46.6447
G1 X37.1517 Y46.6023
G1 X37.5327 Y46.687
G1 X38.0407 Y47.195
G1 X38.1253 Y47.5337
G0 Z3.0
G0 X35.5007 Y49.735
G0 Z1.275
G1 F300.0 Z-0.125
G1 F400.0 X35.5853 Y50.0737
G1 Y50.2853
G1 X35.5007 Y50.624
G1 X35.035 Y51.0897
G1 Y54.3493
G1 X35.5007 Y54.815
G1 X35.5853 Y55.1537
G1 Y55.3653
G1 X35.5007 Y55.704
G1 X34.9927 Y56.212
G1 X34.654 Y56.2967
G1 X34.3577
G1 X34.1037 Y56.212
G1 X33.5957 Y55.704
G1 X33.511 Y55.3653
G1 Y55.1537
G1 X33.5957 Y54.815
G1 X34.0613 Y54.3493
G1 Y51.0897
G1 X33.5957 Y50.624
G1 X33.511 Y50.2853
G1 Y50.0737
G1 X33.5957 Y49.735
G1 X34.1037 Y49.227
G1 X34.4423 Y49.1423
G1 X34.654
G1 X34.9927 Y49.227
G1 X35.5007 Y49.735
G0 Z3.0
G0 X32.9607 Y48.084
G0 Z1.275
G1 F300.0 Z-0.125
G1 F400.0 X32.4527 Y48.592
G1 X32.114 Y48.6767
G1 X31.9023
G1 X31.5637 Y48.592
G1 X31.098 Y48.1263
G1 X30.8863
G1 X29.828 Y49.227
G1 X29.8703 Y49.608
G1 X29.7857 Y49.989
G1 X29.2777 Y50.497
G1 X28.939 Y50.5817
G1 X28.6427
G1 X28.3887 Y50.497
G1 X27.8807 Y49.989
G1 X27.796 Y49.6503
G1 Y49.4387
G1 X27.8807 Y49.1
G1 X28.3887 Y48.592
G1 X28.7697 Y48.5073
G1 X29.1507 Y48.5497
G1 X30.5477 Y47.195
G1 X31.098 Y47.1527
G1 X31.5637 Y46.687
G1 X31.9023 Y46.6023
G1 X32.114
G1 X32.4527 Y46.687
G1 X32.9607 Y47.195
G1 X33.0453 Y47.5337
G1 Y47.7453
G1 X32.9607 Y48.084
G0 Z3.0
G0 X32.114 Y51.6823
G0 Z1.275
G1 F300.0 Z-0.125
G1 F400.0 X32.4527 Y51.767
G1 X32.9607 Y52.275
G1 X33.0453 Y52.6137
G1 Y52.8253
G1 X32.9607 Y53.164
G1 X32.495 Y53.6297
G1 Y54.18
G1 X33.0877
G1 Y56.339
G1 X30.9287
G1 Y55.7463
G1 X30.5477 Y55.704
G1 X27.2457 Y52.4443
G1 X26.8647 Y52.4867
G1 X26.4837 Y52.402
G1 X25.9757 Y51.894
G1 X25.891 Y51.5553
G1 Y51.3437
G1 X25.9757 Y51.005
G1 X26.4837 Y50.497
G1 X26.8223 Y50.4123
G1 X27.034
G1 X27.3727 Y50.497
G1 X27.8807 Y51.005
G1 X27.9653 Y51.386
G1 X27.923 Y51.8093
G1 X30.9287 Y54.7727
G1 Y54.18
G1 X31.5213
G1 Y53.6297
G1 X31.0557 Y53.164
G1 X30.971 Y52.8253
G1 Y52.6137
G1 X31.0557 Y52.275
G1 X31.5637 Y51.767
G1 X31.9023 Y51.6823
G1 X32.114
G0 Z3.0
G0 Y56.6777
G0 Z1.275
G1 F300.0 Z-0.125
G1 F400.0 X35.035
G1 X36.0933 Y55.577
G1 X36.051 Y55.196
G1 X36.1357 Y54.815
G1 X36.6437 Y54.307
G1 X36.9823 Y54.2223
G1 X37.194
G1 X37.5327 Y54.307
G1 X38.0407 Y54.815
G1 X38.1253 Y55.1537
G1 Y55.3653
G1 X38.0407 Y55.704
G1 X37.5327 Y56.212
G1 X37.1517 Y56.2967
G1 X36.7707 Y56.2543
G1 X35.3737 Y57.609
G1 X29.3623 Y57.6513
G1 X29.193 Y57.5667
G1 X25.383 Y53.7143
G1 X24.9597 Y53.7567
G1 X24.5787 Y53.672
G1 X24.113 Y53.2063
G1 X23.5203
G1 Y53.7567
G1 X21.446
G1 Y51.6823
G1 X23.5203
G1 Y52.2327
G1 X24.113
G1 X24.5787 Y51.767
G1 X24.9173 Y51.6823
G1 X25.129
G1 X25.4677 Y51.767
G1 X25.9757 Y52.275
G1 X26.0603 Y52.656
G1 X26.018 Y53.037
G1 X29.6163 Y56.6777
G1 X32.114
G0 Z3.0
G0 Y57.9477
G0 Z1.275
G1 F300.0 Z-0.125
G1 F400.0 X36.305
G1 X38.6333 Y55.577
G1 X38.591 Y55.196
G1 X38.6757 Y54.815
G1 X39.1837 Y54.307
G1 X39.5223 Y54.2223
G1 X39.734
G1 X40.0727 Y54.307
G1 X40.5807 Y54.815
G1 X40.6653 Y55.1537
G1 Y55.3653
G1 X40.5807 Y55.704
G1 X40.0727 Y56.212
G1 X39.6917 Y56.2967
G1 X39.3107 Y56.2543
G1 X36.6437 Y58.879
G1 X28.0923 Y58.9213
G1 X27.923 Y58.8367
G1 X25.383 Y56.2543
G1 X24.9597 Y56.2967
G1 X24.5787 Y56.212
G1 X24.113 Y55.7463
G1 X23.5203
G1 Y56.2967
G1 X21.446
G1 Y54.2223
G1 X23.5203
G1 Y54.7727
G1 X24.113
G1 X24.5787 Y54.307
G1 X24.9173 Y54.2223
G1 X25.129
G1 X25.4677 Y54.307
G1 X25.9757 Y54.815
G1 X26.0603 Y55.196
G1 X26.018 Y55.577
G1 X28.3463 Y57.9477
G1 X32.114
G0 Z3.0
G0 Y59.2177
G0 Z1.275
G1 F300.0 Z-0.125
G1 F400.0 X37.575
G1 X41.1733 Y55.577
G1 X41.131 Y55.196
G1 X41.2157 Y54.815
G1 X41.7237 Y54.307
G1 X42.0623 Y54.2223
G1 X42.274
G1 X42.6127 Y54.307
G1 X43.1207 Y54.815
G1 X43.2053 Y55.1537
G1 Y55.3653
G1 X43.1207 Y55.704
G1 X42.6127 Y56.212
G1 X42.2317 Y56.2967
G1 X41.8507 Y56.2543
G1 X37.9137 Y60.149
G1 X26.8223 Y60.1913
G1 X26.653 Y60.1067
G1 X25.383 Y58.7943
G1 X24.9597 Y58.8367
G1 X24.5787 Y58.752
G1 X24.113 Y58.2863
G1 X23.5203
G1 Y58.8367
G1 X21.446
G1 Y56.7623
G1 X23.5203
G1 Y57.3127
G1 X24.113
G1 X24.5787 Y56.847
G1 X24.9173 Y56.7623
G1 X25.129
G1 X25.4677 Y56.847
G1 X25.9757 Y57.355
G1 X26.0603 Y57.736
G1 X26.018 Y58.117
G1 X27.0763 Y59.2177
G1 X32.114
G0 Z3.0
G0 Y60.4877
G0 Z1.275
G1 F300.0 Z-0.125
G1 F400.0 X38.845
G1 X43.7133 Y55.577
G1 X43.671 Y55.196
G1 X43.7557 Y54.815
G1 X44.2637 Y54.307
G1 X44.6023 Y54.2223
G1 X44.814
G1 X45.1527 Y54.307
G1 X45.6607 Y54.815
G1 X45.7453 Y55.1537
G1 Y55.3653
G1 X45.6607 Y55.704
G1 X45.1527 Y56.212
G1 X44.7717 Y56.2967
G1 X44.3907 Y56.2543
G1 X39.1837 Y61.419
G1 X25.5523 Y61.4613
G1 X25.3407 Y61.3343
G1 X24.9597 Y61.3767
G1 X24.5787 Y61.292
G1 X24.113 Y60.8263
G1 X23.5203
G1 Y61.3767
G1 X21.446
G1 Y59.3023
G1 X23.5203
G1 Y59.8527
G1 X24.113
G1 X24.5787 Y59.387
G1 X24.9173 Y59.3023
G1 X25.129
G1 X25.4677 Y59.387
G1 X25.9757 Y59.895
G1 X26.0603 Y60.2337
G1 Y60.4877
G1 X32.114
G0 Z3.0
G0 X34.1037 Y64.34
G0 Z1.275
G1 F300.0 Z-0.125
G1 F400.0 X36.2627
G1 Y64.9327
G1 X36.686
G1 Y64.3823
G1 X38.7603
G1 Y66.4567
G1 X36.686
G1 Y65.9063
G1 X36.2627
G1 Y66.499
G1 X34.1037
G1 Y64.34
G0 Z3.0
G0 X34.7686 Y66.9995
G0 Z1.275
G1 F300.0 Z-0.125
G1 F400.0 X35.0773 Y66.9223
G1 X35.289
G1 X35.6277 Y67.007
G1 X36.0933 Y67.4727
G1 X36.686
G1 Y66.9223
G1 X38.7603
G1 Y68.9967
G1 X36.686
G1 Y68.4463
G1 X36.0933
G1 X35.6277 Y68.912
G1 X35.289 Y68.9967
G1 X34.9927
G1 X34.7387 Y68.912
G1 X34.2307 Y68.404
G1 X34.146 Y68.0653
G1 Y67.8537
G1 X34.2307 Y67.515
G1 X34.7387 Y67.007
G1 X34.7686 Y66.9995
G0 Z3.0
G0 X35.0773 Y69.4623
G0 Z1.275
G1 F300.0 Z-0.125
G1 F400.0 X35.289
G1 X35.6277 Y69.547
G1 X36.0933 Y70.0127
G1 X36.686
G1 Y69.4623
G1 X38.7603
G1 Y71.5367
G1 X36.686
G1 Y70.9863
G1 X36.0933
G1 X35.6277 Y71.452
G1 X35.289 Y71.5367
G1 X34.9927
G1 X34.7387 Y71.452
G1 X34.2307 Y70.944
G1 X34.146 Y70.6053
G1 Y70.3937
G1 X34.2307 Y70.055
G1 X34.7387 Y69.547
G1 X35.0773 Y69.4623
G0 Z3.0
G0 Y72.0023
G0 Z1.275
G1 F300.0 Z-0.125
G1 F400.0 X35.289
G1 X35.6277 Y72.087
G1 X36.0933 Y72.5527
G1 X36.686
G1 Y72.0023
G1 X38.7603
G1 Y74.0767
G1 X36.686
G1 Y73.5263
G1 X36.0933
G1 X35.6277 Y73.992
G1 X35.289 Y74.0767
G1 X34.9927
G1 X34.7387 Y73.992
G1 X34.2307 Y73.484
G1 X34.146 Y73.1453
G1 Y72.9337
G1 X34.2307 Y72.595
G1 X34.7387 Y72.087
G1 X35.0773 Y72.0023
G0 Z3.0
G0 Y74.5423
G0 Z1.275
G1 F300.0 Z-0.125
G1 F400.0 X35.289
G1 X35.6277 Y74.627
G1 X36.0933 Y75.0927
G1 X36.686
G1 Y74.5423
G1 X38.7603
G1 Y76.6167
G1 X36.686
G1 Y76.0663
G1 X36.0933
G1 X35.6277 Y76.532
G1 X35.289 Y76.6167
G1 X34.9927
G1 X34.7387 Y76.532
G1 X34.2307 Y76.024
G1 X34.146 Y75.6853
G1 Y75.4737
G1 X34.2307 Y75.135
G1 X34.7387 Y74.627
G1 X35.0773 Y74.5423
G0 Z3.0
G0 Y77.0823
G0 Z1.275
G1 F300.0 Z-0.125
G1 F400.0 X35.289
G1 X35.6277 Y77.167
G1 X36.0933 Y77.6327
G1 X36.686
G1 Y77.0823
G1 X38.7603
G1 Y79.1567
G1 X36.686
G1 Y78.6063
G1 X36.0933
G1 X35.6277 Y79.072
G1 X35.289 Y79.1567
G1 X34.9927
G1 X34.7387 Y79.072
G1 X34.2307 Y78.564
G1 X34.146 Y78.2253
G1 Y78.0137
G1 X34.2307 Y77.675
G1 X34.7387 Y77.167
G1 X35.0773 Y77.0823
G0 Z3.0
G0 Y79.6223
G0 Z1.275
G1 F300.0 Z-0.125
G1 F400.0 X35.289
G1 X35.6277 Y79.707
G1 X36.0933 Y80.1727
G1 X36.686
G1 Y79.6223
G1 X38.7603
G1 Y81.6967
G1 X36.686
G1 Y81.1463
G1 X36.0933
G1 X35.6277 Y81.612
G1 X35.289 Y81.6967
G1 X34.9927
G1 X34.7387 Y81.612
G1 X34.2307 Y81.104
G1 X34.146 Y80.7653
G1 Y80.5537
G1 X34.2307 Y80.215
G1 X34.7387 Y79.707
G1 X35.0773 Y79.6223
G0 Z3.0
G0 Y82.1623
G0 Z1.275
G1 F300.0 Z-0.125
G1 F400.0 X35.289
G1 X35.6277 Y82.247
G1 X36.0933 Y82.7127
G1 X36.686
G1 Y82.1623
G1 X38.7603
G1 Y84.2367
G1 X36.686
G1 Y83.6863
G1 X36.0933
G1 X35.6277 Y84.152
G1 X35.289 Y84.2367
G1 X34.9927
G1 X34.7387 Y84.152
G1 X34.2307 Y83.644
G1 X34.146 Y83.3053
G1 Y83.0937
G1 X34.2307 Y82.755
G1 X34.7387 Y82.247
G1 X35.0773 Y82.1623
G0 Z3.0
G0 Y85.93
G0 Z1.275
G1 F300.0 Z-0.125
G1 F400.0 X36.2627
G1 Y86.5227
G1 X36.686
G1 Y85.9723
G1 X38.7603
G1 Y88.0467
G1 X36.686
G1 Y87.4963
G1 X36.2627
G1 Y88.089
G1 X34.1037
G1 Y85.93
G1 X35.0773
G0 Z3.0
G0 Y88.5123
G0 Z1.275
G1 F300.0 Z-0.125
G1 F400.0 X35.289
G1 X35.6277 Y88.597
G1 X36.0933 Y89.0627
G1 X36.686
G1 Y88.5123
G1 X38.7603
G1 Y90.5867
G1 X36.686
G1 Y90.0363
G1 X36.0933
G1 X35.6277 Y90.502
G1 X35.289 Y90.5867
G1 X34.9927
G1 X34.7387 Y90.502
G1 X34.2307 Y89.994
G1 X34.146 Y89.6553
G1 Y89.4437
G1 X34.2307 Y89.105
G1 X34.7387 Y88.597
G1 X35.0773 Y88.5123
G0 Z3.0
G0 Y91.0523
G0 Z1.275
G1 F300.0 Z-0.125
G1 F400.0 X35.289
G1 X35.6277 Y91.137
G1 X36.0933 Y91.6027
G1 X36.686
G1 Y91.0523
G1 X38.7603
G1 Y93.1267
G1 X36.686
G1 Y92.5763
G1 X36.0933
G1 X35.6277 Y93.042
G1 X35.289 Y93.1267
G1 X34.9927
G1 X34.7387 Y93.042
G1 X34.2307 Y92.534
G1 X34.146 Y92.1953
G1 Y91.9837
G1 X34.2307 Y91.645
G1 X34.7387 Y91.137
G1 X35.0773 Y91.0523
G0 Z3.0
G0 Y93.5923
G0 Z1.275
G1 F300.0 Z-0.125
G1 F400.0 X35.289
G1 X35.6277 Y93.677
G1 X36.0933 Y94.1427
G1 X36.686
G1 Y93.5923
G1 X38.7603
G1 Y95.6667
G1 X36.686
G1 Y95.1163
G1 X36.0933
G1 X35.6277 Y95.582
G1 X35.289 Y95.6667
G1 X34.9927
G1 X34.7387 Y95.582
G1 X34.2307 Y95.074
G1 X34.146 Y94.7353
G1 Y94.5237
G1 X34.2307 Y94.185
G1 X34.7387 Y93.677
G1 X35.0773 Y93.5923
G0 Z3.0
G0 Y96.1323
G0 Z1.275
G1 F300.0 Z-0.125
G1 F400.0 X35.289
G1 X35.6277 Y96.217
G1 X36.0933 Y96.6827
G1 X36.686
G1 Y96.1323
G1 X38.7603
G1 Y98.2067
G1 X36.686
G1 Y97.6563
G1 X36.0933
G1 X35.6277 Y98.122
G1 X35.289 Y98.2067
G1 X34.9927
G1 X34.7387 Y98.122
G1 X34.2307 Y97.614
G1 X34.146 Y97.2753
G1 Y97.0637
G1 X34.2307 Y96.725
G1 X34.7387 Y96.217
G1 X35.0773 Y96.1323
G0 Z3.0
G0 Y98.6723
G0 Z1.275
G1 F300.0 Z-0.125
G1 F400.0 X35.289
G1 X35.6277 Y98.757
G1 X36.0933 Y99.2227
G1 X36.686
G1 Y98.6723
G1 X38.7603
G1 Y100.7467
G1 X36.686
G1 Y100.1963
G1 X36.0933
G1 X35.6277 Y100.662
G1 X35.289 Y100.7467
G1 X34.9927
G1 X34.7387 Y100.662
G1 X34.2307 Y100.154
G1 X34.146 Y99.8153
G1 Y99.6037
G1 X34.2307 Y99.265
G1 X34.7387 Y98.757
G1 X35.0773 Y98.6723
G0 Z3.0
G0 Y101.2123
G0 Z1.275
G1 F300.0 Z-0.125
G1 F400.0 X35.289
G1 X35.6277 Y101.297
G1 X36.0933 Y101.7627
G1 X36.686
G1 Y101.2123
G1 X38.7603
G1 Y103.2867
G1 X36.686
G1 Y102.7363
G1 X36.0933
G1 X35.6277 Y103.202
G1 X35.289 Y103.2867
G1 X34.9927
G1 X34.7387 Y103.202
G1 X34.2307 Y102.694
G1 X34.146 Y102.3553
G1 Y102.1437
G1 X34.2307 Y101.805
G1 X34.7387 Y101.297
G1 X35.0773 Y101.2123
G0 Z3.0
G0 Y103.7523
G0 Z1.275
G1 F300.0 Z-0.125
G1 F400.0 X35.289
G1 X35.6277 Y103.837
G1 X36.0933 Y104.3027
G1 X36.686
G1 Y103.7523
G1 X38.7603
G1 Y105.8267
G1 X36.686
G1 Y105.2763
G1 X36.0933
G1 X35.6277 Y105.742
G1 X35.289 Y105.8267
G1 X34.9927
G1 X34.7387 Y105.742
G1 X34.2307 Y105.234
G1 X34.146 Y104.8953
G1 Y104.6837
G1 X34.2307 Y104.345
G1 X34.7387 Y103.837
G1 X35.0773 Y103.7523
G0 Z3.0
G0 Y107.52
G0 Z1.275
G1 F300.0 Z-0.125
G1 F400.0 X36.2627
G1 Y108.1127
G1 X36.686
G1 Y107.5623
G1 X38.7603
G1 Y109.6367
G1 X36.686
G1 Y109.0863
G1 X36.2627
G1 Y109.679
G1 X34.1037
G1 Y107.52
G1 X35.0773
G0 Z3.0
G0 Y110.1023
G0 Z1.275
G1 F300.0 Z-0.125
G1 F400.0 X35.289
G1 X35.6277 Y110.187
G1 X36.0933 Y110.6527
G1 X36.686
G1 Y110.1023
G1 X38.7603
G1 Y112.1767
G1 X36.686
G1 Y111.6263
G1 X36.0933
G1 X35.6277 Y112.092
G1 X35.289 Y112.1767
G1 X34.9927
G1 X34.7387 Y112.092
G1 X34.2307 Y111.584
G1 X34.146 Y111.2453
G1 Y111.0337
G1 X34.2307 Y110.695
G1 X34.7387 Y110.187
G1 X35.0773 Y110.1023
G0 Z3.0
G0 Y112.6423
G0 Z1.275
G1 F300.0 Z-0.125
G1 F400.0 X35.289
G1 X35.6277 Y112.727
G1 X36.0933 Y113.1927
G1 X36.686
G1 Y112.6423
G1 X38.7603
G1 Y114.7167
G1 X36.686
G1 Y114.1663
G1 X36.0933
G1 X35.6277 Y114.632
G1 X35.289 Y114.7167
G1 X34.9927
G1 X34.7387 Y114.632
G1 X34.2307 Y114.124
G1 X34.146 Y113.7853
G1 Y113.5737
G1 X34.2307 Y113.235
G1 X34.7387 Y112.727
G1 X35.0773 Y112.6423
G0 Z3.0
G0 Y115.1823
G0 Z1.275
G1 F300.0 Z-0.125
G1 F400.0 X35.289
G1 X35.6277 Y115.267
G1 X36.0933 Y115.7327
G1 X36.686
G1 Y115.1823
G1 X38.7603
G1 Y117.2567
G1 X36.686
G1 Y116.7063
G1 X36.0933
G1 X35.6277 Y117.172
G1 X35.289 Y117.2567
G1 X34.9927
G1 X34.7387 Y117.172
G1 X34.2307 Y116.664
G1 X34.146 Y116.3253
G1 Y116.1137
G1 X34.2307 Y115.775
G1 X34.7387 Y115.267
G1 X35.0773 Y115.1823
G0 Z3.0
G0 Y117.7223
G0 Z1.275
G1 F300.0 Z-0.125
G1 F400.0 X35.289
G1 X35.6277 Y117.807
G1 X36.0933 Y118.2727
G1 X36.686
G1 Y117.7223
G1 X38.7603
G1 Y119.7967
G1 X36.686
G1 Y119.2463
G1 X36.0933
G1 X35.6277 Y119.712
G1 X35.289 Y119.7967
G1 X34.9927
G1 X34.7387 Y119.712
G1 X34.2307 Y119.204
G1 X34.146 Y118.8653
G1 Y118.6537
G1 X34.2307 Y118.315
G1 X34.7387 Y117.807
G1 X35.0773 Y117.7223
G0 Z3.0
G0 Y120.2623
G0 Z1.275
G1 F300.0 Z-0.125
G1 F400.0 X35.289
G1 X35.6277 Y120.347
G1 X36.0933 Y120.8127
G1 X36.686
G1 Y120.2623
G1 X38.7603
G1 Y122.3367
G1 X36.686
G1 Y121.7863
G1 X36.0933
G1 X35.6277 Y122.252
G1 X35.289 Y122.3367
G1 X34.9927
G1 X34.7387 Y122.252
G1 X34.2307 Y121.744
G1 X34.146 Y121.4053
G1 Y121.1937
G1 X34.2307 Y120.855
G1 X34.7387 Y120.347
G1 X35.0773 Y120.2623
G0 Z3.0
G0 Y122.8023
G0 Z1.275
G1 F300.0 Z-0.125
G1 F400.0 X35.289
G1 X35.6277 Y122.887
G1 X36.0933 Y123.3527
G1 X36.686
G1 Y122.8023
G1 X38.7603
G1 Y124.8767
G1 X36.686
G1 Y124.3263
G1 X36.0933
G1 X35.6277 Y124.792
G1 X35.289 Y124.8767
G1 X34.9927
G1 X34.7387 Y124.792
G1 X34.2307 Y124.284
G1 X34.146 Y123.9453
G1 Y123.7337
G1 X34.2307 Y123.395
G1 X34.7387 Y122.887
G1 X35.0773 Y122.8023
G0 Z3.0
G0 Y125.3423
G0 Z1.275
G1 F300.0 Z-0.125
G1 F400.0 X35.289
G1 X35.6277 Y125.427
G1 X36.0933 Y125.8927
G1 X36.686
G1 Y125.3423
G1 X38.7603
G1 Y127.4167
G1 X36.686
G1 Y126.8663
G1 X36.0933
G1 X35.6277 Y127.332
G1 X35.289 Y127.4167
G1 X34.9927
G1 X34.7387 Y127.332
G1 X34.2307 Y126.824
G1 X34.146 Y126.4853
G1 Y126.2737
G1 X34.2307 Y125.935
G1 X34.7387 Y125.427
G1 X35.0773 Y125.3423
G0 Z3.0
G0 X41.766 Y126.9087
G0 Z1.275
G1 F300.0 Z-0.125
G1 F400.0 X41.8507 Y126.57
G1 X42.3587 Y126.062
G1 X42.6973 Y125.9773
G1 X42.909
G1 X43.2477 Y126.062
G1 X43.7557 Y126.57
G1 X43.8403 Y126.9087
G1 Y127.1627
G1 X43.7557 Y127.4167
G1 X43.544 Y127.713
G1 X45.7877 Y129.999
G1 X45.83 Y133.8513
G1 X47.1847 Y135.1637
G1 X47.481 Y134.952
G1 X47.735 Y134.8673
G1 X47.989
G1 X48.3277 Y134.952
G1 X48.8357 Y135.46
G1 X48.9203 Y135.7987
G1 Y136.0103
G1 X48.8357 Y136.349
G1 X48.3277 Y136.857
G1 X47.989 Y136.9417
G1 X47.6927
G1 X47.4387 Y136.857
G1 X47.0153 Y136.476
G1 X46.9307 Y136.2643
G1 X44.8987 Y134.19
G1 X44.8563 Y130.38
G1 X42.528 Y128.0093
G1 X42.2317 Y127.8823
G1 X41.8507 Y127.459
G1 X41.766 Y127.1203
G1 Y126.9087
G0 Z3.0
G0 X41.0438 Y129.7973
G0 Z1.275
G1 F300.0 Z-0.125
G1 F400.0 X41.3427 Y129.872
G1 X41.8507 Y130.38
G1 X41.9353 Y130.7187
G1 Y130.9303
G1 X41.8507 Y131.269
G1 X41.385 Y131.7347
G1 Y132.4543
G1 X41.8507 Y132.92
G1 X41.9353 Y133.2587
G1 Y133.4703
G1 X41.8507 Y133.809
G1 X41.3427 Y134.317
G1 X41.004 Y134.4017
G1 X40.7077
G1 X40.4537 Y134.317
G1 X39.9457 Y133.809
G1 X39.861 Y133.4703
G1 Y133.2587
G1 X39.9457 Y132.92
G1 X40.4113 Y132.4543
G1 Y131.7347
G1 X39.9457 Y131.269
G1 X39.861 Y130.9303
G1 Y130.7187
G1 X39.9457 Y130.38
G1 X40.4537 Y129.872
G1 X40.7923 Y129.7873
G1 X41.004
G1 X41.0438 Y129.7973
G0 Z3.0
G0 X42.9937 Y133.682
G0 Z1.275
G1 F300.0 Z-0.125
G1 F400.0 X43.3323 Y133.5973
G1 X43.544
G1 X43.8827 Y133.682
G1 X44.3907 Y134.19
G1 X44.4753 Y134.571
G1 X44.433 Y134.9943
G1 X47.1847 Y137.7037
G1 X47.481 Y137.492
G1 X47.735 Y137.4073
G1 X47.989
G1 X48.3277 Y137.492
G1 X48.751 Y137.873
G1 X48.8357 Y138.0847
G1 X49.4283 Y138.7197
G1 X49.8517 Y138.6773
G1 X50.2327 Y138.762
G1 X50.7407 Y139.27
G1 X50.8253 Y139.6087
G1 Y139.8203
G1 X50.7407 Y140.159
G1 X50.2327 Y140.667
G1 X49.894 Y140.7517
G1 X49.5977
G1 X49.3437 Y140.667
G1 X48.8357 Y140.159
G1 X48.751 Y139.778
G1 X48.7933 Y139.3547
G1 X48.5817 Y139.1853
G1 X48.2853 Y139.397
G1 X48.0313 Y139.4817
G1 X47.7773
G1 X47.4387 Y139.397
G1 X47.0153 Y139.016
G1 X46.9307 Y138.8043
G1 X43.798 Y135.6293
G1 X43.3747 Y135.6717
G1 X42.9937 Y135.587
G1 X42.4857 Y135.079
G1 X42.401 Y134.7403
G1 Y134.5287
G1 X42.4857 Y134.19
G1 X42.9937 Y133.682
G0 Z3.0
G0 X46.846 Y133.4703
G0 Z1.275
G1 F300.0 Z-0.125
G1 F400.0 Y133.2587
G1 X46.9307 Y132.92
G1 X47.3963 Y132.4543
G1 Y130.5917
G1 X46.9307 Y130.126
G1 X46.846 Y129.7873
G1 Y129.5757
G1 X46.9307 Y129.237
G1 X47.4387 Y128.729
G1 X47.7773 Y128.6443
G1 X47.989
G1 X48.3277 Y128.729
G1 X48.8357 Y129.237
G1 X48.9203 Y129.5757
G1 Y129.7873
G1 X48.8357 Y130.126
G1 X48.37 Y130.5917
G1 Y132.4543
G1 X48.8357 Y132.92
G1 X48.9203 Y133.2587
G1 Y133.4703
G1 X48.8357 Y133.809
G1 X48.3277 Y134.317
G1 X47.989 Y134.4017
G1 X47.6927
G1 X47.4387 Y134.317
G1 X46.9307 Y133.809
G1 X46.846 Y133.4703
G0 Z3.0
G0 X49.3437
G0 Z1.275
G1 F300.0 Z-0.125
G1 F400.0 Y129.999
G1 X50.6983 Y128.602
G1 X50.656 Y128.221
G1 X50.7407 Y127.84
G1 X51.2487 Y127.332
G1 X51.5873 Y127.2473
G1 X51.799
G1 X52.1377 Y127.332
G1 X52.6457 Y127.84
G1 X52.7303 Y128.1787
G1 Y128.3903
G1 X52.6457 Y128.729
G1 X52.1377 Y129.237
G1 X51.7567 Y129.3217
G1 X51.3757 Y129.2793
G1 X50.275 Y130.3377
G1 Y136.984
G1 X52.1377 Y138.889
G1 Y140.54
G1 X50.6137 Y142.064
G1 X49.9787 Y142.1063
G1 X48.878 Y143.1647
G1 X48.9203 Y143.588
G1 X48.8357 Y143.969
G1 X48.3277 Y144.477
G1 X47.989 Y144.5617
G1 X47.7773
G1 X47.4387 Y144.477
G1 X46.973 Y144.0113
G1 X44.3483
G1 X43.8827 Y144.477
G1 X43.544 Y144.5617
G1 X43.2477
G1 X42.9937 Y144.477
G1 X42.4857 Y143.969
G1 X42.401 Y143.6303
G1 Y143.4187
G1 X42.4857 Y143.08
G1 X42.9937 Y142.572
G1 X43.3323 Y142.4873
G1 X43.544
G1 X43.8827 Y142.572
G1 X44.3483 Y143.0377
G1 X46.973
G1 X47.4387 Y142.572
G1 X47.8197 Y142.4873
G1 X48.2007 Y142.5297
G1 X49.5977 Y141.175
G1 X50.2327 Y141.1327
G1 X51.2063 Y140.2013
G1 Y139.27
G1 X49.3437 Y137.365
G1 Y133.4703
G0 Z3.0
G0 X52.6208 Y134.2896
G0 Z1.275
G1 F300.0 Z-0.125
G1 F400.0 X52.6457 Y134.19
G1 X53.1113 Y133.7243
G1 X53.1537 Y130.634
G1 X54.0427 Y129.745
G1 X63.9063 Y129.7027
G1 X63.9487 Y121.109
G1 X64.2027 Y120.855
G1 X66.023 Y120.8127
G1 X66.4887 Y120.347
G1 X66.8273 Y120.2623
G1 X67.039
G1 X67.3777 Y120.347
G1 X67.8857 Y120.855
G1 X67.9703 Y121.1937
G1 Y121.4053
G1 X67.8857 Y121.744
G1 X67.3777 Y122.252
G1 X67.039 Y122.3367
G1 X66.8273
G1 X66.4887 Y122.252
G1 X66.023 Y121.7863
G1 X64.88
G1 X64.8377 Y130.38
G1 X64.5837 Y130.634
G1 X54.4237 Y130.6763
G1 X54.085 Y130.9727
G1 Y133.7243
G1 X54.5507 Y134.19
G1 X54.6353 Y134.5287
G1 Y134.7403
G1 X54.5507 Y135.079
G1 X54.0427 Y135.587
G1 X53.704 Y135.6717
G1 X53.4077
G1 X53.1537 Y135.587
G1 X52.6457 Y135.079
G1 X52.561 Y134.7403
G1 Y134.5287
G1 X52.6208 Y134.2896
G0 Z3.0
G0 X54.5502 Y133.8072
G0 Z1.275
G1 F300.0 Z-0.125
G1 F400.0 X54.466 Y133.4703
G1 Y133.2587
G1 X54.5507 Y132.92
G1 X55.0587 Y132.412
G1 X55.3973 Y132.3273
G1 X55.609
G1 X55.9477 Y132.412
G1 X56.4133 Y132.8777
G1 X57.768
G1 X58.2337 Y132.412
G1 X58.5723 Y132.3273
G1 X58.784
G1 X59.1227 Y132.412
G1 X59.6307 Y132.92
G1 X59.7153 Y133.2587
G1 Y133.4703
G1 X59.6307 Y133.809
G1 X59.1227 Y134.317
G1 X58.784 Y134.4017
G1 X58.5723
G1 X58.2337 Y134.317
G1 X57.768 Y133.8513
G1 X56.4133
G1 X55.9477 Y134.317
G1 X55.609 Y134.4017
G1 X55.3127
G1 X55.0587 Y134.317
G1 X54.5507 Y133.809
G1 X54.5502 Y133.8072
G0 Z3.0
G0 X55.0587 Y134.952
G0 Z1.275
G1 F300.0 Z-0.125
G1 F400.0 X55.3973 Y134.8673
G1 X55.609
G1 X55.9477 Y134.952
G1 X56.4133 Y135.4177
G1 X58.53
G1 X60.2233 Y133.682
G1 X60.181 Y133.301
G1 X60.2657 Y132.92
G1 X60.7737 Y132.412
G1 X61.1123 Y132.3273
G1 X61.324
G1 X61.6627 Y132.412
G1 X62.1707 Y132.92
G1 X62.2553 Y133.2587
G1 Y133.4703
G1 X62.1707 Y133.809
G1 X61.6627 Y134.317
G1 X61.2817 Y134.4017
G1 X60.9007 Y134.3593
G1 X58.8687 Y136.349
G1 X56.4133 Y136.3913
G1 X55.9477 Y136.857
G1 X55.609 Y136.9417
G1 X55.3127
G1 X55.0587 Y136.857
G1 X54.5507 Y136.349
G1 X54.466 Y136.0103
G1 Y135.7987
G1 X54.5507 Y135.46
G1 X55.0587 Y134.952
G0 Z3.0
G0 X55.3973 Y137.4073
G0 Z1.275
G1 F300.0 Z-0.125
G1 F400.0 X55.609
G1 X55.9477 Y137.492
G1 X56.4133 Y137.9577
G1 X58.53
G1 X62.7633 Y133.682
G1 X62.721 Y133.301
G1 X62.8057 Y132.92
G1 X63.3137 Y132.412
G1 X63.6523 Y132.3273
G1 X63.864
G1 X64.2027 Y132.412
G1 X64.7107 Y132.92
G1 X64.7953 Y133.2587
G1 Y133.4703
G1 X64.7107 Y133.809
G1 X64.2027 Y134.317
G1 X63.8217 Y134.4017
G1 X63.4407 Y134.3593
G1 X58.8687 Y138.889
G1 X56.4133 Y138.9313
G1 X55.9477 Y139.397
G1 X55.609 Y139.4817
G1 X55.3127
G1 X55.0587 Y139.397
G1 X54.5507 Y138.889
G1 X54.466 Y138.5503
G1 Y138.3387
G1 X54.5507 Y138.0
G1 X55.0587 Y137.492
G1 X55.3973 Y137.4073
G0 Z3.0
G0 Y139.9473
G0 Z1.275
G1 F300.0 Z-0.125
G1 F400.0 X55.609
G1 X55.9477 Y140.032
G1 X56.4133 Y140.4977
G1 X58.53
G1 X59.4613 Y139.524
G1 Y139.016
G1 X59.546 Y138.8043
G1 X61.324 Y137.0263
G1 X61.959 Y136.984
G1 X65.3033 Y133.7243
G1 X65.261 Y133.301
G1 X65.3457 Y132.92
G1 X65.8537 Y132.412
G1 X66.1923 Y132.3273
G1 X66.404
G1 X66.7427 Y132.412
G1 X67.2507 Y132.92
G1 X67.3353 Y133.2587
G1 Y133.4703
G1 X67.2507 Y133.809
G1 X66.7427 Y134.317
G1 X66.3617 Y134.4017
G1 X65.9383
G1 X62.34 Y137.9153
G1 X61.6627 Y137.9577
G1 X60.435 Y139.27
G1 X60.3927 Y139.905
G1 X58.8687 Y141.429
G1 X56.4133 Y141.4713
G1 X55.9477 Y141.937
G1 X55.609 Y142.0217
G1 X55.3127
G1 X55.0587 Y141.937
G1 X54.5507 Y141.429
G1 X54.466 Y141.0903
G1 Y140.8787
G1 X54.5507 Y140.54
G1 X55.0587 Y140.032
G1 X55.3973 Y139.9473
G0 Z3.0
G0 Y142.4873
G0 Z1.275
G1 F300.0 Z-0.125
G1 F400.0 X55.609
G1 X55.9477 Y142.572
G1 X56.4133 Y143.0377
G1 X59.546
G1 X59.7153 Y142.7413
G1 X60.054 Y142.4873
G1 X60.1387 Y140.794
G1 X60.816 Y140.0743
G1 X60.7313 Y139.8203
G1 X60.7737 Y139.397
G1 X60.943 Y139.0583
G1 X61.2817 Y138.762
G1 X61.5357 Y138.635
G1 X62.1707
G1 X62.4247 Y138.762
G1 X62.7633 Y139.0583
G1 X62.9327 Y139.397
G1 Y140.032
G1 X62.7633 Y140.3707
G1 X62.4247 Y140.667
G1 X62.1707 Y140.794
G1 X61.7473 Y140.8363
G1 X61.451 Y140.7517
G1 X61.07 Y141.175
G1 Y142.4873
G1 X61.451 Y142.7837
G1 X61.705 Y143.207
G1 Y143.842
G1 X61.4933 Y144.2653
G1 X61.2393 Y144.477
G1 X60.9007 Y144.6463
G1 X60.3927 Y144.6887
G1 X60.0963 Y144.5617
G1 X59.7577 Y144.35
G1 X59.546 Y144.0113
G1 X56.4133
G1 X55.9477 Y144.477
G1 X55.609 Y144.5617
G1 X55.3973
G1 X55.0587 Y144.477
G1 X54.5507 Y143.969
G1 X54.466 Y143.6303
G1 Y143.4187
G1 X54.5507 Y143.08
G1 X55.0587 Y142.572
G1 X55.3973 Y142.4873
G0 Z3.0
G0 Y145.0273
G0 Z1.275
G1 F300.0 Z-0.125
G1 F400.0 X55.6513
G1 X55.9053 Y145.112
G1 X56.2017 Y145.3237
G1 X57.2177 Y144.35
G1 X58.2337
G1 X60.7737 Y146.8477
G1 X60.816
G1 X61.197 Y146.4243
G1 X61.5357 Y146.255
G1 X61.959 Y146.2127
G1 X62.2553 Y146.2973
G1 X64.5837 Y143.9267
G1 X64.499 Y143.5457
G1 X64.5413 Y143.1647
G1 X64.8377 Y142.7413
G1 X65.2187 Y142.445
G1 X65.5573 Y142.3603
G1 X65.9807 Y142.4027
G1 X66.3193 Y142.572
G1 X66.5733 Y142.7837
G1 X66.785 Y143.207
G1 X66.8273 Y143.6303
G1 X66.7427 Y143.969
G1 X66.4463 Y144.35
G1 X66.023 Y144.6463
G1 X65.642 Y144.6887
G1 X65.261 Y144.604
G1 X62.8903 Y146.9323
G1 X62.975 Y147.2287
G1 X62.9327 Y147.652
G1 X62.8057 Y147.906
G1 X62.5093 Y148.2447
G1 X62.1707 Y148.414
G1 X61.6627 Y148.4563
G1 X61.451 Y148.3717
G1 X61.197 Y148.2447
G1 X60.816 Y147.8213
G1 X60.3927 Y147.779
G1 X57.8527 Y145.2813
G1 X57.5563
G1 X56.4557 Y146.4243
G1 X56.371 Y146.636
G1 X55.9477 Y147.017
G1 X55.609 Y147.1017
G1 X55.3973
G1 X55.0587 Y147.017
G1 X54.5507 Y146.509
G1 X54.466 Y146.1703
G1 Y145.9587
G1 X54.5507 Y145.62
G1 X55.0587 Y145.112
G1 X55.3973 Y145.0273
G0 Z3.0
G0 X57.1753 Y146.8053
G0 Z1.275
G1 F300.0 Z-0.125
G1 F400.0 X57.5987 Y146.382
G1 X57.9373 Y146.2973
G1 X58.149
G1 X58.4877 Y146.382
G1 X58.9957 Y146.89
G1 X59.0803 Y147.2287
G1 Y147.4403
G1 X58.9957 Y147.779
G1 X58.4877 Y148.287
G1 X58.1067 Y148.3717
G1 X57.7257 Y148.3293
G1 X56.9637 Y149.049
G1 X56.4133 Y149.0913
G1 X55.9477 Y149.557
G1 X55.609 Y149.6417
G1 X55.355
G1 X55.101 Y149.557
G1 X54.8047 Y149.3453
G1 X54.593 Y149.5147
G1 X54.6353 Y149.938
G1 X54.5507 Y150.319
G1 X54.0427 Y150.827
G1 X53.704 Y150.9117
G1 X53.4077
G1 X53.1537 Y150.827
G1 X52.6457 Y150.319
G1 X52.561 Y149.9803
G1 Y149.7687
G1 X52.6457 Y149.43
G1 X53.1537 Y148.922
G1 X53.5347 Y148.8373
G1 X53.958 Y148.8797
G1 X54.5507 Y148.2447
G1 X54.6353 Y148.033
G1 X55.0587 Y147.652
G1 X55.3973 Y147.5673
G1 X55.609
G1 X55.9477 Y147.652
G1 X56.4133 Y148.1177
G1 X56.625
G1 X57.0483 Y147.652
G1 X57.006 Y147.271
G1 X57.0907 Y146.89
G1 X57.1753 Y146.8053
G0 Z3.0
G0 X60.0779 Y149.7358
G0 Z1.275
G1 F300.0 Z-0.125
G1 F400.0 X61.0277 Y148.795
G1 X62.9327 Y148.7527
G1 X63.9063 Y147.8213
G1 X63.9487 Y146.509
G1 X65.4727 Y144.985
G1 X66.7427 Y144.9427
G1 X67.0813 Y144.6463
G1 Y142.4027
G1 X66.7427 Y142.1063
G1 X64.8377 Y142.064
G1 X63.9487 Y141.175
G1 Y138.254
G1 X67.7587 Y134.4017
G1 Y132.285
G1 X69.9177
G1 Y134.444
G1 X69.071
G1 X64.88 Y138.5927
G1 Y140.8363
G1 X65.2187 Y141.1327
G1 X67.1237 Y141.175
G1 X68.0127 Y142.064
G1 Y144.985
G1 X67.1237 Y145.874
G1 X65.8113 Y145.9163
G1 X64.88 Y146.89
G1 X64.8377 Y148.16
G1 X63.3137 Y149.684
G1 X61.4087 Y149.7263
G1 X56.9637 Y154.129
G1 X56.4133 Y154.1713
G1 X55.9477 Y154.637
G1 X55.609 Y154.7217
G1 X55.3127
G1 X55.0587 Y154.637
G1 X54.5507 Y154.129
G1 X54.466 Y153.7903
G1 Y153.5787
G1 X54.5507 Y153.24
G1 X55.0587 Y152.732
G1 X55.3973 Y152.6473
G1 X55.609
G1 X55.9477 Y152.732
G1 X56.4133 Y153.1977
G1 X56.5827
G1 X60.0779 Y149.7358
G0 Z3.0
G0 X61.329 Y151.0135
G0 Z1.275
G1 F300.0 Z-0.125
G1 F400.0 X62.2977 Y150.065
G1 X64.8377 Y150.0227
G1 X66.1077 Y148.795
G1 X73.77 Y148.7527
G1 X74.4473 Y148.033
G1 X74.2357 Y147.7367
G1 X74.151 Y147.4827
G1 Y147.2287
G1 X74.2357 Y146.89
G1 X74.7437 Y146.382
G1 X75.0823 Y146.2973
G1 X75.294
G1 X75.6327 Y146.382
G1 X76.1407 Y146.89
G1 X76.2253 Y147.2287
G1 Y147.4403
G1 X76.1407 Y147.779
G1 X75.7597 Y148.2023
G1 X75.548 Y148.287
G1 X74.1087 Y149.684
G1 X66.4887 Y149.7263
G1 X65.2187 Y150.954
G1 X62.6787 Y150.9963
G1 X60.943 Y152.6897
G1 X60.9853 Y153.113
G1 X60.9007 Y153.494
G1 X60.3927 Y154.002
G1 X60.054 Y154.0867
G1 X59.7577
G1 X59.5037 Y154.002
G1 X58.9957 Y153.494
G1 X58.911 Y153.1553
G1 Y152.9437
G1 X58.9957 Y152.605
G1 X59.5037 Y152.097
G1 X59.8847 Y152.0123
G1 X60.2657 Y152.0547
G1 X61.329 Y151.0135
G0 Z3.0
G0 X62.2916 Y151.9761
G0 Z1.275
G1 F300.0 Z-0.125
G1 F400.0 X62.9327 Y151.335
G1 X65.4727 Y151.2927
G1 X66.7427 Y150.065
G1 X74.3627 Y150.0227
G1 X76.7333 Y147.6943
G1 X76.691 Y147.271
G1 X76.7757 Y146.89
G1 X77.2837 Y146.382
G1 X77.6223 Y146.2973
G1 X77.834
G1 X78.1727 Y146.382
G1 X78.6807 Y146.89
G1 X78.7653 Y147.2287
G1 Y147.4403
G1 X78.6807 Y147.779
G1 X78.1727 Y148.287
G1 X77.7917 Y148.3717
G1 X77.4107 Y148.3293
G1 X74.7437 Y150.954
G1 X67.1237 Y150.9963
G1 X65.8537 Y152.224
G1 X63.3137 Y152.2663
G1 X62.34 Y153.1977
G1 X62.2977 Y155.145
G1 X62.0437 Y155.399
G1 X58.9533 Y155.4413
G1 X58.4877 Y155.907
G1 X58.149 Y155.9917
G1 X57.8527
G1 X57.5987 Y155.907
G1 X57.0907 Y155.399
G1 X57.006 Y155.0603
G1 Y154.8487
G1 X57.0907 Y154.51
G1 X57.5987 Y154.002
G1 X57.9373 Y153.9173
G1 X58.149
G1 X58.4877 Y154.002
G1 X58.9533 Y154.4677
G1 X61.3663
G1 X61.4087 Y152.859
G1 X62.2916 Y151.9761
G0 Z3.0
G0 X63.5616 Y153.2461
G0 Z1.275
G1 F300.0 Z-0.125
G1 F400.0 X64.2027 Y152.605
G1 X66.1077 Y152.5627
G1 X67.3777 Y151.335
G1 X74.1087
G1 X74.3627 Y151.589
G1 Y151.97
G1 X71.1453 Y155.2297
G1 X71.23 Y155.4837
G1 X71.1877 Y155.907
G1 X71.0183 Y156.2457
G1 X70.6797 Y156.542
G1 X70.4257 Y156.669
G1 X70.0023 Y156.7113
G1 X69.706 Y156.6267
G1 X68.563 Y157.812
G1 X68.6053 Y158.4893
G1 X69.6213 Y159.5477
G1 X78.215
G1 X79.2733 Y158.447
G1 X79.231 Y158.066
G1 X79.3157 Y157.685
G1 X79.8237 Y157.177
G1 X80.1623 Y157.0923
G1 X80.374
G1 X80.7127 Y157.177
G1 X81.2207 Y157.685
G1 X81.3053 Y158.0237
G1 Y158.2353
G1 X81.2207 Y158.574
G1 X80.7127 Y159.082
G1 X80.3317 Y159.1667
G1 X79.9507 Y159.1243
G1 X78.5537 Y160.479
G1 X69.3673 Y160.5213
G1 X69.198 Y160.4367
G1 X67.928 Y159.1243
G1 X67.5047 Y159.1667
G1 X67.1237 Y159.082
G1 X66.6157 Y158.574
G1 X66.531 Y158.2353
G1 Y158.0237
G1 X66.6157 Y157.685
G1 X67.1237 Y157.177
G1 X67.5047 Y157.0923
G1 X67.8857 Y157.1347
G1 X69.071 Y155.9917
G1 X68.9863 Y155.6953
G1 X69.0287 Y155.272
G1 X69.198 Y154.9333
G1 X69.5367 Y154.637
G1 X69.7907 Y154.51
G1 X70.214 Y154.4677
G1 X70.5103 Y154.5523
G1 X72.754 Y152.2663
G1 X67.7587
G1 X66.4887 Y153.494
G1 X64.5837 Y153.5363
G1 X63.61 Y154.4677
G1 Y156.3303
G1 X63.483 Y156.542
G1 X63.5253 Y156.923
G1 X63.4407 Y157.304
G1 X62.9327 Y157.812
G1 X62.594 Y157.8967
G1 X62.3823
G1 X62.0437 Y157.812
G1 X61.5357 Y157.304
G1 X61.451 Y156.9653
G1 Y156.7537
G1 X61.5357 Y156.415
G1 X62.0437 Y155.907
G1 X62.3823 Y155.8223
G1 X62.6363
G1 X62.6787 Y154.129
G1 X63.5616 Y153.2461
G0 Z3.0
G0 X64.0333 Y154.5947
G0 Z1.275
G1 F300.0 Z-0.125
G1 F400.0 X66.023
G1 Y155.1027
G1 X66.785
G1 X67.2083 Y154.637
G1 X67.166 Y154.256
G1 X67.2507 Y153.875
G1 X67.7587 Y153.367
G1 X68.0973 Y153.2823
G1 X68.309
G1 X68.6477 Y153.367
G1 X69.1557 Y153.875
G1 X69.2403 Y154.2137
G1 Y154.4253
G1 X69.1557 Y154.764
G1 X68.6477 Y155.272
G1 X68.2667 Y155.3567
G1 X67.8857 Y155.3143
G1 X67.1237 Y156.034
G1 X66.023 Y156.0763
G1 Y156.5843
G1 X65.515
G1 Y157.2193
G1 X65.9807 Y157.685
G1 X66.0653 Y158.0237
G1 Y158.2353
G1 X65.9807 Y158.574
G1 X65.4727 Y159.082
G1 X65.134 Y159.1667
G1 X64.8377
G1 X64.5837 Y159.082
G1 X64.0757 Y158.574
G1 X63.991 Y158.2353
G1 Y158.0237
G1 X64.0757 Y157.685
G1 X64.5413 Y157.2193
G1 Y156.5843
G1 X64.0333
G1 Y154.5947
G0 Z3.0
G0 X60.2523 Y158.4182
G0 Z1.275
G1 F300.0 Z-0.125
G1 F400.0 X62.6787 Y160.8177
G1 X79.485
G1 X81.8133 Y158.447
G1 X81.771 Y158.066
G1 X81.8557 Y157.685
G1 X82.3637 Y157.177
G1 X82.7023 Y157.0923
G1 X82.914
G1 X83.2527 Y157.177
G1 X83.7607 Y157.685
G1 X83.8453 Y158.0237
G1 Y158.2353
G1 X83.7607 Y158.574
G1 X83.2527 Y159.082
G1 X82.8717 Y159.1667
G1 X82.4907 Y159.1243
G1 X79.8237 Y161.749
G1 X62.3823 Y161.7913
G1 X62.2977 Y161.749
G1 X58.4877 Y157.9813
G1 X56.5827 Y157.939
G1 X55.8207 Y157.2193
G1 X55.4397 Y157.2617
G1 X55.0587 Y157.177
G1 X54.5507 Y156.669
G1 X54.466 Y156.3303
G1 Y156.1187
G1 X54.5507 Y155.78
G1 X55.0587 Y155.272
G1 X55.3973 Y155.1873
G1 X55.609
G1 X55.9477 Y155.272
G1 X56.4557 Y155.78
G1 X56.5403 Y156.161
G1 X56.498 Y156.5843
G1 X56.9637 Y157.0077
G1 X58.8687 Y157.05
G1 X60.2523 Y158.4182
G0 Z3.0
G0 X59.3033 Y159.3778
G0 Z1.275
G1 F300.0 Z-0.125
G1 F400.0 X62.0437 Y162.0877
G1 X69.0287 Y162.13
G1 X70.5527 Y163.654
G1 X70.595 Y164.8393
G1 X71.0607 Y165.305
G1 X71.1453 Y165.6437
G1 Y165.8553
G1 X71.0607 Y166.194
G1 X70.5527 Y166.702
G1 X70.214 Y166.7867
G1 X69.9177
G1 X69.6637 Y166.702
G1 X69.1557 Y166.194
G1 X69.071 Y165.8553
G1 Y165.6437
G1 X69.1557 Y165.305
G1 X69.6213 Y164.8393
G1 Y163.9927
G1 X68.6477 Y163.0613
G1 X61.6627 Y163.019
G1 X57.8527 Y159.2513
G1 X56.4133
G1 X55.9477 Y159.717
G1 X55.609 Y159.8017
G1 X55.3973
G1 X55.0587 Y159.717
G1 X54.5507 Y159.209
G1 X54.466 Y158.8703
G1 Y158.6587
G1 X54.5507 Y158.32
G1 X55.0587 Y157.812
G1 X55.3973 Y157.7273
G1 X55.609
G1 X55.9477 Y157.812
G1 X56.4133 Y158.2777
G1 X58.2337 Y158.32
G1 X59.3033 Y159.3778
G0 Z3.0
G0 X58.4877 Y160.352
G0 Z1.275
G1 F300.0 Z-0.125
G1 F400.0 X58.9957 Y160.86
G1 X59.0803 Y161.241
G1 X59.038 Y161.622
G1 X60.3927 Y163.019
G1 Y168.48
G1 X60.1387 Y168.734
G1 X47.4387 Y168.7763
G1 X45.5337 Y170.639
G1 X40.0727 Y170.6813
G1 X39.988 Y170.893
G1 X39.5647 Y171.274
G1 X39.1413 Y171.401
G1 X38.8027
G1 X38.4217 Y171.274
G1 X37.9137 Y170.766
G1 X37.7867 Y170.3427
G1 Y170.0463
G1 X37.9137 Y169.623
G1 X38.4217 Y169.115
G1 X38.845 Y168.988
G1 X39.1413
G1 X39.5647 Y169.115
G1 X39.988 Y169.496
G1 X40.0727 Y169.7077
G1 X45.1527
G1 X47.0577 Y167.845
G1 X59.4613 Y167.8027
G1 Y163.3577
G1 X58.3607 Y162.2993
G1 X57.9797 Y162.3417
G1 X57.5987 Y162.257
G1 X57.133 Y161.7913
G1 X56.4133
G1 X55.9477 Y162.257
G1 X55.609 Y162.3417
G1 X55.3973
G1 X55.0587 Y162.257
G1 X54.5507 Y161.749
G1 X54.466 Y161.4103
G1 Y161.1987
G1 X54.5507 Y160.86
G1 X55.0587 Y160.352
G1 X55.3973 Y160.2673
G1 X55.609
G1 X55.9477 Y160.352
G1 X56.4133 Y160.8177
G1 X57.133
G1 X57.5987 Y160.352
G1 X57.9373 Y160.2673
G1 X58.149
G1 X58.4877 Y160.352
G0 Z3.0
G0 X58.149 Y162.8073
G0 Z1.275
G1 F300.0 Z-0.125
G1 F400.0 X58.4877 Y162.892
G1 X58.9957 Y163.4
G1 X59.0803 Y163.7387
G1 Y163.9503
G1 X58.9957 Y164.289
G1 X58.4877 Y164.797
G1 X58.149 Y164.8817
G1 X57.9373
G1 X57.5987 Y164.797
G1 X57.133 Y164.3313
G1 X56.4133
G1 X55.9477 Y164.797
G1 X55.609 Y164.8817
G1 X55.3127
G1 X55.0587 Y164.797
G1 X54.5507 Y164.289
G1 X54.466 Y163.9503
G1 Y163.7387
G1 X54.5507 Y163.4
G1 X55.0587 Y162.892
G1 X55.3973 Y162.8073
G1 X55.609
G1 X55.9477 Y162.892
G1 X56.4133 Y163.3577
G1 X57.133
G1 X57.5987 Y162.892
G1 X57.9373 Y162.8073
G1 X58.149
G0 Z3.0
G0 X56.5827 Y165.305
G0 Z1.275
G1 F300.0 Z-0.125
G1 F400.0 Y167.464
G1 X54.4237
G1 Y166.8713
G1 X53.8733
G1 X53.4077 Y167.337
G1 X53.069 Y167.4217
G1 X52.8573
G1 X52.5187 Y167.337
G1 X52.0107 Y166.829
G1 X51.926 Y166.4903
G1 Y166.2787
G1 X52.0107 Y165.94
G1 X52.5187 Y165.432
G1 X52.8573 Y165.3473
G1 X53.069
G1 X53.4077 Y165.432
G1 X53.8733 Y165.8977
G1 X54.4237
G1 Y165.305
G1 X56.5827
G0 Z3.0
G0 Y169.7077
G0 Z1.275
G1 F300.0 Z-0.125
G1 F400.0 X62.086
G1 Y168.5223
G1 X64.1603
G1 Y170.5967
G1 X62.6787 Y170.639
G1 X50.2327 Y170.6813
G1 X50.148 Y170.893
G1 X49.7247 Y171.274
G1 X49.3013 Y171.401
G1 X48.9627
G1 X48.5817 Y171.274
G1 X48.0737 Y170.766
G1 X47.9467 Y170.3427
G1 Y170.0463
G1 X48.0737 Y169.623
G1 X48.5817 Y169.115
G1 X49.005 Y168.988
G1 X49.3013
G1 X49.7247 Y169.115
G1 X50.148 Y169.496
G1 X50.2327 Y169.7077
G1 X56.5827
G0 Z3.0
G0 X58.2041 Y173.1306
G0 Z1.275
G1 F300.0 Z-0.125
G1 F400.0 X58.9957 Y172.7557
G1 X59.5037 Y172.6287
G1 X60.562
G1 X61.07 Y172.7557
G1 X61.8743 Y173.1367
G1 X62.3823 Y173.56
G1 X62.8057 Y174.068
G1 X63.1867 Y174.8723
G1 X63.3137 Y175.3803
G1 Y176.4387
G1 X63.1867 Y176.9467
G1 X62.8057 Y177.751
G1 X62.3823 Y178.259
G1 X61.8743 Y178.6823
G1 X61.07 Y179.0633
G1 X60.6043 Y179.1903
G1 X59.673 Y179.2327
G1 X59.1227 Y179.1057
G1 X58.784 Y178.9787
G1 X58.1913 Y178.6823
G1 X57.6833 Y178.259
G1 X57.26 Y177.751
G1 X56.879 Y176.9467
G1 X56.752 Y176.4387
G1 Y175.3803
G1 X56.879 Y174.8723
G1 X57.26 Y174.068
G1 X57.6833 Y173.56
G1 X58.1913 Y173.1367
G1 X58.2041 Y173.1306
G0 Z3.0
G0 X52.8997 Y172.8827
G0 Z1.275
G1 F300.0 Z-0.125
G1 F400.0 X52.7727 Y173.306
G1 X52.2647 Y173.814
G1 X51.8413 Y173.941
G1 X51.5027
G1 X51.1217 Y173.814
G1 X50.6137 Y173.306
G1 X50.4867 Y172.8827
G1 Y172.5863
G1 X50.6137 Y172.163
G1 X51.1217 Y171.655
G1 X51.545 Y171.528
G1 X51.8413
G1 X52.2647 Y171.655
G1 X52.7727 Y172.163
G1 X52.8997 Y172.5863
G1 Y172.8827
G0 Z3.0
G0 X52.053 Y176.3117
G0 Z1.275
G1 F300.0 Z-0.125
G1 F400.0 X52.5187 Y176.5233
G1 X52.9843 Y176.9467
G1 X53.196 Y177.4547
G1 Y178.1743
G1 X52.9843 Y178.6823
G1 X52.5187 Y179.1057
G1 X52.053 Y179.3173
G1 X51.4603 Y179.3597
G1 X51.1217 Y179.2327
G1 X50.783 Y179.0633
G1 X50.402 Y178.64
G1 X50.1903 Y178.1743
G1 Y177.4547
G1 X50.402 Y176.9467
G1 X50.8677 Y176.5233
G1 X51.3333 Y176.3117
G1 X52.053
G0 Z3.0
G0 X37.6597 Y172.8827
G0 Z1.275
G1 F300.0 Z-0.125
G1 F400.0 X37.5327 Y173.306
G1 X37.0247 Y173.814
G1 X36.6013 Y173.941
G1 X36.2627
G1 X35.8817 Y173.814
G1 X35.3737 Y173.306
G1 X35.2467 Y172.8827
G1 Y172.5863
G1 X35.3737 Y172.163
G1 X35.8817 Y171.655
G1 X36.305 Y171.528
G1 X36.6013
G1 X37.0247 Y171.655
G1 X37.5327 Y172.163
G1 X37.6597 Y172.5863
G1 Y172.8827
G0 Z3.0
G0 X34.8657 Y177.1583
G0 Z1.275
G1 F300.0 Z-0.125
G1 F400.0 X34.9927 Y177.3277
G1 X34.908 Y177.7087
G1 X34.9503 Y178.1743
G1 X35.162 Y178.6823
G1 X35.6277 Y179.1057
G1 X36.0933 Y179.3173
G1 X36.559 Y179.3597
G1 X36.94 Y179.275
G1 X37.067 Y179.3597
G1 X36.2203 Y180.291
G1 X33.9767
G1 Y178.0473
G1 X34.8657 Y177.1583
G0 Z3.0
G0 X35.807 Y176.1978
G0 Z1.275
G1 F300.0 Z-0.125
G1 F400.0 X35.9663 Y176.354
G1 X36.3473 Y176.2693
G1 X36.813 Y176.3117
G1 X37.321 Y176.5233
G1 X37.7443 Y176.989
G1 X37.956 Y177.4547
G1 X37.9983 Y177.9203
G1 X37.9137 Y178.3013
G1 X41.3003 Y181.7303
G1 X41.766 Y181.688
G1 X43.3747 Y180.1217
G1 Y173.7293
G1 X42.9937 Y173.306
G1 X42.8667 Y172.8827
G1 Y172.5863
G1 X42.9937 Y172.163
G1 X43.5017 Y171.655
G1 X43.925 Y171.528
G1 X44.2213
G1 X44.6447 Y171.655
G1 X45.1527 Y172.163
G1 X45.2797 Y172.5863
G1 Y172.8827
G1 X45.1527 Y173.306
G1 X44.7717 Y173.7293
G1 Y179.656
G1 X66.0653
G1 X66.1923 Y179.4867
G1 Y179.275
G1 X65.7267 Y178.8517
G1 X65.5997 Y178.5553
G1 Y175.8037
G1 X65.6843 Y175.592
G1 X66.1077 Y175.1263
G1 X65.9383 Y174.8723
G1 X65.8537 Y174.6183
G1 Y174.3643
G1 X65.9383 Y174.0257
G1 X66.4463 Y173.5177
G1 X66.785 Y173.433
G1 X66.9967
G1 X67.3353 Y173.5177
G1 X67.8433 Y174.0257
G1 X67.928 Y174.3643
G1 Y174.6183
G1 X67.8433 Y174.8723
G1 X67.5893 Y175.211
G1 Y175.4227
G1 X67.4623 Y175.719
G1 X66.9967 Y176.1423
G1 Y178.2167
G1 X67.4623 Y178.64
G1 X67.5893 Y178.9363
G1 Y179.8677
G1 X67.5047 Y180.0793
G1 X66.7003 Y180.926
G1 X66.404 Y181.053
G1 X45.7453
G1 X46.3803 Y181.7303
G1 X46.719 Y181.688
G1 X47.1847 Y181.815
G1 X47.6927 Y182.323
G1 X47.8197 Y182.7463
G1 Y183.0427
G1 X47.6927 Y183.466
G1 X47.1847 Y183.974
G1 X46.7613 Y184.101
G1 X46.465
G1 X46.0417 Y183.974
G1 X45.5337 Y183.466
G1 X45.4067 Y183.0003
G1 X45.449 Y182.6617
G1 X44.052 Y181.307
G1 X42.7397 Y182.6617
G1 Y183.0003
G1 X42.6127 Y183.466
G1 X42.1047 Y183.974
G1 X41.6813 Y184.101
G1 X41.3427
G1 X40.9617 Y183.974
G1 X40.4537 Y183.466
G1 X40.3267 Y183.0003
G1 Y182.6617
G1 X38.0407 Y180.3333
G1 X36.8553 Y181.561
G1 X36.559 Y181.688
G1 X33.1723
G1 X32.876 Y181.561
G1 X32.6643 Y181.307
G1 X32.5797 Y181.0953
G1 Y177.7087
G1 X32.6643 Y177.497
G1 X33.892 Y176.227
G1 X33.2993 Y175.592
G1 X28.0923
G1 X27.923 Y176.0153
G1 X27.3303 Y176.5657
G1 X26.8647 Y176.735
G1 X26.3143 Y176.7773
G1 X25.764 Y176.6503
G1 X23.478 Y178.894
G1 X23.224 Y179.275
G1 X22.716 Y179.7407
G1 X22.2503 Y179.91
G1 X21.446
G1 X20.9803 Y179.7407
G1 X20.303 Y179.0633
G1 X20.1337 Y178.5977
G1 Y177.7933
G1 X20.303 Y177.3277
G1 X20.9803 Y176.6503
G1 X21.446 Y176.481
G1 X22.2503
G1 X22.716 Y176.6503
G1 X23.3087 Y177.2007
G1 X24.8327 Y175.6343
G1 X24.7057 Y175.211
G1 X24.748 Y174.6183
G1 X24.9173 Y174.1527
G1 X25.5947 Y173.4753
G1 X26.0603 Y173.306
G1 X26.653 Y173.2637
G1 X27.0763 Y173.3907
G1 X28.431 Y172.0783
G1 X28.7273 Y172.036
G1 X29.066 Y171.782
G1 X29.32 Y171.6973
G1 X29.574
G1 X29.9127 Y171.782
G1 X30.4207 Y172.29
G1 X30.5053 Y172.6287
G1 Y172.8403
G1 X30.4207 Y173.179
G1 X29.9127 Y173.687
G1 X29.5317 Y173.7717
G1 X29.193 Y173.7293
G1 X28.8543 Y173.56
G1 X28.2193 Y174.195
G1 X33.638
G1 X33.8497 Y174.2797
G1 X35.807 Y176.1978
G0 Z3.0
G0 X22.2927 Y159.717
G0 Z1.275
G1 F300.0 Z-0.125
G1 F400.0 X21.954 Y159.8017
G1 X21.6577
G1 X21.4037 Y159.717
G1 X20.8957 Y159.209
G1 X20.811 Y158.8703
G1 Y158.6587
G1 X20.8957 Y158.32
G1 X21.3613 Y157.8543
G1 Y157.1347
G1 X20.8957 Y156.669
G1 X20.811 Y156.3303
G1 Y156.1187
G1 X20.8957 Y155.78
G1 X21.4037 Y155.272
G1 X21.7423 Y155.1873
G1 X21.954
G1 X22.2927 Y155.272
G1 X22.8007 Y155.78
G1 X22.8853 Y156.1187
G1 Y156.3303
G1 X22.8007 Y156.669
G1 X22.335 Y157.1347
G1 Y157.8543
G1 X22.8007 Y158.32
G1 X22.8853 Y158.6587
G1 Y158.8703
G1 X22.8007 Y159.209
G1 X22.2927 Y159.717
G0 Z3.0
G0 X19.3293 Y154.4677
G0 Z1.275
G1 F300.0 Z-0.125
G1 F400.0 X18.8213 Y154.7217
G1 X18.3133 Y154.8487
G1 X17.8053
G1 X17.3397 Y154.7217
G1 X16.8317 Y154.4677
G1 X16.2813 Y153.9173
G1 X16.0273 Y153.4093
G1 X15.9003 Y152.9013
G1 Y152.4357
G1 X16.0273 Y151.9277
G1 X16.2813 Y151.4197
G1 X16.8317 Y150.8693
G1 X17.3397 Y150.6153
G1 X17.8477 Y150.4883
G1 X18.3133
G1 X18.8213 Y150.6153
G1 X19.3293 Y150.8693
G1 X19.8797 Y151.4197
G1 X20.1337 Y151.9277
G1 X20.2607 Y152.4357
G1 Y152.9013
G1 X20.1337 Y153.4093
G1 X19.8797 Y153.9173
G1 X19.3293 Y154.4677
G0 Z3.0
G0 X18.144 Y141.3867
G0 Z1.275
G1 F300.0 Z-0.125
G1 F400.0 X17.8477
G1 X17.5937 Y141.302
G1 X17.0857 Y140.794
G1 X17.001 Y140.4553
G1 Y140.2437
G1 X17.0857 Y139.905
G1 X17.5937 Y139.397
G1 Y136.6877
G1 X17.2127 Y136.3913
G1 X16.9587 Y135.968
G1 Y135.333
G1 X17.2127 Y134.9097
G1 X17.5937 Y134.6133
G1 Y132.6237
G1 X16.493 Y131.5653
G1 X16.112 Y131.6077
G1 X15.731 Y131.523
G1 X15.223 Y131.015
G1 X15.1383 Y130.6763
G1 Y130.4647
G1 X15.223 Y130.126
G1 X15.731 Y129.618
G1 X16.0697 Y129.5333
G1 X16.2813
G1 X16.62 Y129.618
G1 X17.0857 Y130.0837
G1 X19.0753
G1 X19.541 Y129.618
G1 X19.8797 Y129.5333
G1 X20.0913
G1 X20.43 Y129.618
G1 X20.938 Y130.126
G1 X21.0227 Y130.4647
G1 Y130.6763
G1 X20.938 Y131.015
G1 X20.43 Y131.523
G1 X20.0913 Y131.6077
G1 X19.8797
G1 X19.541 Y131.523
G1 X19.0753 Y131.0573
G1 X17.3397
G1 X18.525 Y132.285
G1 X18.6097 Y134.6133
G1 X18.9483 Y134.9097
G1 X19.2023 Y135.333
G1 Y135.968
G1 X18.9483 Y136.3913
G1 X18.5673 Y136.6877
G1 Y139.4393
G1 X18.9907 Y139.905
G1 X19.0753 Y140.2437
G1 Y140.4553
G1 X18.9907 Y140.794
G1 X18.4827 Y141.302
G1 X18.144 Y141.3867
G0 Z3.0
G0 X16.0485 Y139.2912
G0 Z1.275
G1 F300.0 Z-0.125
G1 F400.0 X15.9427 Y139.397
G1 X15.604 Y139.4817
G1 X15.3077
G1 X15.0537 Y139.397
G1 X14.5457 Y138.889
G1 X14.461 Y138.5503
G1 Y138.3387
G1 X14.5457 Y138.0
G1 X15.0113 Y137.5343
G1 Y136.6453
G1 X14.6727 Y136.4337
G1 X14.4187 Y136.0103
G1 X14.3763 Y135.6293
G1 X14.461 Y135.2483
G1 X13.191 Y133.936
G1 X13.1487 Y131.65
G1 X12.5983
G1 Y129.5333
G1 X14.715
G1 Y131.65
G1 X14.1223
G1 Y133.5973
G1 X15.1383 Y134.571
G1 X15.4347 Y134.4863
G1 X15.858 Y134.5287
G1 X16.2813 Y134.7403
G1 X16.493 Y134.9943
G1 X16.6623 Y135.333
G1 X16.7047 Y135.7563
G1 X16.62 Y136.095
G1 X16.366 Y136.476
G1 X15.985 Y136.6877
G1 Y137.5343
G1 X16.4507 Y138.0
G1 X16.5353 Y138.3387
G1 Y138.5503
G1 X16.4507 Y138.889
G1 X16.0485 Y139.2912
G0 Z3.0
G0 X27.0763 Y136.0527
G0 Z1.275
G1 F300.0 Z-0.125
G1 F400.0 Y135.4177
G1 X27.2033 Y135.1637
G1 X27.4997 Y134.825
G1 X27.8383 Y134.6557
G1 X28.4733
G1 X28.812 Y134.825
G1 X29.1083 Y135.1637
G1 X29.2353 Y135.4177
G1 Y136.0527
G1 X29.1083 Y136.3067
G1 X28.812 Y136.6453
G1 X28.4733 Y136.8147
G1 X27.9653 Y136.857
G1 X27.7537 Y136.7723
G1 X27.4997 Y136.6453
G1 X27.2033 Y136.3067
G1 X27.0763 Y136.0527
G0 Z3.0
G0 X31.5637
G0 Z1.275
G1 F300.0 Z-0.125
G1 F400.0 Y135.4177
G1 X31.6907 Y135.1637
G1 X31.987 Y134.825
G1 X32.3257 Y134.6557
G1 X32.9607
G1 X33.2993 Y134.825
G1 X33.5957 Y135.1637
G1 X33.7227 Y135.4177
G1 Y136.0527
G1 X33.5957 Y136.3067
G1 X33.2993 Y136.6453
G1 X32.9607 Y136.8147
G1 X32.4527 Y136.857
G1 X32.241 Y136.7723
G1 X31.987 Y136.6453
G1 X31.6907 Y136.3067
G1 X31.5637 Y136.0527
G0 Z3.0
G0 X46.9307 Y126.824
G0 Z1.275
G1 F300.0 Z-0.125
G1 F400.0 X46.846 Y126.4853
G1 Y126.2737
G1 X46.9307 Y125.935
G1 X47.4387 Y125.427
G1 X47.8197 Y125.3423
G1 X48.243 Y125.3847
G1 X49.4283 Y124.157
G1 X49.386 Y123.776
G1 X49.4707 Y123.395
G1 X49.9787 Y122.887
G1 X50.3173 Y122.8023
G1 X50.529
G1 X50.8677 Y122.887
G1 X51.3757 Y123.395
G1 X51.4603 Y123.7337
G1 Y123.9453
G1 X51.3757 Y124.284
G1 X50.8677 Y124.792
G1 X50.4867 Y124.8767
G1 X50.1057 Y124.8343
G1 X48.878 Y126.0197
G1 X48.9203 Y126.443
G1 X48.8357 Y126.824
G1 X48.3277 Y127.332
G1 X47.989 Y127.4167
G1 X47.6927
G1 X47.4387 Y127.332
G1 X46.9307 Y126.824
G0 Z3.0
G0 X47.5911 Y124.8428
G0 Z1.275
G1 F300.0 Z-0.125
G1 F400.0 X47.4387 Y124.792
G1 X46.9307 Y124.284
G1 X46.846 Y123.9453
G1 Y123.7337
G1 X46.9307 Y123.395
G1 X47.4387 Y122.887
G1 X47.8197 Y122.8023
G1 X48.243 Y122.8447
G1 X49.4283 Y121.617
G1 X49.386 Y121.236
G1 X49.4707 Y120.855
G1 X49.9787 Y120.347
G1 X50.3173 Y120.2623
G1 X50.529
G1 X50.8677 Y120.347
G1 X51.3757 Y120.855
G1 X51.4603 Y121.1937
G1 Y121.4053
G1 X51.3757 Y121.744
G1 X50.8677 Y122.252
G1 X50.4867 Y122.3367
G1 X50.1057 Y122.2943
G1 X48.878 Y123.4797
G1 X48.9203 Y123.903
G1 X48.8357 Y124.284
G1 X48.3277 Y124.792
G1 X47.989 Y124.8767
G1 X47.6927
G1 X47.5911 Y124.8428
G0 Z3.0
G0 X47.6927 Y122.3367
G0 Z1.275
G1 F300.0 Z-0.125
G1 F400.0 X47.4387 Y122.252
G1 X46.9307 Y121.744
G1 X46.846 Y121.4053
G1 Y121.1937
G1 X46.9307 Y120.855
G1 X47.4387 Y120.347
G1 X47.8197 Y120.2623
G1 X48.243 Y120.3047
G1 X49.4283 Y119.077
G1 X49.386 Y118.696
G1 X49.4707 Y118.315
G1 X49.9787 Y117.807
G1 X50.3173 Y117.7223
G1 X50.529
G1 X50.8677 Y117.807
G1 X51.3757 Y118.315
G1 X51.4603 Y118.6537
G1 Y118.8653
G1 X51.3757 Y119.204
G1 X50.8677 Y119.712
G1 X50.4867 Y119.7967
G1 X50.1057 Y119.7543
G1 X48.878 Y120.9397
G1 X48.9203 Y121.363
G1 X48.8357 Y121.744
G1 X48.3277 Y122.252
G1 X47.989 Y122.3367
G1 X47.6927
G0 Z3.0
G0 Y119.7967
G0 Z1.275
G1 F300.0 Z-0.125
G1 F400.0 X47.4387 Y119.712
G1 X46.9307 Y119.204
G1 X46.846 Y118.8653
G1 Y118.6537
G1 X46.9307 Y118.315
G1 X47.4387 Y117.807
G1 X47.8197 Y117.7223
G1 X48.243 Y117.7647
G1 X49.4283 Y116.537
G1 X49.386 Y116.156
G1 X49.4707 Y115.775
G1 X49.9787 Y115.267
G1 X50.3173 Y115.1823
G1 X50.529
G1 X50.8677 Y115.267
G1 X51.3757 Y115.775
G1 X51.4603 Y116.1137
G1 Y116.3253
G1 X51.3757 Y116.664
G1 X50.8677 Y117.172
G1 X50.4867 Y117.2567
G1 X50.1057 Y117.2143
G1 X48.878 Y118.3997
G1 X48.9203 Y118.823
G1 X48.8357 Y119.204
G1 X48.3277 Y119.712
G1 X47.989 Y119.7967
G1 X47.6927
G0 Z3.0
G0 Y117.2567
G0 Z1.275
G1 F300.0 Z-0.125
G1 F400.0 X47.4387 Y117.172
G1 X46.9307 Y116.664
G1 X46.846 Y116.3253
G1 Y116.1137
G1 X46.9307 Y115.775
G1 X47.4387 Y115.267
G1 X47.8197 Y115.1823
G1 X48.243 Y115.2247
G1 X49.4283 Y113.997
G1 X49.386 Y113.616
G1 X49.4707 Y113.235
G1 X49.9787 Y112.727
G1 X50.3173 Y112.6423
G1 X50.529
G1 X50.8677 Y112.727
G1 X51.3757 Y113.235
G1 X51.4603 Y113.5737
G1 Y113.7853
G1 X51.3757 Y114.124
G1 X50.8677 Y114.632
G1 X50.4867 Y114.7167
G1 X50.1057 Y114.6743
G1 X48.878 Y115.8597
G1 X48.9203 Y116.283
G1 X48.8357 Y116.664
G1 X48.3277 Y117.172
G1 X47.989 Y117.2567
G1 X47.6927
G0 Z3.0
G0 Y114.7167
G0 Z1.275
G1 F300.0 Z-0.125
G1 F400.0 X47.4387 Y114.632
G1 X46.9307 Y114.124
G1 X46.846 Y113.7853
G1 Y113.5737
G1 X46.9307 Y113.235
G1 X47.4387 Y112.727
G1 X47.8197 Y112.6423
G1 X48.243 Y112.6847
G1 X49.4283 Y111.457
G1 X49.386 Y111.076
G1 X49.4707 Y110.695
G1 X49.9787 Y110.187
G1 X50.3173 Y110.1023
G1 X50.529
G1 X50.8677 Y110.187
G1 X51.3757 Y110.695
G1 X51.4603 Y111.0337
G1 Y111.2453
G1 X51.3757 Y111.584
G1 X50.8677 Y112.092
G1 X50.4867 Y112.1767
G1 X50.1057 Y112.1343
G1 X48.878 Y113.3197
G1 X48.9203 Y113.743
G1 X48.8357 Y114.124
G1 X48.3277 Y114.632
G1 X47.989 Y114.7167
G1 X47.6927
G0 Z3.0
G0 Y112.1767
G0 Z1.275
G1 F300.0 Z-0.125
G1 F400.0 X47.4387 Y112.092
G1 X46.9307 Y111.584
G1 X46.846 Y111.2453
G1 Y111.0337
G1 X46.9307 Y110.695
G1 X47.4387 Y110.187
G1 X47.8197 Y110.1023
G1 X48.2007 Y110.1447
G1 X49.3437 Y109.044
G1 Y107.52
G1 X51.5027
G1 Y109.679
G1 X49.9787
G1 X48.878 Y110.822
G1 X48.9203 Y111.203
G1 X48.8357 Y111.584
G1 X48.3277 Y112.092
G1 X47.989 Y112.1767
G1 X47.6927
G0 Z3.0
G0 X47.7773 Y109.6367
G0 Z1.275
G1 F300.0 Z-0.125
G1 F400.0 X47.4387 Y109.552
G1 X46.9307 Y109.044
G1 X46.846 Y108.7053
G1 Y108.4937
G1 X46.9307 Y108.155
G1 X47.3963 Y107.6893
G1 X47.4387 Y106.504
G1 X47.6927 Y106.25
G1 X52.5187
G1 X52.7727 Y106.504
G1 X52.815 Y109.044
G1 X55.0163 Y111.2877
G1 X57.006
G1 Y111.0337
G1 X57.0907 Y110.695
G1 X57.5987 Y110.187
G1 X57.9373 Y110.1023
G1 X58.149
G1 X58.4877 Y110.187
G1 X58.9957 Y110.695
G1 X59.0803 Y111.0337
G1 Y111.2453
G1 X58.9957 Y111.584
G1 X58.4877 Y112.092
G1 X58.1067 Y112.1767
G1 X57.7257 Y112.1343
G1 X57.514 Y112.2613
G1 X54.7623
G1 X54.593 Y112.1767
G1 X51.8837 Y109.425
G1 X51.8413 Y107.1813
G1 X48.37
G1 Y107.6893
G1 X48.8357 Y108.155
G1 X48.9203 Y108.4937
G1 Y108.7053
G1 X48.8357 Y109.044
G1 X48.3277 Y109.552
G1 X47.989 Y109.6367
G1 X47.7773
G0 Z3.0
G0 Y105.8267
G0 Z1.275
G1 F300.0 Z-0.125
G1 F400.0 X47.6927
G1 X47.4387 Y105.742
G1 X46.9307 Y105.234
G1 X46.846 Y104.8953
G1 Y104.6837
G1 X46.9307 Y104.345
G1 X47.4387 Y103.837
G1 X47.8197 Y103.7523
G1 X48.243 Y103.7947
G1 X49.4283 Y102.567
G1 X49.386 Y102.186
G1 X49.4707 Y101.805
G1 X49.9787 Y101.297
G1 X50.3173 Y101.2123
G1 X50.529
G1 X50.8677 Y101.297
G1 X51.3757 Y101.805
G1 X51.4603 Y102.1437
G1 Y102.3553
G1 X51.3757 Y102.694
G1 X50.8677 Y103.202
G1 X50.4867 Y103.2867
G1 X50.1057 Y103.2443
G1 X48.878 Y104.4297
