( Made using CamBam - http://www.cambam.co.uk )
( midi_out_connector.gcode.all 6/5/2014 4:12:24 PM )
( T0 : 0.0 )
G21 G90 G64 G40
G0 Z3.0
( T0 : 0.0 )
T0 M6
( rub_gornji )
G17
M3 S1000
G0 X1.0 Y1.0
G0 Z1.0
G1 F300.0 Z-1.0
G1 X46.0
G1 Y29.0
G1 Y57.0
G1 X1.0
G1 Y85.0
G1 X46.0
G1 Y57.0
G0 Z3.0
G0 Y29.0
G0 Z0.0
G1 Z-1.0
G1 X1.0
G1 Y57.0
G1 Z-2.0
G1 Y85.0
G1 X46.0
G1 Y57.0
G1 X1.0
G0 Z3.0
G0 Y85.0
G0 Z-1.0
G1 Z-3.0
G1 X46.0
G0 Z3.0
G0 Y29.0
G0 Z0.0
G1 Z-2.0
G1 Y57.0
G0 Z3.0
G0 Y85.0
G0 Z-2.0
G1 Z-3.0
G1 Y57.0
G0 Z3.0
G0 Y1.0
G0 Z0.0
G1 Z-2.0
G1 Y29.0
G0 Z3.0
G0 X1.0
G0 Z0.0
G1 Z-1.0
G1 Y1.0
G1 Z-2.0
G1 X46.0
G0 Z3.0
G0 Y29.0
G0 Z-1.0
G1 Z-2.0
G1 X1.0
G1 Y57.0
G1 Z-3.0
G1 Y85.0
G1 Z-3.5
G1 X46.0
G0 Z3.0
G0 Y57.0
G0 Z-2.0
G1 Z-3.0
G1 X1.0
G0 Z3.0
G0 X46.0 Y29.0
G0 Z-1.0
G1 Z-3.0
G1 Y57.0
G0 Z3.0
G0 Y85.0
G0 Z-2.5
G1 Z-3.5
G1 Y57.0
G0 Z3.0
G0 Y1.0
G0 Z-1.0
G1 Z-3.0
G1 Y29.0
G0 Z3.0
G0 X1.0
G0 Z-1.0
G1 Z-2.0
G1 Y1.0
G1 Z-3.0
G1 X46.0
G0 Z3.0
G0 Y29.0
G0 Z-2.0
G1 Z-3.0
G1 X1.0
G1 Y57.0
G1 Z-3.5
G1 Y85.0
G0 Z3.0
G0 X46.0 Y57.0
G0 Z-2.5
G1 Z-3.5
G1 X1.0
G0 Z3.0
G0 X46.0 Y29.0
G0 Z-2.0
G1 Z-3.5
G1 Y57.0
G0 Z3.0
G0 Y1.0
G0 Z-2.0
G1 Z-3.5
G1 Y29.0
G0 Z3.0
G0 X1.0
G0 Z-2.0
G1 Z-3.0
G1 Y1.0
G1 Z-3.5
G1 X46.0
G0 Z3.0
G0 Y29.0
G0 Z-2.5
G1 Z-3.5
G1 X1.0
G1 Y57.0
G0 Z3.0
G0 Y29.0
G0 Z-2.5
G1 Z-3.5
G1 Y1.0
( rub_donji )
S1000
G0 Z3.0
G0 Y85.0
G0 Z-2.5
G1 Z-3.83
G1 X46.0
G1 Y73.0
G0 Z3.0
G0 Y70.0
G0 Z1.0
G1 Z-3.83
G1 Y45.0
G0 Z3.0
G0 Y42.0
G0 Z1.0
G1 Z-3.83
G1 Y20.0
G0 Z3.0
G0 Y17.0
G0 Z1.0
G1 Z-3.83
G1 Y1.0
G1 X1.0
G1 Y17.0
G0 Z3.0
G0 Y20.0
G0 Z1.0
G1 Z-3.83
G1 Y29.0
G1 Y42.0
G0 Z3.0
G0 Y45.0
G0 Z1.0
G1 Z-3.83
G1 Y57.0
G1 Y70.0
G0 Z3.0
G0 Y73.0
G0 Z1.0
G1 Z-3.83
G1 Y85.0
G0 Z3.0
G0 Y57.0
G0 Z-2.83
G1 Z-3.83
G1 X46.0
G0 Z3.0
G0 X1.0 Y29.0
G0 Z-2.83
G1 Z-3.83
G1 X46.0
G0 Z3.0
M5
M30
