( Made using CamBam - http://www.cambam.co.uk )
( midi_organ_v0.2_mm.gcode.all.[rub] 6/5/2014 2:45:51 PM )
( T0 : 0.0 )
G21 G90 G64 G40
G0 Z3.0
( T0 : 0.0 )
T0 M6
( rub )
G17
M3 S1000
G0 X8.0 Y196.0
G0 Z1.0
G1 F300.0 Z-0.6
G1 F400.0 Y103.0
G0 Z3.0
G0 Y100.0
G0 Z1.0
G1 F300.0 Z-0.6
G1 F400.0 Y10.0
G1 X49.0
G0 Z3.0
G0 X52.0
G0 Z1.0
G1 F300.0 Z-0.6
G1 F400.0 X94.0
G1 Y100.2796
G0 Z3.0
G0 Y103.0
G0 Z1.0
G1 F300.0 Z-0.6
G1 F400.0 Y196.0
G1 X54.0
G0 Z3.0
G0 X51.0
G0 Z1.0
G1 F300.0 Z-0.6
G1 F400.0 X8.0
G1 F300.0 Z-1.2
G1 F400.0 Y103.0
G0 Z3.0
G0 Y100.0
G0 Z0.4
G1 F300.0 Z-1.2
G1 F400.0 Y10.0
G1 X49.0
G0 Z3.0
G0 X52.0
G0 Z0.4
G1 F300.0 Z-1.2
G1 F400.0 X94.0
G1 Y100.2796
G0 Z3.0
G0 Y103.0
G0 Z0.4
G1 F300.0 Z-1.2
G1 F400.0 Y196.0
G1 X54.0
G0 Z3.0
G0 X51.0
G0 Z0.4
G1 F300.0 Z-1.2
G1 F400.0 X8.0
G1 F300.0 Z-1.55
G1 F400.0 Y103.0
G0 Z3.0
G0 Y100.0
G0 Z-0.2
G1 F300.0 Z-1.55
G1 F400.0 Y10.0
G1 X49.0
G0 Z3.0
G0 X52.0
G0 Z-0.2
G1 F300.0 Z-1.55
G1 F400.0 X94.0
G1 Y100.2796
G0 Z3.0
G0 Y103.0
G0 Z-0.2
G1 F300.0 Z-1.55
G1 F400.0 Y196.0
G1 X54.0
G0 Z3.0
G0 X51.0
G0 Z-0.2
G1 F300.0 Z-1.55
G1 F400.0 X8.0
G0 Z3.0
M5
M30
