( Made using CamBam - http://www.cambam.co.uk )
( midi_out_connector.gcode.all 6/5/2014 2:08:25 PM )
( T0 : 0.0 )
G21 G90 G64 G40
G0 Z3.0
( T0 : 0.0 )
T0 M6
( bottom )
G17
M3 S1000
G0 X29.8977 Y24.6483
G0 Z1.275
G1 F300.0 Z-0.125
G1 F250.0 X29.7283 Y24.5637
G1 X29.559 Y24.352
G1 X29.5167 Y22.5317
G1 X29.051 Y22.066
G1 X28.9663 Y21.7273
G1 Y21.5157
G1 X29.051 Y21.177
G1 X29.559 Y20.669
G1 X29.8977 Y20.5843
G1 X30.1093
G1 X30.448 Y20.669
G1 X30.956 Y21.177
G1 X31.0407 Y21.5157
G1 Y21.7273
G1 X30.956 Y22.066
G1 X30.4903 Y22.5317
G1 Y23.6747
G1 X40.0153
G1 X40.9467 Y22.701
G1 Y14.1497
G1 X39.3803 Y12.6257
G1 X38.4067
G1 X35.274 Y15.716
G1 X34.7237 Y15.7583
G1 X34.258 Y16.224
G1 X33.9193 Y16.3087
G1 X33.7077
G1 X33.369 Y16.224
G1 X32.861 Y15.716
G1 X32.7763 Y15.3773
G1 Y15.1657
G1 X32.861 Y14.827
G1 X33.369 Y14.319
G1 X33.7077 Y14.2343
G1 X33.9193
G1 X34.258 Y14.319
G1 X34.7237 Y14.7847
G1 X34.9353
G1 X37.7293 Y11.9483
G1 Y10.2973
G1 X40.0577
G1 Y11.9483
G1 X41.878 Y13.811
G1 Y23.082
G1 X40.354 Y24.606
G1 X29.8977 Y24.6483
G0 Z3.0
G0 X31.464 Y22.701
G0 Z1.275
G1 F300.0 Z-0.125
G1 F250.0 Y20.542
G1 X33.623
G1 Y21.1347
G1 X37.8563
G1 X38.1527 Y20.7537
G1 X38.576 Y20.4997
G1 X39.211
G1 X39.5497 Y20.669
G1 X39.8037 Y20.8807
G1 X40.0153 Y21.304
G1 Y21.939
G1 X39.8037 Y22.3623
G1 X39.5497 Y22.574
G1 X39.211 Y22.7433
G1 X38.703 Y22.7857
G1 X38.4067 Y22.6587
G1 X38.068 Y22.447
G1 X37.8563 Y22.1083
G1 X33.623
G1 Y22.701
G1 X31.464
G0 Z3.0
G0 X28.4459 Y21.9465
G0 Z1.275
G1 F300.0 Z-0.125
G1 F250.0 X28.416 Y22.066
G1 X27.908 Y22.574
G1 X27.5693 Y22.6587
G1 X27.3577
G1 X27.019 Y22.574
G1 X26.5533 Y22.1083
G1 X23.844
G1 X22.574 Y23.336
G1 X18.4677 Y23.3783
G1 X18.2983 Y23.2937
G1 X15.589 Y20.542
G1 X15.5467 Y16.224
G1 X15.208 Y15.97
G1 X14.9963 Y15.589
G1 Y14.954
G1 X15.208 Y14.573
G1 X15.5467 Y14.319
G1 Y12.8797
G1 X11.652 Y9.0273
G1 X11.144 Y9.1967
G1 X10.763
G1 X10.255 Y9.0273
G1 X6.9107 Y12.3293
G1 Y13.049
G1 X6.699 Y13.43
G1 X6.3603 Y13.684
G1 Y16.859
G1 X6.699 Y17.113
G1 X6.9107 Y17.494
G1 X6.953 Y17.9173
G1 X6.8683 Y18.256
G1 X6.572 Y18.5947
G1 X6.191 Y18.8487
G1 X5.556
G1 X5.175 Y18.5947
G1 X4.8787 Y18.256
G1 X4.794 Y17.9173
G1 X4.8363 Y17.494
G1 X5.048 Y17.113
G1 X5.3867 Y16.859
G1 Y13.684
G1 X5.048 Y13.43
G1 X4.8363 Y13.049
G1 X4.794 Y12.6257
G1 X4.8787 Y12.287
G1 X5.175 Y11.9483
G1 X5.556 Y11.6943
G1 X6.2757 Y11.652
G1 X8.3923 Y9.5777
G1 X7.969 Y9.112
G1 Y4.921
G1 X8.223 Y4.667
G1 X13.684
G1 X13.938 Y4.921
G1 Y9.112
G1 X13.5147 Y9.5353
G1 X16.478 Y12.541
G1 X16.5203 Y14.319
G1 X16.859 Y14.573
G1 X17.0707 Y14.954
G1 Y15.589
G1 X16.859 Y15.97
G1 X16.5203 Y16.224
G1 Y20.2033
G1 X18.764 Y22.4047
G1 X22.193
G1 X23.463 Y21.177
G1 X26.5533 Y21.1347
G1 X26.9767 Y20.7113
G1 X27.019 Y20.161
G1 X29.813 Y17.367
G1 X32.9033 Y17.3247
G1 X33.369 Y16.859
G1 X33.7077 Y16.7743
G1 X33.9193
G1 X34.258 Y16.859
G1 X34.766 Y17.367
G1 X34.8507 Y17.7057
G1 Y17.9173
G1 X34.766 Y18.256
G1 X34.258 Y18.764
G1 X33.9193 Y18.8487
G1 X33.7077
G1 X33.369 Y18.764
G1 X32.9033 Y18.2983
G1 X30.1517
G1 X27.9503 Y20.542
G1 Y20.7113
G1 X28.416 Y21.177
G1 X28.5007 Y21.5157
G1 Y21.7273
G1 X28.4459 Y21.9465
G0 Z3.0
G0 X13.0067 Y8.7733
G0 Z1.275
G1 F300.0 Z-0.125
G1 F250.0 X12.8373 Y8.9003
G1 X12.3293 Y8.35
G1 X12.4987 Y7.842
G1 X12.4563 Y7.2917
G1 X12.2447 Y6.7837
G1 X11.779 Y6.3603
G1 X11.3133 Y6.1487
G1 X10.5937
G1 X10.128 Y6.3603
G1 X9.6623 Y6.7837
G1 X9.4507 Y7.2917
G1 X9.4083 Y7.842
G1 X9.5777 Y8.35
G1 X9.0273 Y8.9003
G1 X8.9003 Y8.731
G1 Y5.5983
G1 X13.0067
G1 Y8.7733
G0 Z3.0
G0 X14.9963 Y7.969
G0 Z1.275
G1 F300.0 Z-0.125
G1 F250.0 X14.954 Y7.5457
G1 X15.0387 Y7.207
G1 X15.335 Y6.8683
G1 X15.716 Y6.6143
G1 X16.1393 Y6.572
G1 X16.478 Y6.6567
G1 X16.8167 Y6.953
G1 X17.0707 Y7.334
G1 X17.113 Y7.7573
G1 X17.0283 Y8.096
G1 X16.732 Y8.4347
G1 X16.351 Y8.6887
G1 X15.843 Y8.731
G1 X15.5467 Y8.604
G1 X15.2503 Y8.35
G1 X14.9963 Y7.969
G0 Z3.0
G0 X17.5787 Y9.747
G0 Z1.275
G1 F300.0 Z-0.125
G1 F250.0 X17.875 Y9.4083
G1 X18.256 Y9.1543
G1 X18.9757 Y9.112
G1 X19.2297 Y8.9003
G1 X23.6323 Y8.8157
G1 X23.9287 Y8.477
G1 X24.352 Y8.223
G1 X24.987
G1 X25.3257 Y8.3923
G1 X25.5797 Y8.604
G1 X25.7913 Y9.0273
G1 Y9.6623
G1 X25.5797 Y10.0857
G1 X25.3257 Y10.2973
G1 X24.987 Y10.4667
G1 X24.352
G1 X23.9287 Y10.2127
G1 X23.6323 Y9.8317
G1 X19.6107
G1 X19.653 Y10.2973
G1 X19.5683 Y10.636
G1 X19.272 Y10.9747
G1 X18.891 Y11.2287
G1 X18.383 Y11.271
G1 X18.0867 Y11.144
G1 X17.7903 Y10.89
G1 X17.5363 Y10.509
G1 X17.494 Y10.0857
G1 X17.5787 Y9.747
G0 Z3.0
G0 X21.431 Y11.017
G0 Z1.275
G1 F300.0 Z-0.125
G1 F250.0 X21.939 Y10.509
G1 X22.2777 Y10.4243
G1 X22.4893
G1 X22.828 Y10.509
G1 X23.336 Y11.017
G1 X23.4207 Y11.398
G1 X23.3783 Y11.779
G1 X23.8017 Y12.2447
G1 X25.241
G1 Y11.779
G1 X27.146
G1 Y13.684
G1 X25.241
G1 Y13.2183
G1 X23.463 Y13.176
G1 X22.7433 Y12.4987
G1 X22.066 Y12.4563
G1 X19.0603 Y15.4197
G1 Y19.399
G1 X19.399 Y19.653
G1 X19.6107 Y20.034
G1 X19.653 Y20.4573
G1 X19.5683 Y20.796
G1 X19.272 Y21.1347
G1 X18.891 Y21.3887
G1 X18.383 Y21.431
G1 X18.0867 Y21.304
G1 X17.7903 Y21.05
G1 X17.5363 Y20.669
G1 Y20.034
G1 X17.748 Y19.653
G1 X18.0867 Y19.399
G1 X18.129 Y15.081
G1 X21.3887 Y11.779
G1 X21.3463 Y11.398
G1 X21.431 Y11.017
G0 Z3.0
G0 X25.241 Y14.827
G0 Z1.275
G1 F300.0 Z-0.125
G1 F250.0 X25.749 Y14.319
G1 X26.0877 Y14.2343
G1 X26.2993
G1 X26.638 Y14.319
G1 X27.1037 Y14.7847
G1 X27.3153
G1 X28.2467 Y13.811
G1 X28.289 Y12.541
G1 X31.9297 Y8.9003
G1 X33.7077 Y8.858
G1 Y8.1807
G1 X35.9937
G1 Y10.509
G1 X33.7077
G1 Y9.8317
G1 X32.2683
G1 X29.2203 Y12.922
G1 X29.178 Y14.192
G1 X27.654 Y15.716
G1 X27.1037 Y15.7583
G1 X26.638 Y16.224
G1 X26.257 Y16.3087
G1 X25.876 Y16.2663
G1 X23.463 Y18.637
G1 Y20.161
G1 X21.304
G1 Y18.002
G1 X22.828
G1 X25.1987 Y15.589
G1 X25.1563 Y15.208
G1 X25.241 Y14.827
G0 Z3.0
G0 X25.749 Y16.859
G0 Z1.275
G1 F300.0 Z-0.125
G1 F250.0 X26.0877 Y16.7743
G1 X26.2993
G1 X26.638 Y16.859
G1 X27.146 Y17.367
G1 X27.2307 Y17.7057
G1 Y17.9173
G1 X27.146 Y18.256
G1 X26.638 Y18.764
G1 X26.2993 Y18.8487
G1 X26.003
G1 X25.749 Y18.764
G1 X25.241 Y18.256
G1 X25.1563 Y17.9173
G1 Y17.7057
G1 X25.241 Y17.367
G1 X25.749 Y16.859
G0 Z3.0
G0 X32.861 Y13.176
G0 Z1.275
G1 F300.0 Z-0.125
G1 F250.0 X32.7763 Y12.8373
G1 Y12.6257
G1 X32.861 Y12.287
G1 X33.369 Y11.779
G1 X33.7077 Y11.6943
G1 X33.9193
G1 X34.258 Y11.779
G1 X34.766 Y12.287
G1 X34.8507 Y12.6257
G1 Y12.8373
G1 X34.766 Y13.176
G1 X34.258 Y13.684
G1 X33.9193 Y13.7687
G1 X33.623
G1 X33.369 Y13.684
G1 X32.861 Y13.176
G0 Z3.0
G0 X31.5801 Y5.313
G0 Z1.275
G1 F300.0 Z-0.125
G1 F250.0 Y4.9512
G1 X31.2183
G1 Y5.313
G1 X31.5801
G0 Z3.0
G0 X31.5435 Y4.5908
G0 Z1.275
G1 F300.0 Z-0.125
G1 F250.0 Y3.0
G1 X31.2549
G1 Y4.374
G1 X30.6763
G1 Y4.5908
G1 X31.5435
G0 Z3.0
G0 X32.4572 Y4.2022
G0 Z1.275
G1 F300.0 Z-0.125
G2 F250.0 X32.585 Y4.4033 I0.6717 J-0.2857
G2 X32.8351 Y4.5752 I0.4773 J-0.4266
G2 X33.1343 Y4.626 I0.287 J-0.7843
G2 X33.4336 Y4.5755 I0.0125 J-0.838
G2 X33.6836 Y4.4033 I-0.224 J-0.593
G2 X33.8412 Y4.1183 I-0.5439 J-0.4868
G2 X33.8843 Y3.7954 I-1.0838 J-0.309
G2 X33.8412 Y3.4712 I-1.1364 J-0.0139
G2 X33.6836 Y3.1846 I-0.7079 J0.2026
G2 X33.4333 Y3.0135 I-0.4726 J0.4227
G2 X33.1343 Y2.9634 I-0.2866 J0.7932
G2 X32.8346 Y3.0136 I-0.0124 J0.8457
G2 X32.5835 Y3.1846 I0.2242 J0.5992
G2 X32.427 Y3.4714 I0.5535 J0.4881
G2 X32.3843 Y3.7954 I1.1019 J0.3101
G2 X32.4274 Y4.1183 I1.1268 J0.0139
G2 X32.4572 Y4.2022 I0.7015 J-0.2017
G0 Z3.0
G0 X32.7364 Y4.1044
G0 Z1.275
G1 F300.0 Z-0.125
G3 F250.0 X32.7157 Y4.03 I0.5593 J-0.196
G3 X32.6919 Y3.7954 I1.0396 J-0.2241
G3 X32.7156 Y3.5601 I1.0725 J-0.0106
G3 X32.8091 Y3.3428 I0.5805 J0.1209
G3 X33.1343 Y3.1802 I0.3111 J0.2157
G3 X33.3177 Y3.2199 I0.0071 J0.4106
G3 X33.4595 Y3.3428 I-0.1726 J0.3423
G3 X33.5529 Y3.5601 I-0.4871 J0.3382
G3 X33.5767 Y3.7954 I-1.0484 J0.2247
G3 X33.5528 Y4.03 I-1.0635 J0.0105
G3 X33.4595 Y4.2466 I-0.58 J-0.1217
G3 X33.1343 Y4.4092 I-0.3111 J-0.2157
G3 X32.9509 Y4.3695 I-0.0071 J-0.4106
G3 X32.8091 Y4.2466 I0.1726 J-0.3423
G3 X32.7364 Y4.1044 I0.4867 J-0.3382
G0 Z3.0
G0 X34.2959
G0 Z1.275
G1 F300.0 Z-0.125
G1 F250.0 Y4.5908
G1 X34.5845
G1 Y3.5815
G3 X34.5944 Y3.4442 I0.8491 J-0.0078
G3 X34.6416 Y3.3149 I0.3104 J0.0401
G3 X34.7297 Y3.2527 I0.1411 J0.1062
G3 X34.8364 Y3.2373 I0.1006 J0.3193
G3 X34.9761 Y3.2689 I-0.0039 J0.342
G3 X35.1501 Y3.391 I-0.2739 J0.5753
G3 X35.2905 Y3.5508 I-0.9181 J0.9485
G1 Y4.5908
G1 X35.5791
G1 Y3.0
G1 X35.2905
G1 Y3.2988
G2 X35.1925 Y3.1636 I-0.7426 J0.4356
G2 X34.9921 Y3.0138 I-0.4521 J0.3955
G2 X34.7471 Y2.9634 I-0.2385 J0.5388
G2 X34.5482 Y2.9977 I-0.0105 J0.533
G2 X34.3429 Y3.2105 I0.1355 J0.3361
G2 X34.3058 Y3.3543 I0.5938 J0.2299
G2 X34.2959 Y3.5024 I1.0225 J0.143
G1 Y4.1044
G0 Z3.0
G0 X36.0361 Y4.3374
G0 Z1.275
G1 F300.0 Z-0.125
G1 F250.0 Y4.5542
G1 X36.4331
G1 Y4.897
G1 X36.7217
G1 Y4.5542
G1 X37.4277
G1 Y4.3374
G1 X36.7217
G1 Y3.5229
G3 X36.7242 Y3.4287 I1.568 J-0.0055
G3 X36.7378 Y3.3354 I0.4409 J0.0167
G3 X36.811 Y3.2461 I0.17 J0.0646
G3 X36.9514 Y3.1929 I0.2047 J0.3282
G3 X37.1011 Y3.1802 I0.1423 J0.7899
G3 X37.46 Y3.2212 I-0.001 J1.5997
G1 Y3.0015
G2 X37.041 Y2.9634 I-0.428 J2.3848
G2 X36.7898 Y2.9845 I-0.0154 J1.3228
G2 X36.6677 Y3.0206 I0.1167 J0.6194
G2 X36.5605 Y3.0894 I0.1259 J0.3139
G2 X36.4911 Y3.1962 I0.2431 J0.234
G2 X36.4443 Y3.3803 I0.6602 J0.2657
G2 X36.4331 Y3.5698 I1.452 J0.181
G1 Y4.3374
G1 X36.0361
G0 Z3.0
G0 X37.7684 Y4.1818
G0 Z1.275
G1 F300.0 Z-0.125
G2 F250.0 X37.8197 Y4.4701 I1.6859 J-0.1514
G2 X38.0239 Y4.8823 I1.1484 J-0.3121
G2 X38.32 Y5.1349 I0.7115 J-0.5342
G2 X38.6992 Y5.2222 I0.3686 J-0.7337
G2 X38.9459 Y5.1844 I0.0128 J-0.7413
G2 X39.2156 Y4.9349 I-0.1443 J-0.4265
G2 X39.267 Y4.7574 I-0.6503 J-0.2844
G2 X39.2808 Y4.5732 I-1.1385 J-0.1776
G1 Y3.6138
G1 X39.4609
G1 Y3.4336
G1 X39.064
G1 Y3.9199
G2 X38.9238 Y3.6096 I-1.365 J0.4297
G2 X38.8085 Y3.4768 I-0.4564 J0.2799
G2 X38.6436 Y3.416 I-0.1683 J0.2023
G2 X38.5067 Y3.4591 I-0.0024 J0.2312
G2 X38.4121 Y3.5669 I0.207 J0.2772
G2 X38.3416 Y3.7573 I0.5402 J0.3083
G2 X38.3228 Y3.9595 I0.9911 J0.1944
G2 X38.3591 Y4.2524 I1.1254 J0.009
G2 X38.4824 Y4.5205 I0.8287 J-0.2187
G2 X38.65 Y4.686 I0.4919 J-0.3304
G2 X38.8765 Y4.7505 I0.2234 J-0.3547
G2 X39.064 Y4.7036 I-0.022 J-0.4866
G3 X39.0255 Y4.8379 I-0.5493 J-0.0848
G3 X38.8877 Y4.9942 I-0.297 J-0.1228
G3 X38.6846 Y5.0405 I-0.1909 J-0.3689
G3 X38.3947 Y4.9562 I-0.0038 J-0.5275
G3 X38.1821 Y4.7417 I0.4241 J-0.6328
G3 X38.0244 Y4.3918 I0.9214 J-0.6258
G3 X37.9785 Y4.0107 I1.4572 J-0.3688
G3 X38.0184 Y3.6776 I1.3102 J-0.0122
G3 X38.1602 Y3.3735 I0.872 J0.2215
G3 X38.3611 Y3.1911 I0.5115 J0.3615
G3 X38.6245 Y3.126 I0.2566 J0.4726
G3 X38.8509 Y3.1625 I-0.0124 J0.7966
G3 X39.064 Y3.2476 I-0.4179 J1.3562
G1 Y3.0483
G2 X38.8356 Y2.9765 I-0.6614 J1.7034
G2 X38.5981 Y2.9458 I-0.2511 J1.0086
G2 X38.2602 Y3.021 I-0.0103 J0.7506
G2 X37.9946 Y3.2432 I0.3533 J0.6921
G2 X37.8129 Y3.6087 I0.8222 J0.6367
G2 X37.7617 Y4.0137 I1.4558 J0.3897
G2 X37.7684 Y4.1818 I1.6926 J0.0167
G0 Z3.0
G0 X38.5445 Y4.1119
G0 Z1.275
G1 F300.0 Z-0.125
G3 F250.0 X38.5396 Y3.9917 I1.2263 J-0.1104
G3 X38.5536 Y3.7914 I1.2089 J-0.0155
G3 X38.5847 Y3.6896 I0.364 J0.0553
G3 X38.6194 Y3.6458 I0.1146 J0.0552
G3 X38.6729 Y3.6299 I0.0478 J0.0627
G3 X38.7376 Y3.6572 I-0.0132 J0.1219
G3 X38.8096 Y3.7324 I-0.2469 J0.3086
G3 X38.8677 Y3.8188 I-0.7732 J0.5817
G3 X38.9795 Y4.0445 I-1.4887 J0.8783
G3 X39.064 Y4.2817 I-2.4726 J1.014
G1 Y4.5352
G3 X38.9826 Y4.5774 I-0.2381 J-0.359
G3 X38.8926 Y4.5952 I-0.0935 J-0.2367
G3 X38.7406 Y4.5505 I-0.0041 J-0.2669
G3 X38.6348 Y4.4326 I0.2045 J-0.29
G3 X38.5587 Y4.2183 I0.5841 J-0.3278
G3 X38.5445 Y4.1119 I1.212 J-0.2168
G0 Z3.0
G0 X39.7275
G0 Z1.275
G1 F300.0 Z-0.125
G1 F250.0 Y5.313
G1 X40.0161
G1 Y4.5908
G1 Y4.292
G2 X40.1141 Y4.4266 I0.7413 J-0.4368
G2 X40.3139 Y4.5758 I0.4513 J-0.3959
G2 X40.5581 Y4.626 I0.2378 J-0.5374
G2 X40.7569 Y4.5921 I0.0105 J-0.5383
G2 X40.9633 Y4.3802 I-0.1337 J-0.3366
G2 X41.0007 Y4.2365 I-0.5874 J-0.2298
G2 X41.0107 Y4.0884 I-1.0126 J-0.143
G1 Y3.0
G1 X40.7222
G1 Y4.0093
G3 X40.712 Y4.1454 I-0.8129 J0.0078
G3 X40.6636 Y4.2729 I-0.2972 J-0.0399
G3 X40.5766 Y4.3361 I-0.1423 J-0.1045
G3 X40.4702 Y4.3521 I-0.1003 J-0.3066
G3 X40.3308 Y4.3207 I0.0039 J-0.3433
G3 X40.1567 Y4.1992 I0.2722 J-0.5754
G3 X40.0161 Y4.04 I0.9126 J-0.9477
G1 Y3.0
G1 X39.7275
G1 Y4.1119
G0 Z3.0
G0 X41.4819 Y3.9086
G0 Z1.275
G1 F300.0 Z-0.125
G2 F250.0 X41.5234 Y4.1023 I1.0314 J-0.1195
G2 X41.686 Y4.3872 I0.7653 J-0.248
G2 X42.2251 Y4.626 I0.5222 J-0.451
G2 X42.4909 Y4.5843 I0.0138 J-0.781
G2 X42.71 Y4.4282 I-0.1584 J-0.4541
G2 X42.7906 Y4.288 I-0.4598 J-0.3579
G2 X42.8512 Y4.0541 I-0.9065 J-0.3593
G2 X42.8667 Y3.813 I-1.716 J-0.2316
G1 Y3.7207
G1 X41.7827
G3 X41.8249 Y3.5008 I0.7819 J0.0361
G3 X42.0405 Y3.248 I0.4215 J0.1411
G3 X42.1991 Y3.1947 I0.2602 J0.511
G3 X42.3657 Y3.1802 I0.1607 J0.8806
G3 X42.6266 Y3.2117 I-0.0085 J1.1641
G3 X42.877 Y3.2915 I-0.3938 J1.6688
G1 Y3.063
G2 X42.6055 Y2.9913 I-0.6797 J2.0247
G2 X42.3262 Y2.9634 I-0.288 J1.4683
G2 X41.99 Y3.0076 I-0.0155 J1.1803
G2 X41.6948 Y3.1743 I0.1955 J0.691
G2 X41.5222 Y3.4532 I0.4669 J0.4818
G2 X41.4751 Y3.7778 I0.992 J0.3097
G2 X41.4819 Y3.9086 I1.0383 J0.0113
G0 Z3.0
G0 X41.7915 Y3.9375
G0 Z1.275
G1 F300.0 Z-0.125
G1 F250.0 X42.5591
G1 Y3.9785
G3 X42.5443 Y4.1355 I-0.7637 J0.0074
G3 X42.5044 Y4.2491 I-0.4228 J-0.0847
G3 X42.3759 Y4.3741 I-0.2499 J-0.1285
G3 X42.2002 Y4.4092 I-0.1655 J-0.3708
G3 X42.0454 Y4.3789 I-0.0051 J-0.3846
G3 X41.9189 Y4.2847 I0.1432 J-0.3242
G3 X41.8284 Y4.1209 I0.3751 J-0.3142
G3 X41.7915 Y3.9375 I0.7657 J-0.2496
G0 Z3.0
G0 X30.1929
G0 Z1.275
G1 F300.0 Z-0.125
G1 F250.0 Y3.0
G1 X29.9043
G1 Y3.2988
G2 X29.6887 Y3.0609 I-0.7055 J0.4226
G2 X29.3828 Y2.9634 I-0.303 J0.422
G2 X29.1435 Y3.0148 I-0.0088 J0.542
G2 X28.9565 Y3.1729 I0.2283 J0.4596
G2 X28.8336 Y3.4454 I0.6089 J0.4388
G2 X28.8013 Y3.7427 I1.2347 J0.2845
G2 X28.8411 Y4.0772 I1.3146 J0.0132
G2 X28.9858 Y4.3813 I0.8348 J-0.2108
G2 X29.1971 Y4.5639 I0.4992 J-0.3643
G2 X29.4692 Y4.626 I0.2637 J-0.528
G2 X29.7122 Y4.5687 I0.0049 J-0.5232
G2 X29.9043 Y4.4092 I-0.2901 J-0.5446
G1 Y5.313
G1 X30.1929
G1 Y3.9375
G0 Z3.0
G0 X29.9043
G0 Z1.275
G1 F300.0 Z-0.125
G1 F250.0 Y4.1924
G3 X29.7285 Y4.3409 I-0.6423 J-0.5818
G3 X29.5088 Y4.4092 I-0.2298 J-0.352
G3 X29.2129 Y4.2407 I-0.0074 J-0.3312
G3 X29.1293 Y4.0126 I0.5739 J-0.3396
G3 X29.1089 Y3.7705 I1.2905 J-0.2309
G3 X29.1189 Y3.593 I1.4405 J-0.0074
G3 X29.1461 Y3.4589 I0.8278 J0.098
G3 X29.1857 Y3.3621 I0.4786 J0.139
G3 X29.2924 Y3.2475 I0.2593 J0.1344
G3 X29.4443 Y3.2095 I0.145 J0.2568
G3 X29.7112 Y3.3071 I-0.0089 J0.4382
G3 X29.9043 Y3.5156 I-0.5839 J0.7342
G1 Y3.9375
G0 Z3.0
G0 X27.9282
G0 Z1.275
G1 F300.0 Z-0.125
G1 F250.0 Y3.0
G1 X27.6396
G1 Y4.374
G1 X27.061
G1 Y4.5908
G1 X27.9282
G1 Y3.9375
G0 Z3.0
G0 Y4.9512
G0 Z1.275
G1 F300.0 Z-0.125
G1 F250.0 X27.603
G1 Y5.313
G1 X27.9648
G1 Y4.9512
G1 X27.9282
G0 Z3.0
G0 X26.6336 Y4.4559
G0 Z1.275
G1 F300.0 Z-0.125
G2 F250.0 X26.661 Y4.3445 I-0.4339 J-0.166
G2 X26.6729 Y4.1646 I-1.2146 J-0.1701
G1 Y3.0
G1 X26.4194
G1 Y4.1528
G3 X26.4165 Y4.2422 I-1.2047 J0.0053
G3 X26.4004 Y4.3301 I-0.329 J-0.0149
G3 X26.3286 Y4.377 I-0.0668 J-0.0239
G3 X26.2695 Y4.3614 I0.0022 J-0.128
G3 X26.1896 Y4.2943 I0.1422 J-0.2505
G3 X26.1015 Y4.1658 I0.6172 J-0.5177
G3 X26.0313 Y4.0269 I1.5375 J-0.8645
G1 Y3.0
G1 X25.7778
G1 Y4.1001
G3 X25.775 Y4.2098 I-1.8835 J0.0068
G3 X25.7588 Y4.3184 I-0.4678 J-0.0145
G3 X25.6826 Y4.374 I-0.0721 J-0.0187
G3 X25.5999 Y4.3373 I0.0132 J-0.1412
G3 X25.5361 Y4.2729 I0.3085 J-0.3695
G3 X25.3896 Y4.0239 I0.7628 J-0.6163
G1 Y3.0
G1 X25.1362
G1 Y4.5908
G1 X25.3896
G1 Y4.292
G2 X25.5295 Y4.4987 I1.0952 J-0.5901
G2 X25.6235 Y4.5847 I0.3777 J-0.3187
G2 X25.7441 Y4.626 I0.1276 J-0.176
G2 X25.9444 Y4.5102 I0.0025 J-0.2267
G2 X25.9928 Y4.4047 I-0.408 J-0.251
G2 X26.021 Y4.292 I-0.8082 J-0.2621
G1 X26.0313
G2 X26.1638 Y4.5083 I0.8244 J-0.3564
G2 X26.2632 Y4.592 I0.2976 J-0.2527
G2 X26.3887 Y4.626 I0.1262 J-0.2174
G2 X26.5123 Y4.6011 I0.0064 J-0.2876
G2 X26.6055 Y4.5161 I-0.0932 J-0.1958
G2 X26.6336 Y4.4559 I-0.4058 J-0.2262
G0 Z3.0
G0 X16.478 Y21.8967
G0 Z1.275
G1 F300.0 Z-0.125
G1 F250.0 X16.8167 Y22.193
G1 X17.0707 Y22.574
G1 X17.113 Y22.9973
G1 X17.0283 Y23.336
G1 X16.732 Y23.6747
G1 X16.351 Y23.9287
G1 X15.843 Y23.971
G1 X15.5467 Y23.844
G1 X15.2503 Y23.59
G1 X14.9963 Y23.209
G1 X14.954 Y22.7857
G1 X15.0387 Y22.447
G1 X15.335 Y22.1083
G1 X15.716 Y21.8543
G1 X16.1393 Y21.812
G1 X16.478 Y21.8967
G0 Z3.0
G0 X12.4563 Y22.5317
G0 Z1.275
G1 F300.0 Z-0.125
G1 F250.0 Y23.2513
G1 X12.2447 Y23.7593
G1 X11.779 Y24.1827
G1 X11.3133 Y24.3943
G1 X10.7207 Y24.4367
G1 X10.382 Y24.3097
G1 X10.0433 Y24.1403
G1 X9.6623 Y23.717
G1 X9.4507 Y23.2513
G1 Y22.5317
G1 X9.6623 Y22.0237
G1 X10.128 Y21.6003
G1 X10.5937 Y21.3887
G1 X11.3133
G1 X11.779 Y21.6003
G1 X12.2447 Y22.0237
G1 X12.4563 Y22.5317
G0 Z3.0
G0 Y33.5983
G0 Z1.275
G1 F300.0 Z-0.125
G1 F250.0 X13.0067
G1 Y36.7733
G1 X12.8373 Y36.9003
G1 X12.3293 Y36.35
G1 X12.4987 Y35.842
G1 X12.4563 Y35.2917
G1 X12.2447 Y34.7837
G1 X11.779 Y34.3603
G1 X11.3133 Y34.1487
G1 X10.5937
G1 X10.128 Y34.3603
G1 X9.6623 Y34.7837
G1 X9.4507 Y35.2917
G1 X9.4083 Y35.842
G1 X9.5777 Y36.35
G1 X9.0273 Y36.9003
G1 X8.9003 Y36.731
G1 Y33.5983
G1 X12.4563
G0 Z3.0
G0 Y32.667
G0 Z1.275
G1 F300.0 Z-0.125
G1 F250.0 X13.684
G1 X13.938 Y32.921
G1 Y37.112
G1 X13.5147 Y37.5353
G1 X16.478 Y40.541
G1 X16.5203 Y42.319
G1 X16.859 Y42.573
G1 X17.0707 Y42.954
G1 Y43.589
G1 X16.859 Y43.97
G1 X16.5203 Y44.224
G1 Y48.2033
G1 X18.764 Y50.4047
G1 X22.193
G1 X23.463 Y49.177
G1 X26.5533 Y49.1347
G1 X26.9767 Y48.7113
G1 X27.019 Y48.161
G1 X29.813 Y45.367
G1 X32.9033 Y45.3247
G1 X33.369 Y44.859
G1 X33.7077 Y44.7743
G1 X33.9193
G1 X34.258 Y44.859
G1 X34.766 Y45.367
G1 X34.8507 Y45.7057
G1 Y45.9173
G1 X34.766 Y46.256
G1 X34.258 Y46.764
G1 X33.9193 Y46.8487
G1 X33.7077
G1 X33.369 Y46.764
G1 X32.9033 Y46.2983
G1 X30.1517
G1 X27.9503 Y48.542
G1 Y48.7113
G1 X28.416 Y49.177
G1 X28.5007 Y49.5157
G1 Y49.7273
G1 X28.416 Y50.066
G1 X27.908 Y50.574
G1 X27.5693 Y50.6587
G1 X27.3577
G1 X27.019 Y50.574
G1 X26.5533 Y50.1083
G1 X23.844
G1 X22.574 Y51.336
G1 X18.4677 Y51.3783
G1 X18.2983 Y51.2937
G1 X15.589 Y48.542
G1 X15.5467 Y44.224
G1 X15.208 Y43.97
G1 X14.9963 Y43.589
G1 Y42.954
G1 X15.208 Y42.573
G1 X15.5467 Y42.319
G1 Y40.8797
G1 X11.652 Y37.0273
G1 X11.144 Y37.1967
G1 X10.763
G1 X10.255 Y37.0273
G1 X6.9107 Y40.3293
G1 Y41.049
G1 X6.699 Y41.43
G1 X6.3603 Y41.684
G1 Y44.859
G1 X6.699 Y45.113
G1 X6.9107 Y45.494
G1 X6.953 Y45.9173
G1 X6.8683 Y46.256
G1 X6.572 Y46.5947
G1 X6.191 Y46.8487
G1 X5.556
G1 X5.175 Y46.5947
G1 X4.8787 Y46.256
G1 X4.794 Y45.9173
G1 X4.8363 Y45.494
G1 X5.048 Y45.113
G1 X5.3867 Y44.859
G1 Y41.684
G1 X5.048 Y41.43
G1 X4.8363 Y41.049
G1 X4.794 Y40.6257
G1 X4.8787 Y40.287
G1 X5.175 Y39.9483
G1 X5.556 Y39.6943
G1 X6.2757 Y39.652
G1 X8.3923 Y37.5777
G1 X7.969 Y37.112
G1 Y32.921
G1 X8.223 Y32.667
G1 X12.4563
G0 Z3.0
G0 X15.1777 Y35.0482
G0 Z1.275
G1 F300.0 Z-0.125
G1 F250.0 X15.335 Y34.8683
G1 X15.716 Y34.6143
G1 X16.1393 Y34.572
G1 X16.478 Y34.6567
G1 X16.8167 Y34.953
G1 X17.0707 Y35.334
G1 X17.113 Y35.7573
G1 X17.0283 Y36.096
G1 X16.732 Y36.4347
G1 X16.351 Y36.6887
G1 X15.843 Y36.731
G1 X15.5467 Y36.604
G1 X15.2503 Y36.35
G1 X14.9963 Y35.969
G1 X14.954 Y35.5457
G1 X15.0387 Y35.207
G1 X15.1777 Y35.0482
G0 Z3.0
G0 X17.875 Y37.4083
G0 Z1.275
G1 F300.0 Z-0.125
G1 F250.0 X18.256 Y37.1543
G1 X18.9757 Y37.112
G1 X19.2297 Y36.9003
G1 X23.6323 Y36.8157
G1 X23.9287 Y36.477
G1 X24.352 Y36.223
G1 X24.987
G1 X25.3257 Y36.3923
G1 X25.5797 Y36.604
G1 X25.7913 Y37.0273
G1 Y37.6623
G1 X25.5797 Y38.0857
G1 X25.3257 Y38.2973
G1 X24.987 Y38.4667
G1 X24.352
G1 X23.9287 Y38.2127
G1 X23.6323 Y37.8317
G1 X19.6107
G1 X19.653 Y38.2973
G1 X19.5683 Y38.636
G1 X19.272 Y38.9747
G1 X18.891 Y39.2287
G1 X18.383 Y39.271
G1 X18.0867 Y39.144
G1 X17.7903 Y38.89
G1 X17.5363 Y38.509
G1 X17.494 Y38.0857
G1 X17.5787 Y37.747
G1 X17.875 Y37.4083
G0 Z3.0
G0 X21.431 Y39.017
G0 Z1.275
G1 F300.0 Z-0.125
G1 F250.0 X21.939 Y38.509
G1 X22.2777 Y38.4243
G1 X22.4893
G1 X22.828 Y38.509
G1 X23.336 Y39.017
G1 X23.4207 Y39.398
G1 X23.3783 Y39.779
G1 X23.8017 Y40.2447
G1 X25.241
G1 Y39.779
G1 X27.146
G1 Y41.684
G1 X25.241
G1 Y41.2183
G1 X23.463 Y41.176
G1 X22.7433 Y40.4987
G1 X22.066 Y40.4563
G1 X19.0603 Y43.4197
G1 Y47.399
G1 X19.399 Y47.653
G1 X19.6107 Y48.034
G1 X19.653 Y48.4573
G1 X19.5683 Y48.796
G1 X19.272 Y49.1347
G1 X18.891 Y49.3887
G1 X18.383 Y49.431
G1 X18.0867 Y49.304
G1 X17.7903 Y49.05
G1 X17.5363 Y48.669
G1 Y48.034
G1 X17.748 Y47.653
G1 X18.0867 Y47.399
G1 X18.129 Y43.081
G1 X21.3887 Y39.779
G1 X21.3463 Y39.398
G1 X21.431 Y39.017
G0 Z3.0
G0 X25.241 Y42.827
G0 Z1.275
G1 F300.0 Z-0.125
G1 F250.0 X25.749 Y42.319
G1 X26.0877 Y42.2343
G1 X26.2993
G1 X26.638 Y42.319
G1 X27.1037 Y42.7847
G1 X27.3153
G1 X28.2467 Y41.811
G1 X28.289 Y40.541
G1 X31.9297 Y36.9003
G1 X33.7077 Y36.858
G1 Y36.1807
G1 X35.9937
G1 Y38.509
G1 X33.7077
G1 Y37.8317
G1 X32.2683
G1 X29.2203 Y40.922
G1 X29.178 Y42.192
G1 X27.654 Y43.716
G1 X27.1037 Y43.7583
G1 X26.638 Y44.224
G1 X26.257 Y44.3087
G1 X25.876 Y44.2663
G1 X23.463 Y46.637
G1 Y48.161
G1 X21.304
G1 Y46.002
G1 X22.828
G1 X25.1987 Y43.589
G1 X25.1563 Y43.208
G1 X25.241 Y42.827
G0 Z3.0
G0 X25.749 Y44.859
G0 Z1.275
G1 F300.0 Z-0.125
G1 F250.0 X26.0877 Y44.7743
G1 X26.2993
G1 X26.638 Y44.859
G1 X27.146 Y45.367
G1 X27.2307 Y45.7057
G1 Y45.9173
G1 X27.146 Y46.256
G1 X26.638 Y46.764
G1 X26.2993 Y46.8487
G1 X26.003
G1 X25.749 Y46.764
G1 X25.241 Y46.256
G1 X25.1563 Y45.9173
G1 Y45.7057
G1 X25.241 Y45.367
G1 X25.749 Y44.859
G0 Z3.0
G0 X29.559 Y48.669
G0 Z1.275
G1 F300.0 Z-0.125
G1 F250.0 X29.8977 Y48.5843
G1 X30.1093
G1 X30.448 Y48.669
G1 X30.956 Y49.177
G1 X31.0407 Y49.5157
G1 Y49.7273
G1 X30.956 Y50.066
G1 X30.4903 Y50.5317
G1 Y51.6747
G1 X40.0153
G1 X40.9467 Y50.701
G1 Y42.1497
G1 X39.3803 Y40.6257
G1 X38.4067
G1 X35.274 Y43.716
G1 X34.7237 Y43.7583
G1 X34.258 Y44.224
G1 X33.9193 Y44.3087
G1 X33.7077
G1 X33.369 Y44.224
G1 X32.861 Y43.716
G1 X32.7763 Y43.3773
G1 Y43.1657
G1 X32.861 Y42.827
G1 X33.369 Y42.319
G1 X33.7077 Y42.2343
G1 X33.9193
G1 X34.258 Y42.319
G1 X34.7237 Y42.7847
G1 X34.9353
G1 X37.7293 Y39.9483
G1 Y38.2973
G1 X40.0577
G1 Y39.9483
G1 X41.878 Y41.811
G1 Y51.082
G1 X40.354 Y52.606
G1 X29.8977 Y52.6483
G1 X29.7283 Y52.5637
G1 X29.559 Y52.352
G1 X29.5167 Y50.5317
G1 X29.051 Y50.066
G1 X28.9663 Y49.7273
G1 Y49.5157
G1 X29.051 Y49.177
G1 X29.559 Y48.669
G0 Z3.0
G0 X31.464
G0 Z1.275
G1 F300.0 Z-0.125
G1 F250.0 Y48.542
G1 X33.623
G1 Y49.1347
G1 X37.8563
G1 X38.1527 Y48.7537
G1 X38.576 Y48.4997
G1 X39.211
G1 X39.5497 Y48.669
G1 X39.8037 Y48.8807
G1 X40.0153 Y49.304
G1 Y49.939
G1 X39.8037 Y50.3623
G1 X39.5497 Y50.574
G1 X39.211 Y50.7433
G1 X38.703 Y50.7857
G1 X38.4067 Y50.6587
G1 X38.068 Y50.447
G1 X37.8563 Y50.1083
G1 X33.623
G1 Y50.701
G1 X31.464
G1 Y48.669
G0 Z3.0
G0 X33.623 Y41.7687
G0 Z1.275
G1 F300.0 Z-0.125
G1 F250.0 X33.369 Y41.684
G1 X32.861 Y41.176
G1 X32.7763 Y40.8373
G1 Y40.6257
G1 X32.861 Y40.287
G1 X33.369 Y39.779
G1 X33.7077 Y39.6943
G1 X33.9193
G1 X34.258 Y39.779
G1 X34.766 Y40.287
G1 X34.8507 Y40.6257
G1 Y40.8373
G1 X34.766 Y41.176
G1 X34.258 Y41.684
G1 X33.9193 Y41.7687
G1 X33.623
G0 Z3.0
G0 X31.5801 Y33.313
G0 Z1.275
G1 F300.0 Z-0.125
G1 F250.0 Y32.9512
G1 X31.2183
G1 Y33.313
G1 X31.5801
G0 Z3.0
G0 X31.5435 Y32.5908
G0 Z1.275
G1 F300.0 Z-0.125
G1 F250.0 Y31.0
G1 X31.2549
G1 Y32.374
G1 X30.6763
G1 Y32.5908
G1 X31.5435
G0 Z3.0
G0 X32.4572 Y32.2022
G0 Z1.275
G1 F300.0 Z-0.125
G2 F250.0 X32.585 Y32.4033 I0.6717 J-0.2857
G2 X32.8351 Y32.5752 I0.4773 J-0.4266
G2 X33.1343 Y32.626 I0.287 J-0.7843
G2 X33.4336 Y32.5755 I0.0125 J-0.838
G2 X33.6836 Y32.4033 I-0.224 J-0.593
G2 X33.8412 Y32.1183 I-0.5439 J-0.4868
G2 X33.8843 Y31.7954 I-1.0838 J-0.309
G2 X33.8412 Y31.4712 I-1.1364 J-0.0139
G2 X33.6836 Y31.1846 I-0.7079 J0.2026
G2 X33.4333 Y31.0135 I-0.4726 J0.4227
G2 X33.1343 Y30.9634 I-0.2866 J0.7932
G2 X32.8346 Y31.0136 I-0.0124 J0.8457
G2 X32.5835 Y31.1846 I0.2242 J0.5992
G2 X32.427 Y31.4714 I0.5535 J0.4881
G2 X32.3843 Y31.7954 I1.1019 J0.3101
G2 X32.4274 Y32.1183 I1.1268 J0.0139
G2 X32.4572 Y32.2022 I0.7015 J-0.2017
G0 Z3.0
G0 X32.7364 Y32.1044
G0 Z1.275
G1 F300.0 Z-0.125
G3 F250.0 X32.7157 Y32.03 I0.5593 J-0.196
G3 X32.6919 Y31.7954 I1.0396 J-0.2241
G3 X32.7156 Y31.5601 I1.0725 J-0.0106
G3 X32.8091 Y31.3428 I0.5805 J0.1209
G3 X33.1343 Y31.1802 I0.3111 J0.2157
G3 X33.3177 Y31.2199 I0.0071 J0.4106
G3 X33.4595 Y31.3428 I-0.1726 J0.3423
G3 X33.5529 Y31.5601 I-0.4871 J0.3382
G3 X33.5767 Y31.7954 I-1.0484 J0.2247
G3 X33.5528 Y32.03 I-1.0635 J0.0105
G3 X33.4595 Y32.2466 I-0.58 J-0.1217
G3 X33.1343 Y32.4092 I-0.3111 J-0.2157
G3 X32.9509 Y32.3695 I-0.0071 J-0.4106
G3 X32.8091 Y32.2466 I0.1726 J-0.3423
G3 X32.7364 Y32.1044 I0.4867 J-0.3382
G0 Z3.0
G0 X34.2959
G0 Z1.275
G1 F300.0 Z-0.125
G1 F250.0 Y32.5908
G1 X34.5845
G1 Y31.5815
G3 X34.5944 Y31.4442 I0.8491 J-0.0078
G3 X34.6416 Y31.3149 I0.3104 J0.0401
G3 X34.7297 Y31.2527 I0.1411 J0.1062
G3 X34.8364 Y31.2373 I0.1006 J0.3193
G3 X34.9761 Y31.2689 I-0.0039 J0.342
G3 X35.1501 Y31.391 I-0.2739 J0.5753
G3 X35.2905 Y31.5508 I-0.9181 J0.9485
G1 Y32.5908
G1 X35.5791
G1 Y31.0
G1 X35.2905
G1 Y31.2988
G2 X35.1925 Y31.1636 I-0.7426 J0.4356
G2 X34.9921 Y31.0138 I-0.4521 J0.3955
G2 X34.7471 Y30.9634 I-0.2385 J0.5388
G2 X34.5482 Y30.9977 I-0.0105 J0.533
G2 X34.3429 Y31.2105 I0.1355 J0.3361
G2 X34.3058 Y31.3543 I0.5938 J0.2299
G2 X34.2959 Y31.5024 I1.0225 J0.143
G1 Y32.1044
G0 Z3.0
G0 X36.0361 Y32.3374
G0 Z1.275
G1 F300.0 Z-0.125
G1 F250.0 Y32.5542
G1 X36.4331
G1 Y32.897
G1 X36.7217
G1 Y32.5542
G1 X37.4277
G1 Y32.3374
G1 X36.7217
G1 Y31.5229
G3 X36.7242 Y31.4287 I1.568 J-0.0055
G3 X36.7378 Y31.3354 I0.4409 J0.0167
G3 X36.811 Y31.2461 I0.17 J0.0646
G3 X36.9514 Y31.1929 I0.2047 J0.3282
G3 X37.1011 Y31.1802 I0.1423 J0.7899
G3 X37.46 Y31.2212 I-0.001 J1.5997
G1 Y31.0015
G2 X37.041 Y30.9634 I-0.428 J2.3848
G2 X36.7898 Y30.9845 I-0.0154 J1.3228
G2 X36.6677 Y31.0206 I0.1167 J0.6194
G2 X36.5605 Y31.0894 I0.1259 J0.3139
G2 X36.4911 Y31.1962 I0.2431 J0.234
G2 X36.4443 Y31.3803 I0.6602 J0.2657
G2 X36.4331 Y31.5698 I1.452 J0.181
G1 Y32.3374
G1 X36.0361
G0 Z3.0
G0 X37.7684 Y32.1818
G0 Z1.275
G1 F300.0 Z-0.125
G2 F250.0 X37.8197 Y32.4701 I1.6859 J-0.1514
G2 X38.0239 Y32.8823 I1.1484 J-0.3121
G2 X38.32 Y33.1349 I0.7115 J-0.5342
G2 X38.6992 Y33.2222 I0.3686 J-0.7337
G2 X38.9459 Y33.1844 I0.0128 J-0.7413
G2 X39.2156 Y32.9349 I-0.1443 J-0.4265
G2 X39.267 Y32.7574 I-0.6503 J-0.2844
G2 X39.2808 Y32.5732 I-1.1385 J-0.1776
G1 Y31.6138
G1 X39.4609
G1 Y31.4336
G1 X39.064
G1 Y31.9199
G2 X38.9238 Y31.6096 I-1.365 J0.4297
G2 X38.8085 Y31.4768 I-0.4564 J0.2799
G2 X38.6436 Y31.416 I-0.1683 J0.2023
G2 X38.5067 Y31.4591 I-0.0024 J0.2312
G2 X38.4121 Y31.5669 I0.207 J0.2772
G2 X38.3416 Y31.7573 I0.5402 J0.3083
G2 X38.3228 Y31.9595 I0.9911 J0.1944
G2 X38.3591 Y32.2524 I1.1254 J0.009
G2 X38.4824 Y32.5205 I0.8287 J-0.2187
G2 X38.65 Y32.686 I0.4919 J-0.3304
G2 X38.8765 Y32.7505 I0.2234 J-0.3547
G2 X39.064 Y32.7036 I-0.022 J-0.4866
G3 X39.0255 Y32.8379 I-0.5493 J-0.0848
G3 X38.8877 Y32.9942 I-0.297 J-0.1228
G3 X38.6846 Y33.0405 I-0.1909 J-0.3689
G3 X38.3947 Y32.9562 I-0.0038 J-0.5275
G3 X38.1821 Y32.7417 I0.4241 J-0.6328
G3 X38.0244 Y32.3918 I0.9214 J-0.6258
G3 X37.9785 Y32.0107 I1.4572 J-0.3688
G3 X38.0184 Y31.6776 I1.3102 J-0.0122
G3 X38.1602 Y31.3735 I0.872 J0.2215
G3 X38.3611 Y31.1911 I0.5115 J0.3615
G3 X38.6245 Y31.126 I0.2566 J0.4726
G3 X38.8509 Y31.1625 I-0.0124 J0.7966
G3 X39.064 Y31.2476 I-0.4179 J1.3562
G1 Y31.0483
G2 X38.8356 Y30.9765 I-0.6614 J1.7034
G2 X38.5981 Y30.9458 I-0.2511 J1.0086
G2 X38.2602 Y31.021 I-0.0103 J0.7506
G2 X37.9946 Y31.2432 I0.3533 J0.6921
G2 X37.8129 Y31.6087 I0.8222 J0.6367
G2 X37.7617 Y32.0137 I1.4558 J0.3897
G2 X37.7684 Y32.1818 I1.6926 J0.0167
G0 Z3.0
G0 X38.5445 Y32.1119
G0 Z1.275
G1 F300.0 Z-0.125
G3 F250.0 X38.5396 Y31.9917 I1.2263 J-0.1104
G3 X38.5536 Y31.7914 I1.2089 J-0.0155
G3 X38.5847 Y31.6896 I0.364 J0.0553
G3 X38.6194 Y31.6458 I0.1146 J0.0552
G3 X38.6729 Y31.6299 I0.0478 J0.0627
G3 X38.7376 Y31.6572 I-0.0132 J0.1219
G3 X38.8096 Y31.7324 I-0.2469 J0.3086
G3 X38.8677 Y31.8188 I-0.7732 J0.5817
G3 X38.9795 Y32.0445 I-1.4887 J0.8783
G3 X39.064 Y32.2817 I-2.4726 J1.014
G1 Y32.5352
G3 X38.9826 Y32.5774 I-0.2381 J-0.359
G3 X38.8926 Y32.5952 I-0.0935 J-0.2367
G3 X38.7406 Y32.5505 I-0.0041 J-0.2669
G3 X38.6348 Y32.4326 I0.2045 J-0.29
G3 X38.5587 Y32.2183 I0.5841 J-0.3278
G3 X38.5445 Y32.1119 I1.212 J-0.2168
G0 Z3.0
G0 X39.7275
G0 Z1.275
G1 F300.0 Z-0.125
G1 F250.0 Y33.313
G1 X40.0161
G1 Y32.5908
G1 Y32.292
G2 X40.1141 Y32.4266 I0.7413 J-0.4368
G2 X40.3139 Y32.5758 I0.4513 J-0.3959
G2 X40.5581 Y32.626 I0.2378 J-0.5374
G2 X40.7569 Y32.5921 I0.0105 J-0.5383
G2 X40.9633 Y32.3802 I-0.1337 J-0.3366
G2 X41.0007 Y32.2365 I-0.5874 J-0.2298
G2 X41.0107 Y32.0884 I-1.0126 J-0.143
G1 Y31.0
G1 X40.7222
G1 Y32.0093
G3 X40.712 Y32.1454 I-0.8129 J0.0078
G3 X40.6636 Y32.2729 I-0.2972 J-0.0399
G3 X40.5766 Y32.3361 I-0.1423 J-0.1045
G3 X40.4702 Y32.3521 I-0.1003 J-0.3066
G3 X40.3308 Y32.3207 I0.0039 J-0.3433
G3 X40.1567 Y32.1992 I0.2722 J-0.5754
G3 X40.0161 Y32.04 I0.9126 J-0.9477
G1 Y31.0
G1 X39.7275
G1 Y32.1119
G0 Z3.0
G0 X41.4819 Y31.9086
G0 Z1.275
G1 F300.0 Z-0.125
G2 F250.0 X41.5234 Y32.1023 I1.0314 J-0.1195
G2 X41.686 Y32.3872 I0.7653 J-0.248
G2 X42.2251 Y32.626 I0.5222 J-0.451
G2 X42.4909 Y32.5843 I0.0138 J-0.781
G2 X42.71 Y32.4282 I-0.1584 J-0.4541
G2 X42.7906 Y32.288 I-0.4598 J-0.3579
G2 X42.8512 Y32.0541 I-0.9065 J-0.3593
G2 X42.8667 Y31.813 I-1.716 J-0.2316
G1 Y31.7207
G1 X41.7827
G3 X41.8249 Y31.5008 I0.7819 J0.0361
G3 X42.0405 Y31.248 I0.4215 J0.1411
G3 X42.1991 Y31.1947 I0.2602 J0.511
G3 X42.3657 Y31.1802 I0.1607 J0.8806
G3 X42.6266 Y31.2117 I-0.0085 J1.1641
G3 X42.877 Y31.2915 I-0.3938 J1.6688
G1 Y31.063
G2 X42.6055 Y30.9913 I-0.6797 J2.0247
G2 X42.3262 Y30.9634 I-0.288 J1.4683
G2 X41.99 Y31.0076 I-0.0155 J1.1803
G2 X41.6948 Y31.1743 I0.1955 J0.691
G2 X41.5222 Y31.4532 I0.4669 J0.4818
G2 X41.4751 Y31.7778 I0.992 J0.3097
G2 X41.4819 Y31.9086 I1.0383 J0.0113
G0 Z3.0
G0 X41.7915 Y31.9375
G0 Z1.275
G1 F300.0 Z-0.125
G1 F250.0 X42.5591
G1 Y31.9785
G3 X42.5443 Y32.1355 I-0.7637 J0.0074
G3 X42.5044 Y32.2491 I-0.4228 J-0.0847
G3 X42.3759 Y32.3741 I-0.2499 J-0.1285
G3 X42.2002 Y32.4092 I-0.1655 J-0.3708
G3 X42.0454 Y32.3789 I-0.0051 J-0.3846
G3 X41.9189 Y32.2847 I0.1432 J-0.3242
G3 X41.8284 Y32.1209 I0.3751 J-0.3142
G3 X41.7915 Y31.9375 I0.7657 J-0.2496
G0 Z3.0
G0 X30.1929
G0 Z1.275
G1 F300.0 Z-0.125
G1 F250.0 Y31.0
G1 X29.9043
G1 Y31.2988
G2 X29.6887 Y31.0609 I-0.7055 J0.4226
G2 X29.3828 Y30.9634 I-0.303 J0.422
G2 X29.1435 Y31.0148 I-0.0088 J0.542
G2 X28.9565 Y31.1729 I0.2283 J0.4596
G2 X28.8336 Y31.4454 I0.6089 J0.4388
G2 X28.8013 Y31.7427 I1.2347 J0.2845
G2 X28.8411 Y32.0772 I1.3146 J0.0132
G2 X28.9858 Y32.3813 I0.8348 J-0.2108
G2 X29.1971 Y32.5639 I0.4992 J-0.3643
G2 X29.4692 Y32.626 I0.2637 J-0.528
G2 X29.7122 Y32.5687 I0.0049 J-0.5232
G2 X29.9043 Y32.4092 I-0.2901 J-0.5446
G1 Y33.313
G1 X30.1929
G1 Y31.9375
G0 Z3.0
G0 X29.9043
G0 Z1.275
G1 F300.0 Z-0.125
G1 F250.0 Y32.1924
G3 X29.7285 Y32.3409 I-0.6423 J-0.5818
G3 X29.5088 Y32.4092 I-0.2298 J-0.352
G3 X29.2129 Y32.2407 I-0.0074 J-0.3312
G3 X29.1293 Y32.0126 I0.5739 J-0.3396
G3 X29.1089 Y31.7705 I1.2905 J-0.2309
G3 X29.1189 Y31.593 I1.4405 J-0.0074
G3 X29.1461 Y31.4589 I0.8278 J0.098
G3 X29.1857 Y31.3621 I0.4786 J0.139
G3 X29.2924 Y31.2475 I0.2593 J0.1344
G3 X29.4443 Y31.2095 I0.145 J0.2568
G3 X29.7112 Y31.3071 I-0.0089 J0.4382
G3 X29.9043 Y31.5156 I-0.5839 J0.7342
G1 Y31.9375
G0 Z3.0
G0 X27.9282
G0 Z1.275
G1 F300.0 Z-0.125
G1 F250.0 Y31.0
G1 X27.6396
G1 Y32.374
G1 X27.061
G1 Y32.5908
G1 X27.9282
G1 Y31.9375
G0 Z3.0
G0 Y32.9512
G0 Z1.275
G1 F300.0 Z-0.125
G1 F250.0 X27.603
G1 Y33.313
G1 X27.9648
G1 Y32.9512
G1 X27.9282
G0 Z3.0
G0 X26.6336 Y32.4559
G0 Z1.275
G1 F300.0 Z-0.125
G2 F250.0 X26.661 Y32.3445 I-0.4339 J-0.166
G2 X26.6729 Y32.1646 I-1.2146 J-0.1701
G1 Y31.0
G1 X26.4194
G1 Y32.1528
G3 X26.4165 Y32.2422 I-1.2047 J0.0053
G3 X26.4004 Y32.3301 I-0.329 J-0.0149
G3 X26.3286 Y32.377 I-0.0668 J-0.0239
G3 X26.2695 Y32.3614 I0.0022 J-0.128
G3 X26.1896 Y32.2943 I0.1422 J-0.2505
G3 X26.1015 Y32.1658 I0.6172 J-0.5177
G3 X26.0313 Y32.0269 I1.5375 J-0.8645
G1 Y31.0
G1 X25.7778
G1 Y32.1001
G3 X25.775 Y32.2098 I-1.8835 J0.0068
G3 X25.7588 Y32.3184 I-0.4678 J-0.0145
G3 X25.6826 Y32.374 I-0.0721 J-0.0187
G3 X25.5999 Y32.3373 I0.0132 J-0.1412
G3 X25.5361 Y32.2729 I0.3085 J-0.3695
G3 X25.3896 Y32.0239 I0.7628 J-0.6163
G1 Y31.0
G1 X25.1362
G1 Y32.5908
G1 X25.3896
G1 Y32.292
G2 X25.5295 Y32.4987 I1.0952 J-0.5901
G2 X25.6235 Y32.5847 I0.3777 J-0.3187
G2 X25.7441 Y32.626 I0.1276 J-0.176
G2 X25.9444 Y32.5102 I0.0025 J-0.2267
G2 X25.9928 Y32.4047 I-0.408 J-0.251
G2 X26.021 Y32.292 I-0.8082 J-0.2621
G1 X26.0313
G2 X26.1638 Y32.5083 I0.8244 J-0.3564
G2 X26.2632 Y32.592 I0.2976 J-0.2527
G2 X26.3887 Y32.626 I0.1262 J-0.2174
G2 X26.5123 Y32.6011 I0.0064 J-0.2876
G2 X26.6055 Y32.5161 I-0.0932 J-0.1958
G2 X26.6336 Y32.4559 I-0.4058 J-0.2262
G0 Z3.0
G0 X16.478 Y49.8967
G0 Z1.275
G1 F300.0 Z-0.125
G1 F250.0 X16.8167 Y50.193
G1 X17.0707 Y50.574
G1 X17.113 Y50.9973
G1 X17.0283 Y51.336
G1 X16.732 Y51.6747
G1 X16.351 Y51.9287
G1 X15.843 Y51.971
G1 X15.5467 Y51.844
G1 X15.2503 Y51.59
G1 X14.9963 Y51.209
G1 X14.954 Y50.7857
G1 X15.0387 Y50.447
G1 X15.335 Y50.1083
G1 X15.716 Y49.8543
G1 X16.1393 Y49.812
G1 X16.478 Y49.8967
G0 Z3.0
G0 X12.4563 Y50.5317
G0 Z1.275
G1 F300.0 Z-0.125
G1 F250.0 Y51.2513
G1 X12.2447 Y51.7593
G1 X11.779 Y52.1827
G1 X11.3133 Y52.3943
G1 X10.7207 Y52.4367
G1 X10.382 Y52.3097
G1 X10.0433 Y52.1403
G1 X9.6623 Y51.717
G1 X9.4507 Y51.2513
G1 Y50.5317
G1 X9.6623 Y50.0237
G1 X10.128 Y49.6003
G1 X10.5937 Y49.3887
G1 X11.3133
G1 X11.779 Y49.6003
G1 X12.2447 Y50.0237
G1 X12.4563 Y50.5317
G0 Z3.0
G0 Y61.5983
G0 Z1.275
G1 F300.0 Z-0.125
G1 F250.0 X13.0067
G1 Y64.7733
G1 X12.8373 Y64.9003
G1 X12.3293 Y64.35
G1 X12.4987 Y63.842
G1 X12.4563 Y63.2917
G1 X12.2447 Y62.7837
G1 X11.779 Y62.3603
G1 X11.3133 Y62.1487
G1 X10.5937
G1 X10.128 Y62.3603
G1 X9.6623 Y62.7837
G1 X9.4507 Y63.2917
G1 X9.4083 Y63.842
G1 X9.5777 Y64.35
G1 X9.0273 Y64.9003
G1 X8.9003 Y64.731
G1 Y61.5983
G1 X12.4563
G0 Z3.0
G0 Y60.667
G0 Z1.275
G1 F300.0 Z-0.125
G1 F250.0 X13.684
G1 X13.938 Y60.921
G1 Y65.112
G1 X13.5147 Y65.5353
G1 X16.478 Y68.541
G1 X16.5203 Y70.319
G1 X16.859 Y70.573
G1 X17.0707 Y70.954
G1 Y71.589
G1 X16.859 Y71.97
G1 X16.5203 Y72.224
G1 Y76.2033
G1 X18.764 Y78.4047
G1 X22.193
G1 X23.463 Y77.177
G1 X26.5533 Y77.1347
G1 X26.9767 Y76.7113
G1 X27.019 Y76.161
G1 X29.813 Y73.367
G1 X32.9033 Y73.3247
G1 X33.369 Y72.859
G1 X33.7077 Y72.7743
G1 X33.9193
G1 X34.258 Y72.859
G1 X34.766 Y73.367
G1 X34.8507 Y73.7057
G1 Y73.9173
G1 X34.766 Y74.256
G1 X34.258 Y74.764
G1 X33.9193 Y74.8487
G1 X33.7077
G1 X33.369 Y74.764
G1 X32.9033 Y74.2983
G1 X30.1517
G1 X27.9503 Y76.542
G1 Y76.7113
G1 X28.416 Y77.177
G1 X28.5007 Y77.5157
G1 Y77.7273
G1 X28.416 Y78.066
G1 X27.908 Y78.574
G1 X27.5693 Y78.6587
G1 X27.3577
G1 X27.019 Y78.574
G1 X26.5533 Y78.1083
G1 X23.844
G1 X22.574 Y79.336
G1 X18.4677 Y79.3783
G1 X18.2983 Y79.2937
G1 X15.589 Y76.542
G1 X15.5467 Y72.224
G1 X15.208 Y71.97
G1 X14.9963 Y71.589
G1 Y70.954
G1 X15.208 Y70.573
G1 X15.5467 Y70.319
G1 Y68.8797
G1 X11.652 Y65.0273
G1 X11.144 Y65.1967
G1 X10.763
G1 X10.255 Y65.0273
G1 X6.9107 Y68.3293
G1 Y69.049
G1 X6.699 Y69.43
G1 X6.3603 Y69.684
G1 Y72.859
G1 X6.699 Y73.113
G1 X6.9107 Y73.494
G1 X6.953 Y73.9173
G1 X6.8683 Y74.256
G1 X6.572 Y74.5947
G1 X6.191 Y74.8487
G1 X5.556
G1 X5.175 Y74.5947
G1 X4.8787 Y74.256
G1 X4.794 Y73.9173
G1 X4.8363 Y73.494
G1 X5.048 Y73.113
G1 X5.3867 Y72.859
G1 Y69.684
G1 X5.048 Y69.43
G1 X4.8363 Y69.049
G1 X4.794 Y68.6257
G1 X4.8787 Y68.287
G1 X5.175 Y67.9483
G1 X5.556 Y67.6943
G1 X6.2757 Y67.652
G1 X8.3923 Y65.5777
G1 X7.969 Y65.112
G1 Y60.921
G1 X8.223 Y60.667
G1 X12.4563
G0 Z3.0
G0 X15.1777 Y63.0482
G0 Z1.275
G1 F300.0 Z-0.125
G1 F250.0 X15.335 Y62.8683
G1 X15.716 Y62.6143
G1 X16.1393 Y62.572
G1 X16.478 Y62.6567
G1 X16.8167 Y62.953
G1 X17.0707 Y63.334
G1 X17.113 Y63.7573
G1 X17.0283 Y64.096
G1 X16.732 Y64.4347
G1 X16.351 Y64.6887
G1 X15.843 Y64.731
G1 X15.5467 Y64.604
G1 X15.2503 Y64.35
G1 X14.9963 Y63.969
G1 X14.954 Y63.5457
G1 X15.0387 Y63.207
G1 X15.1777 Y63.0482
G0 Z3.0
G0 X17.875 Y65.4083
G0 Z1.275
G1 F300.0 Z-0.125
G1 F250.0 X18.256 Y65.1543
G1 X18.9757 Y65.112
G1 X19.2297 Y64.9003
G1 X23.6323 Y64.8157
G1 X23.9287 Y64.477
G1 X24.352 Y64.223
G1 X24.987
G1 X25.3257 Y64.3923
G1 X25.5797 Y64.604
G1 X25.7913 Y65.0273
G1 Y65.6623
G1 X25.5797 Y66.0857
G1 X25.3257 Y66.2973
G1 X24.987 Y66.4667
G1 X24.352
G1 X23.9287 Y66.2127
G1 X23.6323 Y65.8317
G1 X19.6107
G1 X19.653 Y66.2973
G1 X19.5683 Y66.636
G1 X19.272 Y66.9747
G1 X18.891 Y67.2287
G1 X18.383 Y67.271
G1 X18.0867 Y67.144
G1 X17.7903 Y66.89
G1 X17.5363 Y66.509
G1 X17.494 Y66.0857
G1 X17.5787 Y65.747
G1 X17.875 Y65.4083
G0 Z3.0
G0 X21.431 Y67.017
G0 Z1.275
G1 F300.0 Z-0.125
G1 F250.0 X21.939 Y66.509
G1 X22.2777 Y66.4243
G1 X22.4893
G1 X22.828 Y66.509
G1 X23.336 Y67.017
G1 X23.4207 Y67.398
G1 X23.3783 Y67.779
G1 X23.8017 Y68.2447
G1 X25.241
G1 Y67.779
G1 X27.146
G1 Y69.684
G1 X25.241
G1 Y69.2183
G1 X23.463 Y69.176
G1 X22.7433 Y68.4987
G1 X22.066 Y68.4563
G1 X19.0603 Y71.4197
G1 Y75.399
G1 X19.399 Y75.653
G1 X19.6107 Y76.034
G1 X19.653 Y76.4573
G1 X19.5683 Y76.796
G1 X19.272 Y77.1347
G1 X18.891 Y77.3887
G1 X18.383 Y77.431
G1 X18.0867 Y77.304
G1 X17.7903 Y77.05
G1 X17.5363 Y76.669
G1 Y76.034
G1 X17.748 Y75.653
G1 X18.0867 Y75.399
G1 X18.129 Y71.081
G1 X21.3887 Y67.779
G1 X21.3463 Y67.398
G1 X21.431 Y67.017
G0 Z3.0
G0 X25.241 Y70.827
G0 Z1.275
G1 F300.0 Z-0.125
G1 F250.0 X25.749 Y70.319
G1 X26.0877 Y70.2343
G1 X26.2993
G1 X26.638 Y70.319
G1 X27.1037 Y70.7847
G1 X27.3153
G1 X28.2467 Y69.811
G1 X28.289 Y68.541
G1 X31.9297 Y64.9003
G1 X33.7077 Y64.858
G1 Y64.1807
G1 X35.9937
G1 Y66.509
G1 X33.7077
G1 Y65.8317
G1 X32.2683
G1 X29.2203 Y68.922
G1 X29.178 Y70.192
G1 X27.654 Y71.716
G1 X27.1037 Y71.7583
G1 X26.638 Y72.224
G1 X26.257 Y72.3087
G1 X25.876 Y72.2663
G1 X23.463 Y74.637
G1 Y76.161
G1 X21.304
G1 Y74.002
G1 X22.828
G1 X25.1987 Y71.589
G1 X25.1563 Y71.208
G1 X25.241 Y70.827
G0 Z3.0
G0 X25.749 Y72.859
G0 Z1.275
G1 F300.0 Z-0.125
G1 F250.0 X26.0877 Y72.7743
G1 X26.2993
G1 X26.638 Y72.859
G1 X27.146 Y73.367
G1 X27.2307 Y73.7057
G1 Y73.9173
G1 X27.146 Y74.256
G1 X26.638 Y74.764
G1 X26.2993 Y74.8487
G1 X26.003
G1 X25.749 Y74.764
G1 X25.241 Y74.256
G1 X25.1563 Y73.9173
G1 Y73.7057
G1 X25.241 Y73.367
G1 X25.749 Y72.859
G0 Z3.0
G0 X29.559 Y76.669
G0 Z1.275
G1 F300.0 Z-0.125
G1 F250.0 X29.8977 Y76.5843
G1 X30.1093
G1 X30.448 Y76.669
G1 X30.956 Y77.177
G1 X31.0407 Y77.5157
G1 Y77.7273
G1 X30.956 Y78.066
G1 X30.4903 Y78.5317
G1 Y79.6747
G1 X40.0153
G1 X40.9467 Y78.701
G1 Y70.1497
G1 X39.3803 Y68.6257
G1 X38.4067
G1 X35.274 Y71.716
G1 X34.7237 Y71.7583
G1 X34.258 Y72.224
G1 X33.9193 Y72.3087
G1 X33.7077
G1 X33.369 Y72.224
G1 X32.861 Y71.716
G1 X32.7763 Y71.3773
G1 Y71.1657
G1 X32.861 Y70.827
G1 X33.369 Y70.319
G1 X33.7077 Y70.2343
G1 X33.9193
G1 X34.258 Y70.319
G1 X34.7237 Y70.7847
G1 X34.9353
G1 X37.7293 Y67.9483
G1 Y66.2973
G1 X40.0577
G1 Y67.9483
G1 X41.878 Y69.811
G1 Y79.082
G1 X40.354 Y80.606
G1 X29.8977 Y80.6483
G1 X29.7283 Y80.5637
G1 X29.559 Y80.352
G1 X29.5167 Y78.5317
G1 X29.051 Y78.066
G1 X28.9663 Y77.7273
G1 Y77.5157
G1 X29.051 Y77.177
G1 X29.559 Y76.669
G0 Z3.0
G0 X31.464
G0 Z1.275
G1 F300.0 Z-0.125
G1 F250.0 Y76.542
G1 X33.623
G1 Y77.1347
G1 X37.8563
G1 X38.1527 Y76.7537
G1 X38.576 Y76.4997
G1 X39.211
G1 X39.5497 Y76.669
G1 X39.8037 Y76.8807
G1 X40.0153 Y77.304
G1 Y77.939
G1 X39.8037 Y78.3623
G1 X39.5497 Y78.574
G1 X39.211 Y78.7433
G1 X38.703 Y78.7857
G1 X38.4067 Y78.6587
G1 X38.068 Y78.447
G1 X37.8563 Y78.1083
G1 X33.623
G1 Y78.701
G1 X31.464
G1 Y76.669
G0 Z3.0
G0 X33.623 Y69.7687
G0 Z1.275
G1 F300.0 Z-0.125
G1 F250.0 X33.369 Y69.684
G1 X32.861 Y69.176
G1 X32.7763 Y68.8373
G1 Y68.6257
G1 X32.861 Y68.287
G1 X33.369 Y67.779
G1 X33.7077 Y67.6943
G1 X33.9193
G1 X34.258 Y67.779
G1 X34.766 Y68.287
G1 X34.8507 Y68.6257
G1 Y68.8373
G1 X34.766 Y69.176
G1 X34.258 Y69.684
G1 X33.9193 Y69.7687
G1 X33.623
G0 Z3.0
G0 X31.5801 Y61.313
G0 Z1.275
G1 F300.0 Z-0.125
G1 F250.0 Y60.9512
G1 X31.2183
G1 Y61.313
G1 X31.5801
G0 Z3.0
G0 X31.5435 Y60.5908
G0 Z1.275
G1 F300.0 Z-0.125
G1 F250.0 Y59.0
G1 X31.2549
G1 Y60.374
G1 X30.6763
G1 Y60.5908
G1 X31.5435
G0 Z3.0
G0 X32.4572 Y60.2022
G0 Z1.275
G1 F300.0 Z-0.125
G2 F250.0 X32.585 Y60.4033 I0.6717 J-0.2857
G2 X32.8351 Y60.5752 I0.4773 J-0.4266
G2 X33.1343 Y60.626 I0.287 J-0.7843
G2 X33.4336 Y60.5755 I0.0125 J-0.838
G2 X33.6836 Y60.4033 I-0.224 J-0.593
G2 X33.8412 Y60.1183 I-0.5439 J-0.4868
G2 X33.8843 Y59.7954 I-1.0838 J-0.309
G2 X33.8412 Y59.4712 I-1.1364 J-0.0139
G2 X33.6836 Y59.1846 I-0.7079 J0.2026
G2 X33.4333 Y59.0135 I-0.4726 J0.4227
G2 X33.1343 Y58.9634 I-0.2866 J0.7932
G2 X32.8346 Y59.0136 I-0.0124 J0.8457
G2 X32.5835 Y59.1846 I0.2242 J0.5992
G2 X32.427 Y59.4714 I0.5535 J0.4881
G2 X32.3843 Y59.7954 I1.1019 J0.3101
G2 X32.4274 Y60.1183 I1.1268 J0.0139
G2 X32.4572 Y60.2022 I0.7015 J-0.2017
G0 Z3.0
G0 X32.7364 Y60.1044
G0 Z1.275
G1 F300.0 Z-0.125
G3 F250.0 X32.7157 Y60.03 I0.5593 J-0.196
G3 X32.6919 Y59.7954 I1.0396 J-0.2241
G3 X32.7156 Y59.5601 I1.0725 J-0.0106
G3 X32.8091 Y59.3428 I0.5805 J0.1209
G3 X33.1343 Y59.1802 I0.3111 J0.2157
G3 X33.3177 Y59.2199 I0.0071 J0.4106
G3 X33.4595 Y59.3428 I-0.1726 J0.3423
G3 X33.5529 Y59.5601 I-0.4871 J0.3382
G3 X33.5767 Y59.7954 I-1.0484 J0.2247
G3 X33.5528 Y60.03 I-1.0635 J0.0105
G3 X33.4595 Y60.2466 I-0.58 J-0.1217
G3 X33.1343 Y60.4092 I-0.3111 J-0.2157
G3 X32.9509 Y60.3695 I-0.0071 J-0.4106
G3 X32.8091 Y60.2466 I0.1726 J-0.3423
G3 X32.7364 Y60.1044 I0.4867 J-0.3382
G0 Z3.0
G0 X34.2959
G0 Z1.275
G1 F300.0 Z-0.125
G1 F250.0 Y60.5908
G1 X34.5845
G1 Y59.5815
G3 X34.5944 Y59.4442 I0.8491 J-0.0078
G3 X34.6416 Y59.3149 I0.3104 J0.0401
G3 X34.7297 Y59.2527 I0.1411 J0.1062
G3 X34.8364 Y59.2373 I0.1006 J0.3193
G3 X34.9761 Y59.2689 I-0.0039 J0.342
G3 X35.1501 Y59.391 I-0.2739 J0.5753
G3 X35.2905 Y59.5508 I-0.9181 J0.9485
G1 Y60.5908
G1 X35.5791
G1 Y59.0
G1 X35.2905
G1 Y59.2988
G2 X35.1925 Y59.1636 I-0.7426 J0.4356
G2 X34.9921 Y59.0138 I-0.4521 J0.3955
G2 X34.7471 Y58.9634 I-0.2385 J0.5388
G2 X34.5482 Y58.9977 I-0.0105 J0.533
G2 X34.3429 Y59.2105 I0.1355 J0.3361
G2 X34.3058 Y59.3543 I0.5938 J0.2299
G2 X34.2959 Y59.5024 I1.0225 J0.143
G1 Y60.1044
G0 Z3.0
G0 X36.0361 Y60.3374
G0 Z1.275
G1 F300.0 Z-0.125
G1 F250.0 Y60.5542
G1 X36.4331
G1 Y60.897
G1 X36.7217
G1 Y60.5542
G1 X37.4277
G1 Y60.3374
G1 X36.7217
G1 Y59.5229
G3 X36.7242 Y59.4287 I1.568 J-0.0055
G3 X36.7378 Y59.3354 I0.4409 J0.0167
G3 X36.811 Y59.2461 I0.17 J0.0646
G3 X36.9514 Y59.1929 I0.2047 J0.3282
G3 X37.1011 Y59.1802 I0.1423 J0.7899
G3 X37.46 Y59.2212 I-0.001 J1.5997
G1 Y59.0015
G2 X37.041 Y58.9634 I-0.428 J2.3848
G2 X36.7898 Y58.9845 I-0.0154 J1.3228
G2 X36.6677 Y59.0206 I0.1167 J0.6194
G2 X36.5605 Y59.0894 I0.1259 J0.3139
G2 X36.4911 Y59.1962 I0.2431 J0.234
G2 X36.4443 Y59.3803 I0.6602 J0.2657
G2 X36.4331 Y59.5698 I1.452 J0.181
G1 Y60.3374
G1 X36.0361
G0 Z3.0
G0 X37.7684 Y60.1818
G0 Z1.275
G1 F300.0 Z-0.125
G2 F250.0 X37.8197 Y60.4701 I1.6859 J-0.1514
G2 X38.0239 Y60.8823 I1.1484 J-0.3121
G2 X38.32 Y61.1349 I0.7115 J-0.5342
G2 X38.6992 Y61.2222 I0.3686 J-0.7337
G2 X38.9459 Y61.1844 I0.0128 J-0.7413
G2 X39.2156 Y60.9349 I-0.1443 J-0.4265
G2 X39.267 Y60.7574 I-0.6503 J-0.2844
G2 X39.2808 Y60.5732 I-1.1385 J-0.1776
G1 Y59.6138
G1 X39.4609
G1 Y59.4336
G1 X39.064
G1 Y59.9199
G2 X38.9238 Y59.6096 I-1.365 J0.4297
G2 X38.8085 Y59.4768 I-0.4564 J0.2799
G2 X38.6436 Y59.416 I-0.1683 J0.2023
G2 X38.5067 Y59.4591 I-0.0024 J0.2312
G2 X38.4121 Y59.5669 I0.207 J0.2772
G2 X38.3416 Y59.7573 I0.5402 J0.3083
G2 X38.3228 Y59.9595 I0.9911 J0.1944
G2 X38.3591 Y60.2524 I1.1254 J0.009
G2 X38.4824 Y60.5205 I0.8287 J-0.2187
G2 X38.65 Y60.686 I0.4919 J-0.3304
G2 X38.8765 Y60.7505 I0.2234 J-0.3547
G2 X39.064 Y60.7036 I-0.022 J-0.4866
G3 X39.0255 Y60.8379 I-0.5493 J-0.0848
G3 X38.8877 Y60.9942 I-0.297 J-0.1228
G3 X38.6846 Y61.0405 I-0.1909 J-0.3689
G3 X38.3947 Y60.9562 I-0.0038 J-0.5275
G3 X38.1821 Y60.7417 I0.4241 J-0.6328
G3 X38.0244 Y60.3918 I0.9214 J-0.6258
G3 X37.9785 Y60.0107 I1.4572 J-0.3688
G3 X38.0184 Y59.6776 I1.3102 J-0.0122
G3 X38.1602 Y59.3735 I0.872 J0.2215
G3 X38.3611 Y59.1911 I0.5115 J0.3615
G3 X38.6245 Y59.126 I0.2566 J0.4726
G3 X38.8509 Y59.1625 I-0.0124 J0.7966
G3 X39.064 Y59.2476 I-0.4179 J1.3562
G1 Y59.0483
G2 X38.8356 Y58.9765 I-0.6614 J1.7034
G2 X38.5981 Y58.9458 I-0.2511 J1.0086
G2 X38.2602 Y59.021 I-0.0103 J0.7506
G2 X37.9946 Y59.2432 I0.3533 J0.6921
G2 X37.8129 Y59.6087 I0.8222 J0.6367
G2 X37.7617 Y60.0137 I1.4558 J0.3897
G2 X37.7684 Y60.1818 I1.6926 J0.0167
G0 Z3.0
G0 X38.5445 Y60.1119
G0 Z1.275
G1 F300.0 Z-0.125
G3 F250.0 X38.5396 Y59.9917 I1.2263 J-0.1104
G3 X38.5536 Y59.7914 I1.2089 J-0.0155
G3 X38.5847 Y59.6896 I0.364 J0.0553
G3 X38.6194 Y59.6458 I0.1146 J0.0552
G3 X38.6729 Y59.6299 I0.0478 J0.0627
G3 X38.7376 Y59.6572 I-0.0132 J0.1219
G3 X38.8096 Y59.7324 I-0.2469 J0.3086
G3 X38.8677 Y59.8188 I-0.7732 J0.5817
G3 X38.9795 Y60.0445 I-1.4887 J0.8783
G3 X39.064 Y60.2817 I-2.4726 J1.014
G1 Y60.5352
G3 X38.9826 Y60.5774 I-0.2381 J-0.359
G3 X38.8926 Y60.5952 I-0.0935 J-0.2367
G3 X38.7406 Y60.5505 I-0.0041 J-0.2669
G3 X38.6348 Y60.4326 I0.2045 J-0.29
G3 X38.5587 Y60.2183 I0.5841 J-0.3278
G3 X38.5445 Y60.1119 I1.212 J-0.2168
G0 Z3.0
G0 X39.7275
G0 Z1.275
G1 F300.0 Z-0.125
G1 F250.0 Y61.313
G1 X40.0161
G1 Y60.5908
G1 Y60.292
G2 X40.1141 Y60.4266 I0.7413 J-0.4368
G2 X40.3139 Y60.5758 I0.4513 J-0.3959
G2 X40.5581 Y60.626 I0.2378 J-0.5374
G2 X40.7569 Y60.5921 I0.0105 J-0.5383
G2 X40.9633 Y60.3802 I-0.1337 J-0.3366
G2 X41.0007 Y60.2365 I-0.5874 J-0.2298
G2 X41.0107 Y60.0884 I-1.0126 J-0.143
G1 Y59.0
G1 X40.7222
G1 Y60.0093
G3 X40.712 Y60.1454 I-0.8129 J0.0078
G3 X40.6636 Y60.2729 I-0.2972 J-0.0399
G3 X40.5766 Y60.3361 I-0.1423 J-0.1045
G3 X40.4702 Y60.3521 I-0.1003 J-0.3066
G3 X40.3308 Y60.3207 I0.0039 J-0.3433
G3 X40.1567 Y60.1992 I0.2722 J-0.5754
G3 X40.0161 Y60.04 I0.9126 J-0.9477
G1 Y59.0
G1 X39.7275
G1 Y60.1119
G0 Z3.0
G0 X41.4819 Y59.9086
G0 Z1.275
G1 F300.0 Z-0.125
G2 F250.0 X41.5234 Y60.1023 I1.0314 J-0.1195
G2 X41.686 Y60.3872 I0.7653 J-0.248
G2 X42.2251 Y60.626 I0.5222 J-0.451
G2 X42.4909 Y60.5843 I0.0138 J-0.781
G2 X42.71 Y60.4282 I-0.1584 J-0.4541
G2 X42.7906 Y60.288 I-0.4598 J-0.3579
G2 X42.8512 Y60.0541 I-0.9065 J-0.3593
G2 X42.8667 Y59.813 I-1.716 J-0.2316
G1 Y59.7207
G1 X41.7827
G3 X41.8249 Y59.5008 I0.7819 J0.0361
G3 X42.0405 Y59.248 I0.4215 J0.1411
G3 X42.1991 Y59.1947 I0.2602 J0.511
G3 X42.3657 Y59.1802 I0.1607 J0.8806
G3 X42.6266 Y59.2117 I-0.0085 J1.1641
G3 X42.877 Y59.2915 I-0.3938 J1.6688
G1 Y59.063
G2 X42.6055 Y58.9913 I-0.6797 J2.0247
G2 X42.3262 Y58.9634 I-0.288 J1.4683
G2 X41.99 Y59.0076 I-0.0155 J1.1803
G2 X41.6948 Y59.1743 I0.1955 J0.691
G2 X41.5222 Y59.4532 I0.4669 J0.4818
G2 X41.4751 Y59.7778 I0.992 J0.3097
G2 X41.4819 Y59.9086 I1.0383 J0.0113
G0 Z3.0
G0 X41.7915 Y59.9375
G0 Z1.275
G1 F300.0 Z-0.125
G1 F250.0 X42.5591
G1 Y59.9785
G3 X42.5443 Y60.1355 I-0.7637 J0.0074
G3 X42.5044 Y60.2491 I-0.4228 J-0.0847
G3 X42.3759 Y60.3741 I-0.2499 J-0.1285
G3 X42.2002 Y60.4092 I-0.1655 J-0.3708
G3 X42.0454 Y60.3789 I-0.0051 J-0.3846
G3 X41.9189 Y60.2847 I0.1432 J-0.3242
G3 X41.8284 Y60.1209 I0.3751 J-0.3142
G3 X41.7915 Y59.9375 I0.7657 J-0.2496
G0 Z3.0
G0 X30.1929
G0 Z1.275
G1 F300.0 Z-0.125
G1 F250.0 Y59.0
G1 X29.9043
G1 Y59.2988
G2 X29.6887 Y59.0609 I-0.7055 J0.4226
G2 X29.3828 Y58.9634 I-0.303 J0.422
G2 X29.1435 Y59.0148 I-0.0088 J0.542
G2 X28.9565 Y59.1729 I0.2283 J0.4596
G2 X28.8336 Y59.4454 I0.6089 J0.4388
G2 X28.8013 Y59.7427 I1.2347 J0.2845
G2 X28.8411 Y60.0772 I1.3146 J0.0132
G2 X28.9858 Y60.3813 I0.8348 J-0.2108
G2 X29.1971 Y60.5639 I0.4992 J-0.3643
G2 X29.4692 Y60.626 I0.2637 J-0.528
G2 X29.7122 Y60.5687 I0.0049 J-0.5232
G2 X29.9043 Y60.4092 I-0.2901 J-0.5446
G1 Y61.313
G1 X30.1929
G1 Y59.9375
G0 Z3.0
G0 X29.9043
G0 Z1.275
G1 F300.0 Z-0.125
G1 F250.0 Y60.1924
G3 X29.7285 Y60.3409 I-0.6423 J-0.5818
G3 X29.5088 Y60.4092 I-0.2298 J-0.352
G3 X29.2129 Y60.2407 I-0.0074 J-0.3312
G3 X29.1293 Y60.0126 I0.5739 J-0.3396
G3 X29.1089 Y59.7705 I1.2905 J-0.2309
G3 X29.1189 Y59.593 I1.4405 J-0.0074
G3 X29.1461 Y59.4589 I0.8278 J0.098
G3 X29.1857 Y59.3621 I0.4786 J0.139
G3 X29.2924 Y59.2475 I0.2593 J0.1344
G3 X29.4443 Y59.2095 I0.145 J0.2568
G3 X29.7112 Y59.3071 I-0.0089 J0.4382
G3 X29.9043 Y59.5156 I-0.5839 J0.7342
G1 Y59.9375
G0 Z3.0
G0 X27.9282
G0 Z1.275
G1 F300.0 Z-0.125
G1 F250.0 Y59.0
G1 X27.6396
G1 Y60.374
G1 X27.061
G1 Y60.5908
G1 X27.9282
G1 Y59.9375
G0 Z3.0
G0 Y60.9512
G0 Z1.275
G1 F300.0 Z-0.125
G1 F250.0 X27.603
G1 Y61.313
G1 X27.9648
G1 Y60.9512
G1 X27.9282
G0 Z3.0
G0 X26.6336 Y60.4559
G0 Z1.275
G1 F300.0 Z-0.125
G2 F250.0 X26.661 Y60.3445 I-0.4339 J-0.166
G2 X26.6729 Y60.1646 I-1.2146 J-0.1701
G1 Y59.0
G1 X26.4194
G1 Y60.1528
G3 X26.4165 Y60.2422 I-1.2047 J0.0053
G3 X26.4004 Y60.3301 I-0.329 J-0.0149
G3 X26.3286 Y60.377 I-0.0668 J-0.0239
G3 X26.2695 Y60.3614 I0.0022 J-0.128
G3 X26.1896 Y60.2943 I0.1422 J-0.2505
G3 X26.1015 Y60.1658 I0.6172 J-0.5177
G3 X26.0313 Y60.0269 I1.5375 J-0.8645
G1 Y59.0
G1 X25.7778
G1 Y60.1001
G3 X25.775 Y60.2098 I-1.8835 J0.0068
G3 X25.7588 Y60.3184 I-0.4678 J-0.0145
G3 X25.6826 Y60.374 I-0.0721 J-0.0187
G3 X25.5999 Y60.3373 I0.0132 J-0.1412
G3 X25.5361 Y60.2729 I0.3085 J-0.3695
G3 X25.3896 Y60.0239 I0.7628 J-0.6163
G1 Y59.0
G1 X25.1362
G1 Y60.5908
G1 X25.3896
G1 Y60.292
G2 X25.5295 Y60.4987 I1.0952 J-0.5901
G2 X25.6235 Y60.5847 I0.3777 J-0.3187
G2 X25.7441 Y60.626 I0.1276 J-0.176
G2 X25.9444 Y60.5102 I0.0025 J-0.2267
G2 X25.9928 Y60.4047 I-0.408 J-0.251
G2 X26.021 Y60.292 I-0.8082 J-0.2621
G1 X26.0313
G2 X26.1638 Y60.5083 I0.8244 J-0.3564
G2 X26.2632 Y60.592 I0.2976 J-0.2527
G2 X26.3887 Y60.626 I0.1262 J-0.2174
G2 X26.5123 Y60.6011 I0.0064 J-0.2876
G2 X26.6055 Y60.5161 I-0.0932 J-0.1958
G2 X26.6336 Y60.4559 I-0.4058 J-0.2262
G0 Z3.0
G0 X16.478 Y77.8967
G0 Z1.275
G1 F300.0 Z-0.125
G1 F250.0 X16.8167 Y78.193
G1 X17.0707 Y78.574
G1 X17.113 Y78.9973
G1 X17.0283 Y79.336
G1 X16.732 Y79.6747
G1 X16.351 Y79.9287
G1 X15.843 Y79.971
G1 X15.5467 Y79.844
G1 X15.2503 Y79.59
G1 X14.9963 Y79.209
G1 X14.954 Y78.7857
G1 X15.0387 Y78.447
G1 X15.335 Y78.1083
G1 X15.716 Y77.8543
G1 X16.1393 Y77.812
G1 X16.478 Y77.8967
G0 Z3.0
G0 X12.4563 Y78.5317
G0 Z1.275
G1 F300.0 Z-0.125
G1 F250.0 Y79.2513
G1 X12.2447 Y79.7593
G1 X11.779 Y80.1827
G1 X11.3133 Y80.3943
G1 X10.7207 Y80.4367
G1 X10.382 Y80.3097
G1 X10.0433 Y80.1403
G1 X9.6623 Y79.717
G1 X9.4507 Y79.2513
G1 Y78.5317
G1 X9.6623 Y78.0237
G1 X10.128 Y77.6003
G1 X10.5937 Y77.3887
G1 X11.3133
G1 X11.779 Y77.6003
G1 X12.2447 Y78.0237
G1 X12.4563 Y78.5317
G0 Z3.0
M5
M30
