( Made using CamBam - http://www.cambam.co.uk )
( midi_organ_v0.3.gcode.complete 8/21/2014 12:27:46 AM )
( T0 : 0.0 )
G21 G90 G64 G40
G0 Z3.0
( T0 : 0.0 )
T0 M6
( drill-09mm )
G17
M3 S1000
G0 X95.8551 Y166.2349
G98
G81 X95.8551 Y166.2349 Z-2.1 R3.0 F300.0
G81 Z-2.1
G81 Y163.6949 Z-2.1
G81 Z-2.1
G81 Y161.1549 Z-2.1
G81 Z-2.1
G81 Y158.6149 Z-2.1
G81 Z-2.1
G81 Y156.0749 Z-2.1
G81 Z-2.1
G81 X100.9351 Z-2.1
G81 Z-2.1
G81 Y158.6149 Z-2.1
G81 Z-2.1
G81 Y161.1549 Z-2.1
G81 Z-2.1
G81 Y163.6949 Z-2.1
G81 Z-2.1
G81 Y166.2349 Z-2.1
G81 Z-2.1
G81 Y168.7749 Z-2.1
G81 Z-2.1
G81 Y171.3149 Z-2.1
G81 Z-2.1
G81 Y173.8549 Z-2.1
G81 Z-2.1
G81 X106.0151 Z-2.1
G81 Z-2.1
G81 Y171.3149 Z-2.1
G81 Z-2.1
G81 Y168.7749 Z-2.1
G81 Z-2.1
G81 Y166.2349 Z-2.1
G81 Z-2.1
G81 Y163.6949 Z-2.1
G81 Z-2.1
G81 Y161.1549 Z-2.1
G81 Z-2.1
G81 Y158.6149 Z-2.1
G81 Z-2.1
G81 Y156.0749 Z-2.1
G81 Z-2.1
G81 X111.0951 Z-2.1
G81 Z-2.1
G81 Y158.6149 Z-2.1
G81 Z-2.1
G81 Y161.1549 Z-2.1
G81 Z-2.1
G81 Y163.6949 Z-2.1
G81 Z-2.1
G81 Y166.2349 Z-2.1
G81 Z-2.1
G81 Y168.7749 Z-2.1
G81 Z-2.1
G81 Y171.3149 Z-2.1
G81 Z-2.1
G81 Y173.8549 Z-2.1
G81 Z-2.1
G81 X99.0301 Y182.7449 Z-2.1
G81 Z-2.1
G81 X96.4901 Z-2.1
G81 Z-2.1
G81 X93.9501 Z-2.1
G81 Z-2.1
G81 X95.8551 Y173.8549 Z-2.1
G81 Z-2.1
G81 Y171.3149 Z-2.1
G81 Z-2.1
G81 Y168.7749 Z-2.1
G81 Z-2.1
G81 X77.4401 Y136.3899 Z-2.1
G81 Z-2.1
G81 X74.9001 Z-2.1
G81 Z-2.1
G81 X72.3601 Z-2.1
G81 Z-2.1
G81 X69.8201 Z-2.1
G81 Z-2.1
G81 X67.2801 Z-2.1
G81 Z-2.1
G81 X49.5001 Z-2.1
G81 Z-2.1
G81 Y138.9299 Z-2.1
G81 Z-2.1
G81 Y141.4699 Z-2.1
G81 Z-2.1
G81 X46.9601 Z-2.1
G81 Z-2.1
G81 Y138.9299 Z-2.1
G81 Z-2.1
G81 Y136.3899 Z-2.1
G81 Z-2.1
G81 X43.7851 Y128.1349 Z-2.1
G81 Z-2.1
G81 Y125.5949 Z-2.1
G81 Z-2.1
G81 Y123.0549 Z-2.1
G81 Z-2.1
G81 Y120.5149 Z-2.1
G81 Z-2.1
G81 Y117.9749 Z-2.1
G81 Z-2.1
G81 Y115.4349 Z-2.1
G81 Z-2.1
G81 Y112.8949 Z-2.1
G81 Z-2.1
G81 Y110.3549 Z-2.1
G81 Z-2.1
G81 Y107.8149 Z-2.1
G81 Z-2.1
G81 Y105.2749 Z-2.1
G81 Z-2.1
G81 Y102.7349 Z-2.1
G81 Z-2.1
G81 Y100.1949 Z-2.1
G81 Z-2.1
G81 Y97.6549 Z-2.1
G81 Z-2.1
G81 Y95.1149 Z-2.1
G81 Z-2.1
G81 Y92.5749 Z-2.1
G81 Z-2.1
G81 Y90.0349 Z-2.1
G81 Z-2.1
G81 Y87.4949 Z-2.1
G81 Z-2.1
G81 Y84.9549 Z-2.1
G81 Z-2.1
G81 Y82.4149 Z-2.1
G81 Z-2.1
G81 Y79.8749 Z-2.1
G81 Z-2.1
G81 Y77.3349 Z-2.1
G81 Z-2.1
G81 Y74.7949 Z-2.1
G81 Z-2.1
G81 Y72.2549 Z-2.1
G81 Z-2.1
G81 Y69.7149 Z-2.1
G81 Z-2.1
G81 X33.6251 Y63.3649 Z-2.1
G81 Z-2.1
G81 Y60.8249 Z-2.1
G81 Z-2.1
G81 Y58.2849 Z-2.1
G81 Z-2.1
G81 Y55.7449 Z-2.1
G81 Z-2.1
G81 Y53.2049 Z-2.1
G81 Z-2.1
G81 Y50.6649 Z-2.1
G81 Z-2.1
G81 Y48.1249 Z-2.1
G81 Z-2.1
G81 Y45.5849 Z-2.1
G81 Z-2.1
G81 Y43.0449 Z-2.1
G81 Z-2.1
G81 Y40.5049 Z-2.1
G81 Z-2.1
G81 Y37.9649 Z-2.1
G81 Z-2.1
G81 Y35.4249 Z-2.1
G81 Z-2.1
G81 Y32.8849 Z-2.1
G81 Z-2.1
G81 Y30.3449 Z-2.1
G81 Z-2.1
G81 Y27.8049 Z-2.1
G81 Z-2.1
G81 Y25.2649 Z-2.1
G81 Z-2.1
G81 X85.6951 Z-2.1
G81 Z-2.1
G81 Y27.8049 Z-2.1
G81 Z-2.1
G81 Y30.3449 Z-2.1
G81 Z-2.1
G81 Y32.8849 Z-2.1
G81 Z-2.1
G81 Y35.4249 Z-2.1
G81 Z-2.1
G81 Y37.9649 Z-2.1
G81 Z-2.1
G81 Y40.5049 Z-2.1
G81 Z-2.1
G81 Y43.0449 Z-2.1
G81 Z-2.1
G81 Y45.5849 Z-2.1
G81 Z-2.1
G81 Y48.1249 Z-2.1
G81 Z-2.1
G81 Y50.6649 Z-2.1
G81 Z-2.1
G81 Y53.2049 Z-2.1
G81 Z-2.1
G81 Y55.7449 Z-2.1
G81 Z-2.1
G81 Y58.2849 Z-2.1
G81 Z-2.1
G81 Y60.8249 Z-2.1
G81 Z-2.1
G81 Y63.3649 Z-2.1
G81 Z-2.1
G81 X98.3951 Y69.7149 Z-2.1
G81 Z-2.1
G81 Y72.2549 Z-2.1
G81 Z-2.1
G81 Y74.7949 Z-2.1
G81 Z-2.1
G81 Y77.3349 Z-2.1
G81 Z-2.1
G81 Y79.8749 Z-2.1
G81 Z-2.1
G81 Y82.4149 Z-2.1
G81 Z-2.1
G81 Y84.9549 Z-2.1
G81 Z-2.1
G81 Y87.4949 Z-2.1
G81 Z-2.1
G81 Y90.0349 Z-2.1
G81 Z-2.1
G81 Y92.5749 Z-2.1
G81 Z-2.1
G81 Y95.1149 Z-2.1
G81 Z-2.1
G81 Y97.6549 Z-2.1
G81 Z-2.1
G81 Y100.1949 Z-2.1
G81 Z-2.1
G81 Y102.7349 Z-2.1
G81 Z-2.1
G81 Y105.2749 Z-2.1
G81 Z-2.1
G81 Y107.8149 Z-2.1
G81 Z-2.1
G81 Y110.3549 Z-2.1
G81 Z-2.1
G81 Y112.8949 Z-2.1
G81 Z-2.1
G81 Y115.4349 Z-2.1
G81 Z-2.1
G81 Y117.9749 Z-2.1
G81 Z-2.1
G81 Y120.5149 Z-2.1
G81 Z-2.1
G81 Y123.0549 Z-2.1
G81 Z-2.1
G81 Y125.5949 Z-2.1
G81 Z-2.1
G81 Y128.1349 Z-2.1
G81 Z-2.1
G81 X45.6901 Y161.7899 Z-2.1
G81 Z-2.1
G81 X43.1501 Z-2.1
G81 Z-2.1
G81 X40.6101 Z-2.1
G81 Z-2.1
G81 X38.0701 Z-2.1
G81 Z-2.1
G81 X35.5301 Z-2.1
G81 Z-2.1
G81 X32.9901 Z-2.1
G81 Z-2.1
G81 X30.4501 Z-2.1
G81 Z-2.1
G81 X27.9101 Z-2.1
G81 Z-2.1
G81 X25.3701 Z-2.1
G81 Z-2.1
G81 X22.8301 Z-2.1
G81 Z-2.1
G81 Y169.4099 Z-2.1
G81 Z-2.1
G81 X25.3701 Z-2.1
G81 Z-2.1
G81 X27.9101 Z-2.1
G81 Z-2.1
G81 X30.4501 Z-2.1
G81 Z-2.1
G81 X32.9901 Z-2.1
G81 Z-2.1
G81 X35.5301 Z-2.1
G81 Z-2.1
G81 X38.0701 Z-2.1
G81 Z-2.1
G81 X40.6101 Z-2.1
G81 Z-2.1
G81 X43.1501 Z-2.1
G81 Z-2.1
G81 X45.6901 Z-2.1
G81 Z-2.1
G81 X22.8301 Y154.1699 Z-2.1
G81 Z-2.1
G81 Y151.6299 Z-2.1
G81 Z-2.1
G81 Y149.0899 Z-2.1
G81 Z-2.1
G81 Y146.5499 Z-2.1
G81 Z-2.1
G81 Y141.4699 Z-2.1
G81 Z-2.1
G81 Y138.9299 Z-2.1
G81 Z-2.1
G81 Y136.3899 Z-2.1
G81 Z-2.1
G81 Y133.8499 Z-2.1
G81 Z-2.1
G80
G0 Z3.0
M5
M30
