( Made using CamBam - http://www.cambam.co.uk )
( midi_organ_v0.3.gcode.complete 8/21/2014 12:44:24 PM )
( T0 : 0.0 )
G21 G90 G64 G40
G0 Z3.0
( T0 : 0.0 )
T0 M6
( drill-1 )
G17
M3 S1000
G0 X48.8651 Y187.8249
G98
G81 X48.8651 Y187.8249 Z-2.35 R3.0 F800.0
G81 Z-2.35
G81 X53.9451 Z-2.35
G81 Z-2.35
G81 X74.2651 Z-2.35
G81 Z-2.35
G81 X79.3451 Z-2.35
G81 Z-2.35
G80
( drill-3.25 )
S1000
G0 Z3.0
G0 X24.1001 Y185.9199
G0 Z3.0
G0 X25.4251 Y185.9199
G0 Z1.0
G1 F300.0 Z0.0
G2 F200.0 X23.4376 Y184.7724 Z-0.1333 I-1.325 J0.0
G2 Y187.0674 Z-0.2667 I0.6625 J1.1475
G2 X25.4251 Y185.9199 Z-0.4 I0.6625 J-1.1475
G2 X23.4376 Y184.7724 Z-0.5333 I-1.325 J0.0
G2 Y187.0674 Z-0.6667 I0.6625 J1.1475
G2 X25.4251 Y185.9199 Z-0.8 I0.6625 J-1.1475
G2 X23.4376 Y184.7724 Z-0.9333 I-1.325 J0.0
G2 Y187.0674 Z-1.0667 I0.6625 J1.1475
G2 X25.4251 Y185.9199 Z-1.2 I0.6625 J-1.1475
G2 X23.4376 Y184.7724 Z-1.3333 I-1.325 J0.0
G2 Y187.0674 Z-1.4667 I0.6625 J1.1475
G2 X25.4251 Y185.9199 Z-1.6 I0.6625 J-1.1475
G2 X23.4376 Y184.7724 Z-1.7333 I-1.325 J0.0
G2 Y187.0674 Z-1.8667 I0.6625 J1.1475
G2 X25.4251 Y185.9199 Z-2.0 I0.6625 J-1.1475
G2 X23.4376 Y184.7724 Z-2.1333 I-1.325 J0.0
G2 Y187.0674 Z-2.2667 I0.6625 J1.1475
G2 X25.037 Y186.8568 Z-2.35 I0.6625 J-1.1475
G2 X24.443 Y184.6401 I-0.9369 J-0.9369
G2 X22.8202 Y186.2628 I-0.3429 J1.2799
G2 X25.037 Y186.8568 I1.2799 J-0.3429
G0 Z3.0
G0 X25.4251 Y185.9199
G1 F300.0 Z0.0
G2 F200.0 X23.4376 Y184.7724 Z-0.1333 I-1.325 J0.0
G2 Y187.0674 Z-0.2667 I0.6625 J1.1475
G2 X25.4251 Y185.9199 Z-0.4 I0.6625 J-1.1475
G2 X23.4376 Y184.7724 Z-0.5333 I-1.325 J0.0
G2 Y187.0674 Z-0.6667 I0.6625 J1.1475
G2 X25.4251 Y185.9199 Z-0.8 I0.6625 J-1.1475
G2 X23.4376 Y184.7724 Z-0.9333 I-1.325 J0.0
G2 Y187.0674 Z-1.0667 I0.6625 J1.1475
G2 X25.4251 Y185.9199 Z-1.2 I0.6625 J-1.1475
G2 X23.4376 Y184.7724 Z-1.3333 I-1.325 J0.0
G2 Y187.0674 Z-1.4667 I0.6625 J1.1475
G2 X25.4251 Y185.9199 Z-1.6 I0.6625 J-1.1475
G2 X23.4376 Y184.7724 Z-1.7333 I-1.325 J0.0
G2 Y187.0674 Z-1.8667 I0.6625 J1.1475
G2 X25.4251 Y185.9199 Z-2.0 I0.6625 J-1.1475
G2 X23.4376 Y184.7724 Z-2.1333 I-1.325 J0.0
G2 Y187.0674 Z-2.2667 I0.6625 J1.1475
G2 X25.037 Y186.8568 Z-2.35 I0.6625 J-1.1475
G2 X24.443 Y184.6401 I-0.9369 J-0.9369
G2 X22.8202 Y186.2628 I-0.3429 J1.2799
G2 X25.037 Y186.8568 I1.2799 J-0.3429
G0 Z3.0
G0 X109.2451 Y150.3599
G0 Z1.0
G1 F300.0 Z0.0
G2 F200.0 X107.2576 Y149.2124 Z-0.1333 I-1.325 J0.0
G2 Y151.5074 Z-0.2667 I0.6625 J1.1475
G2 X109.2451 Y150.3599 Z-0.4 I0.6625 J-1.1475
G2 X107.2576 Y149.2124 Z-0.5333 I-1.325 J0.0
G2 Y151.5074 Z-0.6667 I0.6625 J1.1475
G2 X109.2451 Y150.3599 Z-0.8 I0.6625 J-1.1475
G2 X107.2576 Y149.2124 Z-0.9333 I-1.325 J0.0
G2 Y151.5074 Z-1.0667 I0.6625 J1.1475
G2 X109.2451 Y150.3599 Z-1.2 I0.6625 J-1.1475
G2 X107.2576 Y149.2124 Z-1.3333 I-1.325 J0.0
G2 Y151.5074 Z-1.4667 I0.6625 J1.1475
G2 X109.2451 Y150.3599 Z-1.6 I0.6625 J-1.1475
G2 X107.2576 Y149.2124 Z-1.7333 I-1.325 J0.0
G2 Y151.5074 Z-1.8667 I0.6625 J1.1475
G2 X109.2451 Y150.3599 Z-2.0 I0.6625 J-1.1475
G2 X107.2576 Y149.2124 Z-2.1333 I-1.325 J0.0
G2 Y151.5074 Z-2.2667 I0.6625 J1.1475
G2 X108.857 Y151.2968 Z-2.35 I0.6625 J-1.1475
G2 X108.263 Y149.0801 I-0.9369 J-0.9369
G2 X106.6402 Y150.7028 I-0.3429 J1.2799
G2 X108.857 Y151.2968 I1.2799 J-0.3429
G0 Z3.0
G0 X109.2451 Y150.3599
G1 F300.0 Z0.0
G2 F200.0 X107.2576 Y149.2124 Z-0.1333 I-1.325 J0.0
G2 Y151.5074 Z-0.2667 I0.6625 J1.1475
G2 X109.2451 Y150.3599 Z-0.4 I0.6625 J-1.1475
G2 X107.2576 Y149.2124 Z-0.5333 I-1.325 J0.0
G2 Y151.5074 Z-0.6667 I0.6625 J1.1475
G2 X109.2451 Y150.3599 Z-0.8 I0.6625 J-1.1475
G2 X107.2576 Y149.2124 Z-0.9333 I-1.325 J0.0
G2 Y151.5074 Z-1.0667 I0.6625 J1.1475
G2 X109.2451 Y150.3599 Z-1.2 I0.6625 J-1.1475
G2 X107.2576 Y149.2124 Z-1.3333 I-1.325 J0.0
G2 Y151.5074 Z-1.4667 I0.6625 J1.1475
G2 X109.2451 Y150.3599 Z-1.6 I0.6625 J-1.1475
G2 X107.2576 Y149.2124 Z-1.7333 I-1.325 J0.0
G2 Y151.5074 Z-1.8667 I0.6625 J1.1475
G2 X109.2451 Y150.3599 Z-2.0 I0.6625 J-1.1475
G2 X107.2576 Y149.2124 Z-2.1333 I-1.325 J0.0
G2 Y151.5074 Z-2.2667 I0.6625 J1.1475
G2 X108.857 Y151.2968 Z-2.35 I0.6625 J-1.1475
G2 X108.263 Y149.0801 I-0.9369 J-0.9369
G2 X106.6402 Y150.7028 I-0.3429 J1.2799
G2 X108.857 Y151.2968 I1.2799 J-0.3429
G0 Z3.0
G0 X25.4251 Y70.3499
G0 Z1.0
G1 F300.0 Z0.0
G2 F200.0 X23.4376 Y69.2024 Z-0.1333 I-1.325 J0.0
G2 Y71.4974 Z-0.2667 I0.6625 J1.1475
G2 X25.4251 Y70.3499 Z-0.4 I0.6625 J-1.1475
G2 X23.4376 Y69.2024 Z-0.5333 I-1.325 J0.0
G2 Y71.4974 Z-0.6667 I0.6625 J1.1475
G2 X25.4251 Y70.3499 Z-0.8 I0.6625 J-1.1475
G2 X23.4376 Y69.2024 Z-0.9333 I-1.325 J0.0
G2 Y71.4974 Z-1.0667 I0.6625 J1.1475
G2 X25.4251 Y70.3499 Z-1.2 I0.6625 J-1.1475
G2 X23.4376 Y69.2024 Z-1.3333 I-1.325 J0.0
G2 Y71.4974 Z-1.4667 I0.6625 J1.1475
G2 X25.4251 Y70.3499 Z-1.6 I0.6625 J-1.1475
G2 X23.4376 Y69.2024 Z-1.7333 I-1.325 J0.0
G2 Y71.4974 Z-1.8667 I0.6625 J1.1475
G2 X25.4251 Y70.3499 Z-2.0 I0.6625 J-1.1475
G2 X23.4376 Y69.2024 Z-2.1333 I-1.325 J0.0
G2 Y71.4974 Z-2.2667 I0.6625 J1.1475
G2 X25.037 Y71.2868 Z-2.35 I0.6625 J-1.1475
G2 X24.443 Y69.0701 I-0.9369 J-0.9369
G2 X22.8202 Y70.6928 I-0.3429 J1.2799
G2 X25.037 Y71.2868 I1.2799 J-0.3429
G0 Z3.0
G0 X25.4251 Y70.3499
G1 F300.0 Z0.0
G2 F200.0 X23.4376 Y69.2024 Z-0.1333 I-1.325 J0.0
G2 Y71.4974 Z-0.2667 I0.6625 J1.1475
G2 X25.4251 Y70.3499 Z-0.4 I0.6625 J-1.1475
G2 X23.4376 Y69.2024 Z-0.5333 I-1.325 J0.0
G2 Y71.4974 Z-0.6667 I0.6625 J1.1475
G2 X25.4251 Y70.3499 Z-0.8 I0.6625 J-1.1475
G2 X23.4376 Y69.2024 Z-0.9333 I-1.325 J0.0
G2 Y71.4974 Z-1.0667 I0.6625 J1.1475
G2 X25.4251 Y70.3499 Z-1.2 I0.6625 J-1.1475
G2 X23.4376 Y69.2024 Z-1.3333 I-1.325 J0.0
G2 Y71.4974 Z-1.4667 I0.6625 J1.1475
G2 X25.4251 Y70.3499 Z-1.6 I0.6625 J-1.1475
G2 X23.4376 Y69.2024 Z-1.7333 I-1.325 J0.0
G2 Y71.4974 Z-1.8667 I0.6625 J1.1475
G2 X25.4251 Y70.3499 Z-2.0 I0.6625 J-1.1475
G2 X23.4376 Y69.2024 Z-2.1333 I-1.325 J0.0
G2 Y71.4974 Z-2.2667 I0.6625 J1.1475
G2 X25.037 Y71.2868 Z-2.35 I0.6625 J-1.1475
G2 X24.443 Y69.0701 I-0.9369 J-0.9369
G2 X22.8202 Y70.6928 I-0.3429 J1.2799
G2 X25.037 Y71.2868 I1.2799 J-0.3429
G0 Z3.0
G0 X109.2451 Y27.1699
G0 Z1.0
G1 F300.0 Z0.0
G2 F200.0 X107.2576 Y26.0224 Z-0.1333 I-1.325 J0.0
G2 Y28.3174 Z-0.2667 I0.6625 J1.1475
G2 X109.2451 Y27.1699 Z-0.4 I0.6625 J-1.1475
G2 X107.2576 Y26.0224 Z-0.5333 I-1.325 J0.0
G2 Y28.3174 Z-0.6667 I0.6625 J1.1475
G2 X109.2451 Y27.1699 Z-0.8 I0.6625 J-1.1475
G2 X107.2576 Y26.0224 Z-0.9333 I-1.325 J0.0
G2 Y28.3174 Z-1.0667 I0.6625 J1.1475
G2 X109.2451 Y27.1699 Z-1.2 I0.6625 J-1.1475
G2 X107.2576 Y26.0224 Z-1.3333 I-1.325 J0.0
G2 Y28.3174 Z-1.4667 I0.6625 J1.1475
G2 X109.2451 Y27.1699 Z-1.6 I0.6625 J-1.1475
G2 X107.2576 Y26.0224 Z-1.7333 I-1.325 J0.0
G2 Y28.3174 Z-1.8667 I0.6625 J1.1475
G2 X109.2451 Y27.1699 Z-2.0 I0.6625 J-1.1475
G2 X107.2576 Y26.0224 Z-2.1333 I-1.325 J0.0
G2 Y28.3174 Z-2.2667 I0.6625 J1.1475
G2 X108.857 Y28.1068 Z-2.35 I0.6625 J-1.1475
G2 X108.263 Y25.8901 I-0.9369 J-0.9369
G2 X106.6402 Y27.5128 I-0.3429 J1.2799
G2 X108.857 Y28.1068 I1.2799 J-0.3429
G0 Z3.0
G0 X109.2451 Y27.1699
G1 F300.0 Z0.0
G2 F200.0 X107.2576 Y26.0224 Z-0.1333 I-1.325 J0.0
G2 Y28.3174 Z-0.2667 I0.6625 J1.1475
G2 X109.2451 Y27.1699 Z-0.4 I0.6625 J-1.1475
G2 X107.2576 Y26.0224 Z-0.5333 I-1.325 J0.0
G2 Y28.3174 Z-0.6667 I0.6625 J1.1475
G2 X109.2451 Y27.1699 Z-0.8 I0.6625 J-1.1475
G2 X107.2576 Y26.0224 Z-0.9333 I-1.325 J0.0
G2 Y28.3174 Z-1.0667 I0.6625 J1.1475
G2 X109.2451 Y27.1699 Z-1.2 I0.6625 J-1.1475
G2 X107.2576 Y26.0224 Z-1.3333 I-1.325 J0.0
G2 Y28.3174 Z-1.4667 I0.6625 J1.1475
G2 X109.2451 Y27.1699 Z-1.6 I0.6625 J-1.1475
G2 X107.2576 Y26.0224 Z-1.7333 I-1.325 J0.0
G2 Y28.3174 Z-1.8667 I0.6625 J1.1475
G2 X109.2451 Y27.1699 Z-2.0 I0.6625 J-1.1475
G2 X107.2576 Y26.0224 Z-2.1333 I-1.325 J0.0
G2 Y28.3174 Z-2.2667 I0.6625 J1.1475
G2 X108.857 Y28.1068 Z-2.35 I0.6625 J-1.1475
G2 X108.263 Y25.8901 I-0.9369 J-0.9369
G2 X106.6402 Y27.5128 I-0.3429 J1.2799
G2 X108.857 Y28.1068 I1.2799 J-0.3429
G0 Z3.0
M5
M30
