( Made using CamBam - http://www.cambam.co.uk )
( midi_organ_v0.3.gcode.complete 8/21/2014 12:26:55 AM )
( T0 : 0.0 )
G21 G90 G64 G40
G0 Z3.0
( T0 : 0.0 )
T0 M6
( drill-08mm )
G17
M3 S1000
G0 X20.9251 Y25.2649
G98
G81 X20.9251 Y25.2649 Z-2.1 R3.0 F300.0
G81 Z-2.1
G81 Y27.8049
G81 Z-2.1
G81 Y30.3449
G81 Z-2.1
G81 Y32.8849
G81 Z-2.1
G81 Y35.4249
G81 Z-2.1
G81 Y37.9649
G81 Z-2.1
G81 Y40.5049
G81 Z-2.1
G81 Y43.0449
G81 Z-2.1
G81 Y45.5849
G81 Z-2.1
G81 Y48.1249
G81 Z-2.1
G81 Y50.6649
G81 Z-2.1
G81 Y53.2049
G81 Z-2.1
G81 Y55.7449
G81 Z-2.1
G81 Y58.2849
G81 Z-2.1
G81 Y60.8249
G81 Z-2.1
G81 Y63.3649
G81 Z-2.1
G81 X31.0851
G81 Z-2.1
G81 Y60.8249
G81 Z-2.1
G81 Y58.2849
G81 Z-2.1
G81 Y55.7449
G81 Z-2.1
G81 Y53.2049
G81 Z-2.1
G81 Y50.6649
G81 Z-2.1
G81 Y48.1249
G81 Z-2.1
G81 Y45.5849
G81 Z-2.1
G81 Y43.0449
G81 Z-2.1
G81 Y40.5049
G81 Z-2.1
G81 Y37.9649
G81 Z-2.1
G81 Y35.4249
G81 Z-2.1
G81 Y32.8849
G81 Z-2.1
G81 Y30.3449
G81 Z-2.1
G81 Y27.8049
G81 Z-2.1
G81 Y25.2649
G81 Z-2.1
G81 X38.0701 Y31.6149
G81 Z-2.1
G81 X40.6101 Y30.3449
G81 Z-2.1
G81 X43.1501
G81 Z-2.1
G81 X45.6901
G81 Z-2.1
G81 X48.2301
G81 Z-2.1
G81 X50.7701
G81 Z-2.1
G81 X53.3101
G81 Z-2.1
G81 X55.8501
G81 Z-2.1
G81 X58.3901
G81 Z-2.1
G81 X60.9301
G81 Z-2.1
G81 X63.4701
G81 Z-2.1
G81 X66.0101
G81 Z-2.1
G81 X68.5501
G81 Z-2.1
G81 X71.0901
G81 Z-2.1
G81 X73.6301
G81 Z-2.1
G81 X76.1701
G81 Z-2.1
G81 X78.7101
G81 Z-2.1
G81 X76.1701 Y32.8849
G81 Z-2.1
G81 X78.7101 Y35.4249
G81 Z-2.1
G81 Y37.9649
G81 Z-2.1
G81 X76.1701
G81 Z-2.1
G81 X73.6301
G81 Z-2.1
G81 X71.0901
G81 Z-2.1
G81 X68.5501
G81 Z-2.1
G81 X66.0101
G81 Z-2.1
G81 X63.4701
G81 Z-2.1
G81 X60.9301
G81 Z-2.1
G81 Y40.5049
G81 Z-2.1
G81 X63.4701 Y41.7749
G81 Z-2.1
G81 X66.0101
G81 Z-2.1
G81 Y46.8549
G81 Z-2.1
G81 X63.4701
G81 Z-2.1
G81 X60.9301
G81 Z-2.1
G81 Y50.6649
G81 Z-2.1
G81 X58.3901
G81 Z-2.1
G81 X55.8501
G81 Z-2.1
G81 X53.3101
G81 Z-2.1
G81 X50.7701
G81 Z-2.1
G81 X48.2301
G81 Z-2.1
G81 X45.6901
G81 Z-2.1
G81 X43.1501
G81 Z-2.1
G81 Y53.2049
G81 Z-2.1
G81 X40.6101 Y50.6649
G81 Z-2.1
G81 X37.4351 Y52.5699
G81 Z-2.1
G81 X35.5301 Y54.4749
G81 Z-2.1
G81 X40.6101 Y55.7449
G81 Z-2.1
G81 Y58.2849
G81 Z-2.1
G81 X43.1501
G81 Z-2.1
G81 X45.6901
G81 Z-2.1
G81 X48.2301
G81 Z-2.1
G81 X50.7701
G81 Z-2.1
G81 X53.3101
G81 Z-2.1
G81 X55.8501
G81 Z-2.1
G81 X58.3901
G81 Z-2.1
G81 X60.9301
G81 Z-2.1
G81 Y60.8249
G81 Z-2.1
G81 X63.4701 Y58.2849
G81 Z-2.1
G81 X66.0101
G81 Z-2.1
G81 X68.5501
G81 Z-2.1
G81 X71.0901
G81 Z-2.1
G81 X73.6301
G81 Z-2.1
G81 X76.1701
G81 Z-2.1
G81 X78.7101
G81 Z-2.1
G81 Y55.7449
G81 Z-2.1
G81 X81.8851
G81 Z-2.1
G81 X83.7901 Y54.4749
G81 Z-2.1
G81 X88.2351 Y53.2049
G81 Z-2.1
G81 Y55.7449
G81 Z-2.1
G81 Y58.2849
G81 Z-2.1
G81 Y60.8249
G81 Z-2.1
G81 Y63.3649
G81 Z-2.1
G81 X85.6951 Y68.4449
G81 Z-2.1
G81 X83.1551
G81 Z-2.1
G81 Y70.9849
G81 Z-2.1
G81 X85.6951
G81 Z-2.1
G81 Y73.5249
G81 Z-2.1
G81 X83.1551
G81 Z-2.1
G81 Y76.0649
G81 Z-2.1
G81 X85.6951
G81 Z-2.1
G81 Y78.6049
G81 Z-2.1
G81 X83.1551
G81 Z-2.1
G81 Y81.1449
G81 Z-2.1
G81 X81.2501 Y82.4149
G81 Z-2.1
G81 X83.1551 Y83.6849
G81 Z-2.1
G81 Y86.2249
G81 Z-2.1
G81 X85.6951
G81 Z-2.1
G81 Y83.6849
G81 Z-2.1
G81 Y81.1449
G81 Z-2.1
G81 Y90.0349
G81 Z-2.1
G81 X83.1551
G81 Z-2.1
G81 X81.2501 Y91.3049
G81 Z-2.1
G81 X83.1551 Y92.5749
G81 Z-2.1
G81 Y95.1149
G81 Z-2.1
G81 X85.6951
G81 Z-2.1
G81 Y92.5749
G81 Z-2.1
G81 Y97.6549
G81 Z-2.1
G81 X83.1551
G81 Z-2.1
G81 Y100.1949
G81 Z-2.1
G81 X85.6951
G81 Z-2.1
G81 Y102.7349
G81 Z-2.1
G81 X83.1551
G81 Z-2.1
G81 X81.2501 Y104.0049
G81 Z-2.1
G81 X83.1551 Y105.2749
G81 Z-2.1
G81 X85.6951
G81 Z-2.1
G81 Y107.8149
G81 Z-2.1
G81 X83.1551
G81 Z-2.1
G81 Y111.6249
G81 Z-2.1
G81 X81.2501 Y112.8949
G81 Z-2.1
G81 X83.1551 Y114.1649
G81 Z-2.1
G81 X85.6951
G81 Z-2.1
G81 Y111.6249
G81 Z-2.1
G81 Y116.7049
G81 Z-2.1
G81 X83.1551
G81 Z-2.1
G81 Y119.2449
G81 Z-2.1
G81 X85.6951
G81 Z-2.1
G81 Y121.7849
G81 Z-2.1
G81 X83.1551
G81 Z-2.1
G81 Y124.3249
G81 Z-2.1
G81 X85.6951
G81 Z-2.1
G81 Y126.8649
G81 Z-2.1
G81 X83.1551
G81 Z-2.1
G81 Y129.4049
G81 Z-2.1
G81 X85.6951
G81 Z-2.1
G81 X79.3451 Y125.5949
G81 Z-2.1
G81 X77.4401 Y128.1349
G81 Z-2.1
G81 X75.5351 Y129.4049
G81 Z-2.1
G81 Y126.8649
G81 Z-2.1
G81 Y124.3249
G81 Z-2.1
G81 Y121.7849
G81 Z-2.1
G81 Y119.2449
G81 Z-2.1
G81 Y116.7049
G81 Z-2.1
G81 X77.4401 Y115.4349
G81 Z-2.1
G81 X75.5351 Y114.1649
G81 Z-2.1
G81 Y111.6249
G81 Z-2.1
G81 X72.9951 Y109.7199
G81 Z-2.1
G81 X75.5351 Y107.8149
G81 Z-2.1
G81 X77.4401 Y106.5449
G81 Z-2.1
G81 X75.5351 Y105.2749
G81 Z-2.1
G81 Y102.7349
G81 Z-2.1
G81 Y100.1949
G81 Z-2.1
G81 Y97.6549
G81 Z-2.1
G81 X72.9951
G81 Z-2.1
G81 X75.5351 Y95.1149
G81 Z-2.1
G81 X77.4401 Y93.8449
G81 Z-2.1
G81 X75.5351 Y92.5749
G81 Z-2.1
G81 Y90.0349
G81 Z-2.1
G81 X72.9951 Y88.1299
G81 Z-2.1
G81 X75.5351 Y86.2249
G81 Z-2.1
G81 X77.4401 Y84.9549
G81 Z-2.1
G81 X75.5351 Y83.6849
G81 Z-2.1
G81 Y81.1449
G81 Z-2.1
G81 Y78.6049
G81 Z-2.1
G81 Y76.0649
G81 Z-2.1
G81 X72.9951
G81 Z-2.1
G81 X75.5351 Y73.5249
G81 Z-2.1
G81 Y70.9849
G81 Z-2.1
G81 X77.4401 Y69.7149
G81 Z-2.1
G81 X75.5351 Y68.4449
G81 Z-2.1
G81 X72.9951 Y69.0799
G81 Z-2.1
G81 Y71.6199
G81 Z-2.1
G81 X69.1851 Y73.5249
G81 Z-2.1
G81 X66.6451
G81 Z-2.1
G81 Y70.9849
G81 Z-2.1
G81 X64.7401 Y69.7149
G81 Z-2.1
G81 X66.6451 Y68.4449
G81 Z-2.1
G81 X72.9951 Y66.5399
G81 Z-2.1
G81 X79.3451 Y72.2549
G81 Z-2.1
G81 X69.1851 Y78.6049
G81 Z-2.1
G81 X66.6451
G81 Z-2.1
G81 Y76.0649
G81 Z-2.1
G81 Y81.1449
G81 Z-2.1
G81 X64.7401 Y82.4149
G81 Z-2.1
G81 X66.6451 Y83.6849
G81 Z-2.1
G81 Y86.2249
G81 Z-2.1
G81 X69.1851 Y88.1299
G81 Z-2.1
G81 X66.6451 Y90.0349
G81 Z-2.1
G81 X64.7401 Y91.3049
G81 Z-2.1
G81 X66.6451 Y92.5749
G81 Z-2.1
G81 Y95.1149
G81 Z-2.1
G81 Y97.6549
G81 Z-2.1
G81 Y100.1949
G81 Z-2.1
G81 X69.1851
G81 Z-2.1
G81 X66.6451 Y102.7349
G81 Z-2.1
G81 X64.7401 Y104.0049
G81 Z-2.1
G81 X66.6451 Y105.2749
G81 Z-2.1
G81 Y107.8149
G81 Z-2.1
G81 X69.1851 Y109.7199
G81 Z-2.1
G81 X66.6451 Y111.6249
G81 Z-2.1
G81 X64.7401 Y112.8949
G81 Z-2.1
G81 X66.6451 Y114.1649
G81 Z-2.1
G81 Y116.7049
G81 Z-2.1
G81 Y119.2449
G81 Z-2.1
G81 Y121.7849
G81 Z-2.1
G81 Y124.3249
G81 Z-2.1
G81 Y126.8649
G81 Z-2.1
G81 X64.7401 Y128.1349
G81 Z-2.1
G81 X66.6451 Y129.4049
G81 Z-2.1
G81 X69.1851 Y131.3099
G81 Z-2.1
G81 Y126.2299
G81 Z-2.1
G81 Y123.6899
G81 Z-2.1
G81 X71.0901 Y121.7849
G81 Z-2.1
G81 Y119.2449
G81 Z-2.1
G81 Y116.7049
G81 Z-2.1
G81 X72.9951 Y114.7999
G81 Z-2.1
G81 X79.3451 Y117.9749
G81 Z-2.1
G81 X95.8551 Y116.7049
G81 Z-2.1
G81 Y119.2449
G81 Z-2.1
G81 Y121.7849
G81 Z-2.1
G81 Y124.3249
G81 Z-2.1
G81 Y126.8649
G81 Z-2.1
G81 Y129.4049
G81 Z-2.1
G81 X94.5851 Y133.8499
G81 Z-2.1
G81 X97.1251
G81 Z-2.1
G81 Y138.9299
G81 Z-2.1
G81 X94.5851
G81 Z-2.1
G81 X90.7751
G81 Z-2.1
G81 Y136.3899
G81 Z-2.1
G81 X80.6151
G81 Z-2.1
G81 Y138.9299
G81 Z-2.1
G81 X75.5351 Y142.7399
G81 Z-2.1
G81 X74.2651 Y146.5499
G81 Z-2.1
G81 X75.5351 Y150.3599
G81 Z-2.1
G81 X78.0751
G81 Z-2.1
G81 X76.8051 Y157.3449
G81 Z-2.1
G81 X78.7101 Y158.6149
G81 Z-2.1
G81 Y161.1549
G81 Z-2.1
G81 X76.1701
G81 Z-2.1
G81 X73.6301
G81 Z-2.1
G81 Y158.6149
G81 Z-2.1
G81 X71.0901 Y159.8849
G81 Z-2.1
G81 X64.1051 Y159.2499
G81 Z-2.1
G81 Y156.7099
G81 Z-2.1
G81 Y154.1699
G81 Z-2.1
G81 X62.2001 Y152.8999
G81 Z-2.1
G81 X64.1051 Y151.6299
G81 Z-2.1
G81 Y149.0899
G81 Z-2.1
G81 Y146.5499
G81 Z-2.1
G81 Y144.0099
G81 Z-2.1
G81 Y141.4699
G81 Z-2.1
G81 Y138.9299
G81 Z-2.1
G81 X62.2001 Y137.6599
G81 Z-2.1
G81 X64.1051 Y136.3899
G81 Z-2.1
G81 X62.8351 Y131.3099
G81 Z-2.1
G81 X60.2951
G81 Z-2.1
G81 X59.0251 Y129.4049
G81 Z-2.1
G81 Y126.8649
G81 Z-2.1
G81 Y124.3249
G81 Z-2.1
G81 X56.4851
G81 Z-2.1
G81 Y126.8649
G81 Z-2.1
G81 Y129.4049
G81 Z-2.1
G81 Y132.7069
G81 Z-2.1
G81 Y136.3899
G81 Z-2.1
G81 Y138.9299
G81 Z-2.1
G81 Y141.4699
G81 Z-2.1
G81 X58.3901 Y142.7399
G81 Z-2.1
G81 X56.4851 Y144.0099
G81 Z-2.1
G81 Y146.5499
G81 Z-2.1
G81 Y149.0899
G81 Z-2.1
G81 Y151.6299
G81 Z-2.1
G81 X58.3901 Y152.8999
G81 Z-2.1
G81 X56.4851 Y154.1699
G81 Z-2.1
G81 Y156.7099
G81 Z-2.1
G81 Y159.2499
G81 Z-2.1
G81 Y161.7899
G81 Z-2.1
G81 Y164.3299
G81 Z-2.1
G81 Y166.8699
G81 Z-2.1
G81 Y169.4099
G81 Z-2.1
G81 X61.5651
G81 Z-2.1
G81 X64.1051
G81 Z-2.1
G81 Y166.8699
G81 Z-2.1
G81 Y164.3299
G81 Z-2.1
G81 Y161.7899
G81 Z-2.1
G81 X66.6451 Y166.8699
G81 Z-2.1
G81 X71.0901 Y171.9499
G81 Z-2.1
G81 X71.7251 Y175.1249
G81 Z-2.1
G81 X69.1851 Y177.6649
G81 Z-2.1
G81 Y182.7449
G81 Z-2.1
G81 X64.1051 Y183.3799
G81 Z-2.1
G81 X59.0251 Y182.7449
G81 Z-2.1
G81 Y177.6649
G81 Z-2.1
G81 X56.4851 Y175.1249
G81 Z-2.1
G81 X51.4051 Y177.6649
G81 Z-2.1
G81 X46.3251 Y175.1249
G81 Z-2.1
G81 X43.7851 Y177.6649
G81 Z-2.1
G81 Y182.7449
G81 Z-2.1
G81 X38.0701 Y175.7599
G81 Z-2.1
G81 Y171.9499
G81 Z-2.1
G81 X30.4501
G81 Z-2.1
G81 Y166.8699
G81 Z-2.1
G81 X25.3701 Y164.9649
G81 Z-2.1
G81 X22.8301 Y159.2499
G81 Z-2.1
G81 X25.3701 Y154.1699
G81 Z-2.1
G81 X30.4501 Y159.2499
G81 Z-2.1
G81 X38.0701
G81 Z-2.1
G81 Y154.1699
G81 Z-2.1
G81 X41.2451 Y149.0899
G81 Z-2.1
G81 X44.4201
G81 Z-2.1
G81 Y145.2799
G81 Z-2.1
G81 X41.2451
G81 Z-2.1
G81 X36.7493
G81 Z-2.1
G81 X34.2601
G81 Z-2.1
G81 Y149.0899
G81 Z-2.1
G81 X36.7493 Y138.7775
G81 Z-2.1
G81 X41.2451
G81 Z-2.1
G81 X40.6101 Y136.3899
G81 Z-2.1
G81 X38.7051 Y133.8499
G81 Z-2.1
G81 X44.4201 Y131.9449
G81 Z-2.1
G81 X46.3251 Y129.4049
G81 Z-2.1
G81 Y126.8649
G81 Z-2.1
G81 Y124.3249
G81 Z-2.1
G81 Y121.7849
G81 Z-2.1
G81 Y119.2449
G81 Z-2.1
G81 Y116.7049
G81 Z-2.1
G81 Y114.1649
G81 Z-2.1
G81 Y111.6249
G81 Z-2.1
G81 Y107.8149
G81 Z-2.1
G81 Y105.2749
G81 Z-2.1
G81 Y102.7349
G81 Z-2.1
G81 Y100.1949
G81 Z-2.1
G81 Y97.6549
G81 Z-2.1
G81 Y95.1149
G81 Z-2.1
G81 Y92.5749
G81 Z-2.1
G81 Y90.0349
G81 Z-2.1
G81 Y86.2249
G81 Z-2.1
G81 Y83.6849
G81 Z-2.1
G81 Y81.1449
G81 Z-2.1
G81 Y78.6049
G81 Z-2.1
G81 Y76.0649
G81 Z-2.1
G81 Y73.5249
G81 Z-2.1
G81 Y70.9849
G81 Z-2.1
G81 Y68.4449
G81 Z-2.1
G81 X54.5801 Y65.9049
G81 Z-2.1
G81 X56.4851 Y68.4449
G81 Z-2.1
G81 X59.0251
G81 Z-2.1
G81 Y70.9849
G81 Z-2.1
G81 Y73.5249
G81 Z-2.1
G81 X56.4851
G81 Z-2.1
G81 Y70.9849
G81 Z-2.1
G81 Y76.0649
G81 Z-2.1
G81 Y78.6049
G81 Z-2.1
G81 X59.0251
G81 Z-2.1
G81 Y76.0649
G81 Z-2.1
G81 Y81.1449
G81 Z-2.1
G81 X56.4851
G81 Z-2.1
G81 Y83.6849
G81 Z-2.1
G81 Y86.2249
G81 Z-2.1
G81 X59.0251
G81 Z-2.1
G81 X60.9301 Y84.9549
G81 Z-2.1
G81 X59.0251 Y83.6849
G81 Z-2.1
G81 X62.8351 Y79.8749
G81 Z-2.1
G81 X69.1851 Y83.0499
G81 Z-2.1
G81 X72.9951 Y93.2099
G81 Z-2.1
G81 X79.3451 Y96.3849
G81 Z-2.1
G81 X69.1851 Y104.6399
G81 Z-2.1
G81 X62.8351 Y101.4649
G81 Z-2.1
G81 X59.0251 Y100.1949
G81 Z-2.1
G81 Y97.6549
G81 Z-2.1
G81 X56.4851
G81 Z-2.1
G81 Y100.1949
G81 Z-2.1
G81 Y102.7349
G81 Z-2.1
G81 Y105.2749
G81 Z-2.1
G81 X59.0251
G81 Z-2.1
G81 X60.9301 Y106.5449
G81 Z-2.1
G81 X59.0251 Y107.8149
G81 Z-2.1
G81 X56.4851
G81 Z-2.1
G81 Y111.6249
G81 Z-2.1
G81 Y114.1649
G81 Z-2.1
G81 X59.0251
G81 Z-2.1
G81 X60.9301 Y115.4349
G81 Z-2.1
G81 X59.0251 Y116.7049
G81 Z-2.1
G81 Y119.2449
G81 Z-2.1
G81 X56.4851
G81 Z-2.1
G81 Y116.7049
G81 Z-2.1
G81 Y121.7849
G81 Z-2.1
G81 X59.0251
G81 Z-2.1
G81 X62.8351 Y125.5949
G81 Z-2.1
G81 X51.4051 Y130.0399
G81 Z-2.1
G81 X49.5001 Y133.8499
G81 Z-2.1
G81 X52.0401 Y137.6599
G81 Z-2.1
G81 Y141.4699
G81 Z-2.1
G81 X53.9451 Y144.0099
G81 Z-2.1
G81 X52.0401 Y146.5499
G81 Z-2.1
G81 X44.4201 Y136.3899
G81 Z-2.1
G81 X66.6451 Y150.3599
G81 Z-2.1
G81 Y152.8999
G81 Z-2.1
G81 X70.4551 Y150.3599
G81 Z-2.1
G81 X69.1851 Y146.5499
G81 Z-2.1
G81 X70.4551 Y142.7399
G81 Z-2.1
G81 X81.2501 Y161.1549
G81 Z-2.1
G81 X83.7901
G81 Z-2.1
G81 X86.3301
G81 Z-2.1
G81 X88.8701
G81 Z-2.1
G81 X91.4101
G81 Z-2.1
G81 Y166.2349
G81 Z-2.1
G81 Y168.7749
G81 Z-2.1
G81 X88.8701
G81 Z-2.1
G81 X86.3301
G81 Z-2.1
G81 X83.7901
G81 Z-2.1
G81 X81.2501
G81 Z-2.1
G81 X78.7101
G81 Z-2.1
G81 X76.1701
G81 Z-2.1
G81 X73.6301
G81 Z-2.1
G81 X81.2501 Y171.9499
G81 Z-2.1
G81 X81.8851 Y175.1249
G81 Z-2.1
G81 X84.4251 Y177.6649
G81 Z-2.1
G81 Y182.7449
G81 Z-2.1
G81 X88.8701
G81 Z-2.1
G81 Y186.5549
G81 Z-2.1
G81 X91.4101 Y178.9349
G81 Z-2.1
G81 X99.0301
G81 Z-2.1
G81 X104.7451
G81 Z-2.1
G81 X107.2851
G81 Z-2.1
G81 X109.8251
G81 Z-2.1
G81 Y186.5549
G81 Z-2.1
G81 X107.2851
G81 Z-2.1
G81 X104.7451
G81 Z-2.1
G81 X99.0301
G81 Z-2.1
G81 X76.8051 Y177.6649
G81 Z-2.1
G81 X64.1051 Y173.2199
G81 Z-2.1
G81 X22.8301 Y171.9499
G81 Z-2.1
G81 X59.0251 Y111.6249
G81 Z-2.1
G81 Y102.7349
G81 Z-2.1
G81 Y95.1149
G81 Z-2.1
G81 X60.9301 Y93.8449
G81 Z-2.1
G81 X59.0251 Y92.5749
G81 Z-2.1
G81 X56.4851
G81 Z-2.1
G81 Y95.1149
G81 Z-2.1
G81 Y90.0349
G81 Z-2.1
G81 X59.0251
G81 Z-2.1
G81 X55.2151 Y62.0949
G81 Z-2.1
G81 X54.5801 Y54.4749
G81 Z-2.1
G81 X63.4701 Y50.6649
G81 Z-2.1
G81 X66.0101
G81 Z-2.1
G81 X68.5501
G81 Z-2.1
G81 X71.0901
G81 Z-2.1
G81 X73.6301
G81 Z-2.1
G81 X76.1701
G81 Z-2.1
G81 X78.7101
G81 Z-2.1
G81 X76.1701 Y53.2049
G81 Z-2.1
G81 X64.7401 Y54.4749
G81 Z-2.1
G81 X55.8501 Y44.3149
G81 Z-2.1
G81 Y37.9649
G81 Z-2.1
G81 X58.3901
G81 Z-2.1
G81 X53.3101
G81 Z-2.1
G81 X50.7701
G81 Z-2.1
G81 X48.2301
G81 Z-2.1
G81 X45.6901
G81 Z-2.1
G81 X43.1501
G81 Z-2.1
G81 X40.6101
G81 Z-2.1
G81 Y35.4249
G81 Z-2.1
G81 X43.1501 Y32.8849
G81 Z-2.1
G81 X35.5301 Y34.1549
G81 Z-2.1
G81 X54.5801
G81 Z-2.1
G81 Y26.5349
G81 Z-2.1
G81 X57.1201
G81 Z-2.1
G81 Y23.9949
G81 Z-2.1
G81 X62.2001
G81 Z-2.1
G81 Y26.5349
G81 Z-2.1
G81 X64.7401 Y34.1549
G81 Z-2.1
G81 X81.8851 Y35.4249
G81 Z-2.1
G81 X83.7901 Y34.1549
G81 Z-2.1
G81 X88.2351 Y32.8849
G81 Z-2.1
G81 Y35.4249
G81 Z-2.1
G81 Y37.9649
G81 Z-2.1
G81 Y40.5049
G81 Z-2.1
G81 Y43.0449
G81 Z-2.1
G81 Y45.5849
G81 Z-2.1
G81 Y48.1249
G81 Z-2.1
G81 Y50.6649
G81 Z-2.1
G81 X98.3951
G81 Z-2.1
G81 Y53.2049
G81 Z-2.1
G81 Y55.7449
G81 Z-2.1
G81 Y58.2849
G81 Z-2.1
G81 Y60.8249
G81 Z-2.1
G81 Y63.3649
G81 Z-2.1
G81 X95.8551 Y68.4449
G81 Z-2.1
G81 Y70.9849
G81 Z-2.1
G81 Y73.5249
G81 Z-2.1
G81 Y76.0649
G81 Z-2.1
G81 Y78.6049
G81 Z-2.1
G81 Y81.1449
G81 Z-2.1
G81 Y83.6849
G81 Z-2.1
G81 Y86.2249
G81 Z-2.1
G81 Y90.0349
G81 Z-2.1
G81 Y92.5749
G81 Z-2.1
G81 Y95.1149
G81 Z-2.1
G81 Y97.6549
G81 Z-2.1
G81 Y100.1949
G81 Z-2.1
G81 Y102.7349
G81 Z-2.1
G81 Y105.2749
G81 Z-2.1
G81 Y107.8149
G81 Z-2.1
G81 Y111.6249
G81 Z-2.1
G81 Y114.1649
G81 Z-2.1
G81 X98.3951 Y48.1249
G81 Z-2.1
G81 Y45.5849
G81 Z-2.1
G81 Y43.0449
G81 Z-2.1
G81 Y40.5049
G81 Z-2.1
G81 Y37.9649
G81 Z-2.1
G81 Y35.4249
G81 Z-2.1
G81 Y32.8849
G81 Z-2.1
G81 Y30.3449
G81 Z-2.1
G81 Y27.8049
G81 Z-2.1
G81 Y25.2649
G81 Z-2.1
G81 X88.2351
G81 Z-2.1
G81 Y27.8049
G81 Z-2.1
G81 Y30.3449
G81 Z-2.1
G80
G0 Z3.0
M5
M30
