( Made using CamBam - http://www.cambam.co.uk )
( midi_organ_v0.3.gcode.complete 8/21/2014 12:30:55 AM )
( T0 : 1.0 )
G21 G90 G64 G40
G0 Z3.0
( T0 : 1.0 )
T0 M6
( drill-3.25mm )
G17
M3 S1000
G0 X24.1001 Y185.9199
G0 Z3.0
G0 X25.2251 Y185.9199
G0 Z1.0
G1 F300.0 Z0.0
G2 F80.0 X23.5376 Y184.9456 Z-0.1667 I-1.125 J0.0
G2 Y186.8942 Z-0.3333 I0.5625 J0.9743
G2 X25.2251 Y185.9199 Z-0.5 I0.5625 J-0.9743
G2 X23.5376 Y184.9456 Z-0.6667 I-1.125 J0.0
G2 Y186.8942 Z-0.8333 I0.5625 J0.9743
G2 X25.2251 Y185.9199 Z-1.0 I0.5625 J-0.9743
G2 X23.5376 Y184.9456 Z-1.1667 I-1.125 J0.0
G2 Y186.8942 Z-1.3333 I0.5625 J0.9743
G2 X25.2251 Y185.9199 Z-1.5 I0.5625 J-0.9743
G2 X23.5376 Y184.9456 Z-1.6667 I-1.125 J0.0
G2 Y186.8942 Z-1.8333 I0.5625 J0.9743
G2 X25.2251 Y185.9199 Z-2.0 I0.5625 J-0.9743
G2 X24.4477 Y184.85 Z-2.1 I-1.125 J0.0
G2 X22.9996 Y186.1538 I-0.3476 J1.0699
G2 X24.8528 Y186.756 I1.1004 J-0.2339
G2 X24.4477 Y184.85 I-0.7528 J-0.836
G0 Z3.0
G0 X25.2251 Y185.9199
G1 F300.0 Z0.0
G2 F80.0 X23.5376 Y184.9456 Z-0.1667 I-1.125 J0.0
G2 Y186.8942 Z-0.3333 I0.5625 J0.9743
G2 X25.2251 Y185.9199 Z-0.5 I0.5625 J-0.9743
G2 X23.5376 Y184.9456 Z-0.6667 I-1.125 J0.0
G2 Y186.8942 Z-0.8333 I0.5625 J0.9743
G2 X25.2251 Y185.9199 Z-1.0 I0.5625 J-0.9743
G2 X23.5376 Y184.9456 Z-1.1667 I-1.125 J0.0
G2 Y186.8942 Z-1.3333 I0.5625 J0.9743
G2 X25.2251 Y185.9199 Z-1.5 I0.5625 J-0.9743
G2 X23.5376 Y184.9456 Z-1.6667 I-1.125 J0.0
G2 Y186.8942 Z-1.8333 I0.5625 J0.9743
G2 X25.2251 Y185.9199 Z-2.0 I0.5625 J-0.9743
G2 X24.4477 Y184.85 Z-2.1 I-1.125 J0.0
G2 X22.9996 Y186.1538 I-0.3476 J1.0699
G2 X24.8528 Y186.756 I1.1004 J-0.2339
G2 X24.4477 Y184.85 I-0.7528 J-0.836
G0 Z3.0
G0 X109.0451 Y150.3599
G0 Z1.0
G1 F300.0 Z0.0
G2 F80.0 X107.3576 Y149.3856 Z-0.1667 I-1.125 J0.0
G2 Y151.3342 Z-0.3333 I0.5625 J0.9743
G2 X109.0451 Y150.3599 Z-0.5 I0.5625 J-0.9743
G2 X107.3576 Y149.3856 Z-0.6667 I-1.125 J0.0
G2 Y151.3342 Z-0.8333 I0.5625 J0.9743
G2 X109.0451 Y150.3599 Z-1.0 I0.5625 J-0.9743
G2 X107.3576 Y149.3856 Z-1.1667 I-1.125 J0.0
G2 Y151.3342 Z-1.3333 I0.5625 J0.9743
G2 X109.0451 Y150.3599 Z-1.5 I0.5625 J-0.9743
G2 X107.3576 Y149.3856 Z-1.6667 I-1.125 J0.0
G2 Y151.3342 Z-1.8333 I0.5625 J0.9743
G2 X109.0451 Y150.3599 Z-2.0 I0.5625 J-0.9743
G2 X108.2677 Y149.29 Z-2.1 I-1.125 J0.0
G2 X106.8196 Y150.5938 I-0.3476 J1.0699
G2 X108.6728 Y151.196 I1.1004 J-0.2339
G2 X108.2677 Y149.29 I-0.7528 J-0.836
G0 Z3.0
G0 X109.0451 Y150.3599
G1 F300.0 Z0.0
G2 F80.0 X107.3576 Y149.3856 Z-0.1667 I-1.125 J0.0
G2 Y151.3342 Z-0.3333 I0.5625 J0.9743
G2 X109.0451 Y150.3599 Z-0.5 I0.5625 J-0.9743
G2 X107.3576 Y149.3856 Z-0.6667 I-1.125 J0.0
G2 Y151.3342 Z-0.8333 I0.5625 J0.9743
G2 X109.0451 Y150.3599 Z-1.0 I0.5625 J-0.9743
G2 X107.3576 Y149.3856 Z-1.1667 I-1.125 J0.0
G2 Y151.3342 Z-1.3333 I0.5625 J0.9743
G2 X109.0451 Y150.3599 Z-1.5 I0.5625 J-0.9743
G2 X107.3576 Y149.3856 Z-1.6667 I-1.125 J0.0
G2 Y151.3342 Z-1.8333 I0.5625 J0.9743
G2 X109.0451 Y150.3599 Z-2.0 I0.5625 J-0.9743
G2 X108.2677 Y149.29 Z-2.1 I-1.125 J0.0
G2 X106.8196 Y150.5938 I-0.3476 J1.0699
G2 X108.6728 Y151.196 I1.1004 J-0.2339
G2 X108.2677 Y149.29 I-0.7528 J-0.836
G0 Z3.0
G0 X25.2251 Y70.3499
G0 Z1.0
G1 F300.0 Z0.0
G2 F80.0 X23.5376 Y69.3756 Z-0.1667 I-1.125 J0.0
G2 Y71.3242 Z-0.3333 I0.5625 J0.9743
G2 X25.2251 Y70.3499 Z-0.5 I0.5625 J-0.9743
G2 X23.5376 Y69.3756 Z-0.6667 I-1.125 J0.0
G2 Y71.3242 Z-0.8333 I0.5625 J0.9743
G2 X25.2251 Y70.3499 Z-1.0 I0.5625 J-0.9743
G2 X23.5376 Y69.3756 Z-1.1667 I-1.125 J0.0
G2 Y71.3242 Z-1.3333 I0.5625 J0.9743
G2 X25.2251 Y70.3499 Z-1.5 I0.5625 J-0.9743
G2 X23.5376 Y69.3756 Z-1.6667 I-1.125 J0.0
G2 Y71.3242 Z-1.8333 I0.5625 J0.9743
G2 X25.2251 Y70.3499 Z-2.0 I0.5625 J-0.9743
G2 X24.4477 Y69.28 Z-2.1 I-1.125 J0.0
G2 X22.9996 Y70.5838 I-0.3476 J1.0699
G2 X24.8528 Y71.186 I1.1004 J-0.2339
G2 X24.4477 Y69.28 I-0.7528 J-0.836
G0 Z3.0
G0 X25.2251 Y70.3499
G1 F300.0 Z0.0
G2 F80.0 X23.5376 Y69.3756 Z-0.1667 I-1.125 J0.0
G2 Y71.3242 Z-0.3333 I0.5625 J0.9743
G2 X25.2251 Y70.3499 Z-0.5 I0.5625 J-0.9743
G2 X23.5376 Y69.3756 Z-0.6667 I-1.125 J0.0
G2 Y71.3242 Z-0.8333 I0.5625 J0.9743
G2 X25.2251 Y70.3499 Z-1.0 I0.5625 J-0.9743
G2 X23.5376 Y69.3756 Z-1.1667 I-1.125 J0.0
G2 Y71.3242 Z-1.3333 I0.5625 J0.9743
G2 X25.2251 Y70.3499 Z-1.5 I0.5625 J-0.9743
G2 X23.5376 Y69.3756 Z-1.6667 I-1.125 J0.0
G2 Y71.3242 Z-1.8333 I0.5625 J0.9743
G2 X25.2251 Y70.3499 Z-2.0 I0.5625 J-0.9743
G2 X24.4477 Y69.28 Z-2.1 I-1.125 J0.0
G2 X22.9996 Y70.5838 I-0.3476 J1.0699
G2 X24.8528 Y71.186 I1.1004 J-0.2339
G2 X24.4477 Y69.28 I-0.7528 J-0.836
G0 Z3.0
G0 X109.0451 Y27.1699
G0 Z1.0
G1 F300.0 Z0.0
G2 F80.0 X107.3576 Y26.1956 Z-0.1667 I-1.125 J0.0
G2 Y28.1442 Z-0.3333 I0.5625 J0.9743
G2 X109.0451 Y27.1699 Z-0.5 I0.5625 J-0.9743
G2 X107.3576 Y26.1956 Z-0.6667 I-1.125 J0.0
G2 Y28.1442 Z-0.8333 I0.5625 J0.9743
G2 X109.0451 Y27.1699 Z-1.0 I0.5625 J-0.9743
G2 X107.3576 Y26.1956 Z-1.1667 I-1.125 J0.0
G2 Y28.1442 Z-1.3333 I0.5625 J0.9743
G2 X109.0451 Y27.1699 Z-1.5 I0.5625 J-0.9743
G2 X107.3576 Y26.1956 Z-1.6667 I-1.125 J0.0
G2 Y28.1442 Z-1.8333 I0.5625 J0.9743
G2 X109.0451 Y27.1699 Z-2.0 I0.5625 J-0.9743
G2 X108.2677 Y26.1 Z-2.1 I-1.125 J0.0
G2 X106.8196 Y27.4038 I-0.3476 J1.0699
G2 X108.6728 Y28.006 I1.1004 J-0.2339
G2 X108.2677 Y26.1 I-0.7528 J-0.836
G0 Z3.0
G0 X109.0451 Y27.1699
G1 F300.0 Z0.0
G2 F80.0 X107.3576 Y26.1956 Z-0.1667 I-1.125 J0.0
G2 Y28.1442 Z-0.3333 I0.5625 J0.9743
G2 X109.0451 Y27.1699 Z-0.5 I0.5625 J-0.9743
G2 X107.3576 Y26.1956 Z-0.6667 I-1.125 J0.0
G2 Y28.1442 Z-0.8333 I0.5625 J0.9743
G2 X109.0451 Y27.1699 Z-1.0 I0.5625 J-0.9743
G2 X107.3576 Y26.1956 Z-1.1667 I-1.125 J0.0
G2 Y28.1442 Z-1.3333 I0.5625 J0.9743
G2 X109.0451 Y27.1699 Z-1.5 I0.5625 J-0.9743
G2 X107.3576 Y26.1956 Z-1.6667 I-1.125 J0.0
G2 Y28.1442 Z-1.8333 I0.5625 J0.9743
G2 X109.0451 Y27.1699 Z-2.0 I0.5625 J-0.9743
G2 X108.2677 Y26.1 Z-2.1 I-1.125 J0.0
G2 X106.8196 Y27.4038 I-0.3476 J1.0699
G2 X108.6728 Y28.006 I1.1004 J-0.2339
G2 X108.2677 Y26.1 I-0.7528 J-0.836
G0 Z3.0
M5
M30
