( Made using CamBam - http://www.cambam.co.uk )
( midi_organ_v0.3.gcode.complete 8/21/2014 12:08:08 AM )
( T0 : 0.6 )
G21 G90 G64 G40
G0 Z3.0
( T0 : 0.6 )
T0 M6
( bottom )
G17
M3 S1000
G0 X84.2674 Y186.9898
G0 Z1.0
G1 F300.0 Z-0.2
G1 F80.0 X84.1933 Y186.989
G1 X77.2083 Y180.0463
G1 X63.8733 Y180.004
G1 X63.6193 Y179.75
G1 X63.577 Y174.1197
G1 X63.1113 Y173.654
G1 X63.0267 Y173.3153
G1 Y173.1037
G1 X63.1113 Y172.765
G1 X63.6193 Y172.257
G1 X63.958 Y172.1723
G1 X64.1697
G1 X64.5083 Y172.257
G1 X64.974 Y172.7227
G1 X68.022
G1 X68.0643 Y169.209
G1 X68.9533 Y168.32
G1 X72.6787 Y168.2777
G1 X73.1443 Y167.812
G1 X73.483 Y167.7273
G1 X73.6947
G1 X74.0333 Y167.812
G1 X74.499 Y168.2777
G1 X75.0493
G1 Y167.685
G1 X77.2083
G1 Y169.844
G1 X75.0493
G1 Y169.2513
G1 X74.499
G1 X74.0333 Y169.717
G1 X73.6947 Y169.8017
G1 X73.483
G1 X73.1443 Y169.717
G1 X72.6787 Y169.2513
G1 X69.292
G1 X68.9957 Y169.59
G1 X68.9533 Y173.4
G1 X68.6993 Y173.654
G1 X64.974 Y173.6963
G1 X64.5507 Y174.1197
G1 Y179.0727
G1 X77.5893 Y179.115
G1 X84.5743 Y186.0577
G1 X87.9187
G1 X88.3843 Y185.592
G1 X88.723 Y185.5073
G1 X88.9347
G1 X89.2733 Y185.592
G1 X89.7813 Y186.1
G1 X89.866 Y186.4387
G1 Y186.6503
G1 X89.7813 Y186.989
G1 X89.2733 Y187.497
G1 X88.9347 Y187.5817
G1 X88.6383
G1 X88.3843 Y187.497
G1 X87.9187 Y187.0313
G1 X84.2674 Y186.9898
G0 Z3.0
G0 X84.151 Y184.2797
G0 Z1.0
G1 F300.0 Z-0.2
G1 F80.0 X83.8123 Y184.1527
G1 X83.4737 Y183.9833
G1 X83.0927 Y183.56
G1 X82.881 Y183.0943
G1 Y182.3747
G1 X83.0927 Y181.8667
G1 X83.5583 Y181.4433
G1 X84.024 Y181.2317
G1 X84.7437
G1 X85.2093 Y181.4433
G1 X85.675 Y181.8667
G1 X85.8867 Y182.3747
G1 Y183.0943
G1 X85.675 Y183.6023
G1 X85.2093 Y184.0257
G1 X84.7437 Y184.2373
G1 X84.151 Y184.2797
G0 Z3.0
G0 X87.8763 Y183.179
G0 Z1.0
G1 F300.0 Z-0.2
G1 F80.0 X87.7917 Y182.8403
G1 Y182.6287
G1 X87.8763 Y182.29
G1 X88.3843 Y181.782
G1 X88.723 Y181.6973
G1 X88.9347
G1 X89.2733 Y181.782
G1 X89.7813 Y182.29
G1 X89.866 Y182.6287
G1 Y182.8403
G1 X89.7813 Y183.179
G1 X89.3157 Y183.6447
G1 Y184.1527
G1 X95.962
G1 Y183.6447
G1 X95.4963 Y183.179
G1 X95.4117 Y182.8403
G1 Y182.6287
G1 X95.4963 Y182.29
G1 X96.0043 Y181.782
G1 X96.343 Y181.6973
G1 X96.5547
G1 X96.8933 Y181.782
G1 X97.4013 Y182.29
G1 X97.486 Y182.6287
G1 Y182.8403
G1 X97.4013 Y183.179
G1 X96.9357 Y183.6447
G1 X96.8933 Y184.83
G1 X96.6393 Y185.084
G1 X88.723 Y185.1263
G1 X88.5537 Y185.0417
G1 X88.3843 Y184.83
G1 X88.342 Y183.6447
G1 X87.8763 Y183.179
G0 Z3.0
G0 Y180.004
G0 Z1.0
G1 F300.0 Z-0.2
G1 F80.0 X81.6533
G1 X81.3993 Y179.75
G1 X81.357 Y176.194
G1 X81.1453 Y176.1093
G1 X80.7643 Y175.686
G1 X80.6373 Y175.2627
G1 Y174.9663
G1 X80.7643 Y174.543
G1 X81.2723 Y174.035
G1 X81.6957 Y173.908
G1 X81.992
G1 X82.4153 Y174.035
G1 X82.9233 Y174.543
G1 X83.0503 Y174.9663
G1 Y175.2627
G1 X82.9233 Y175.686
G1 X82.5423 Y176.1093
G1 X82.3307 Y176.194
G1 Y179.0727
G1 X88.6383
G1 X89.2733 Y178.48
G1 X90.4587 Y178.4377
G1 X90.9243 Y177.972
G1 X91.263 Y177.8873
G1 X91.4747
G1 X91.8133 Y177.972
G1 X92.3213 Y178.48
G1 X92.406 Y178.8187
G1 Y179.0303
G1 X92.3213 Y179.369
G1 X91.8557 Y179.8347
G1 Y180.3427
G1 X109.297
G1 Y180.004
G1 X108.7043
G1 Y177.845
G1 X110.8633
G1 Y180.004
G1 X110.2707
G1 X110.2283 Y181.02
G1 X109.9743 Y181.274
G1 X94.3957 Y181.3163
G1 Y181.8243
G1 X94.8613 Y182.29
G1 X94.946 Y182.6287
G1 Y182.8403
G1 X94.8613 Y183.179
G1 X94.3533 Y183.687
G1 X94.0147 Y183.7717
G1 X93.7183
G1 X93.4643 Y183.687
G1 X92.9563 Y183.179
G1 X92.8717 Y182.8403
G1 Y182.6287
G1 X92.9563 Y182.29
G1 X93.422 Y181.8243
G1 Y181.3163
G1 X91.1783 Y181.274
G1 X90.9243 Y181.02
G1 X90.882 Y179.8347
G1 X90.4587 Y179.4113
G1 X89.6543
G1 X89.0193 Y180.004
G1 X87.8763
G0 Z3.0
G0 X85.4633 Y178.226
G0 Z1.0
G1 F300.0 Z-0.2
G1 F80.0 X84.9553 Y178.734
G1 X84.532 Y178.861
G1 X84.1933
G1 X83.8123 Y178.734
G1 X83.3043 Y178.226
G1 X83.1773 Y177.8027
G1 Y177.5063
G1 X83.3043 Y177.083
G1 X83.8123 Y176.575
G1 X84.2357 Y176.448
G1 X84.532
G1 X84.9553 Y176.575
G1 X85.4633 Y177.083
G1 X85.5903 Y177.5063
G1 Y177.8027
G1 X85.4633 Y178.226
G0 Z3.0
G0 X85.4699 Y176.194
G0 Z1.0
G1 F300.0 Z-0.2
G1 F80.0 X85.4633
G1 X81.9073 Y172.6803
G1 X81.611 Y172.892
G1 X81.357 Y172.9767
G1 X81.103
G1 X80.7643 Y172.892
G1 X80.2563 Y172.384
G1 X80.1717 Y172.0453
G1 Y171.8337
G1 X80.2563 Y171.495
G1 X80.7643 Y170.987
G1 X81.103 Y170.9023
G1 X81.3147
G1 X81.6533 Y170.987
G1 X82.0767 Y171.368
G1 X82.2037 Y171.6643
G1 X85.8443 Y175.2627
G1 X106.1643 Y175.305
G1 X107.6883 Y176.829
G1 X107.7307 Y178.0143
G1 X108.1963 Y178.48
G1 X108.281 Y178.8187
G1 Y179.0303
G1 X108.1963 Y179.369
G1 X107.6883 Y179.877
G1 X107.3497 Y179.9617
G1 X107.138
G1 X106.7993 Y179.877
G1 X106.2913 Y179.369
G1 X106.2067 Y179.0303
G1 Y178.8187
G1 X106.2913 Y178.48
G1 X106.757 Y178.0143
G1 Y177.1677
G1 X105.7833 Y176.2363
G1 X99.4757
G1 Y177.845
G1 X100.0683
G1 Y180.004
G1 X97.9093
G1 Y177.845
G1 X98.502
G1 Y176.2363
G1 X85.4699 Y176.194
G0 Z3.0
G0 X86.6487 Y174.8817
G0 Z1.0
G1 F300.0 Z-0.2
G1 F80.0 X81.5687 Y169.7593
G1 X81.1453 Y169.8017
G1 X80.7643 Y169.717
G1 X80.2563 Y169.209
G1 X80.1717 Y168.8703
G1 Y168.6587
G1 X80.2563 Y168.32
G1 X80.7643 Y167.812
G1 X81.103 Y167.7273
G1 X81.3147
G1 X81.6533 Y167.812
G1 X82.1613 Y168.32
G1 X82.246 Y168.701
G1 X82.2037 Y169.082
G1 X87.072 Y173.9927
G1 X94.7343
G1 Y172.765
G1 X96.8933
G1 Y173.3577
G1 X99.8143
G1 Y172.765
G1 X101.9733
G1 Y173.3577
G1 X104.8943
G1 Y172.765
G1 X107.0533
G1 Y173.3577
G1 X109.9743
G1 Y172.765
G1 X112.1333
G1 Y174.924
G1 X109.9743
G1 Y174.3313
G1 X107.0533
G1 Y174.924
G1 X104.8943
G1 Y174.3313
G1 X101.9733
G1 Y174.924
G1 X99.8143
G1 Y174.3313
G1 X96.8933
G1 Y174.924
G1 X94.4803 Y174.9663
G1 X86.818
G1 X86.6487 Y174.8817
G0 Z3.0
G0 X87.9187 Y173.6117
G0 Z1.0
G1 F300.0 Z-0.2
G1 F80.0 X84.1087 Y169.7593
G1 X83.6853 Y169.8017
G1 X83.3043 Y169.717
G1 X82.7963 Y169.209
G1 X82.7117 Y168.8703
G1 Y168.6587
G1 X82.7963 Y168.32
G1 X83.3043 Y167.812
G1 X83.643 Y167.7273
G1 X83.8547
G1 X84.1933 Y167.812
G1 X84.7013 Y168.32
G1 X84.786 Y168.701
G1 X84.7437 Y169.082
G1 X88.342 Y172.7227
G1 X93.1257
G1 X94.8613 Y170.9447
G1 X94.946 Y170.733
G1 X95.3693 Y170.352
G1 X95.708 Y170.2673
G1 X95.9197
G1 X96.2583 Y170.352
G1 X96.724 Y170.8177
G1 X99.9837
G1 X100.4493 Y170.352
G1 X100.788 Y170.2673
G1 X100.9997
G1 X101.3383 Y170.352
G1 X101.804 Y170.8177
G1 X105.0637
G1 X105.5293 Y170.352
G1 X105.868 Y170.2673
G1 X106.0797
G1 X106.4183 Y170.352
G1 X106.884 Y170.8177
G1 X110.1437
G1 X110.6093 Y170.352
G1 X110.948 Y170.2673
G1 X111.1597
G1 X111.4983 Y170.352
G1 X112.0063 Y170.86
G1 X112.091 Y171.1987
G1 Y171.4103
G1 X112.0063 Y171.749
G1 X111.4983 Y172.257
G1 X111.1597 Y172.3417
G1 X110.948
G1 X110.6093 Y172.257
G1 X110.1437 Y171.7913
G1 X106.884
G1 X106.4183 Y172.257
G1 X106.0797 Y172.3417
G1 X105.868
G1 X105.5293 Y172.257
G1 X105.0637 Y171.7913
G1 X101.804
G1 X101.3383 Y172.257
G1 X100.9997 Y172.3417
G1 X100.788
G1 X100.4493 Y172.257
G1 X99.9837 Y171.7913
G1 X96.724
G1 X96.2583 Y172.257
G1 X95.9197 Y172.3417
G1 X95.6657
G1 X95.4117 Y172.257
G1 X95.1153 Y172.0453
G1 X93.4643 Y173.654
G1 X88.088 Y173.6963
G1 X87.9187 Y173.6117
G0 Z3.0
G0 X89.1887 Y172.3417
G0 Z1.0
G1 F300.0 Z-0.2
G1 F80.0 X86.6487 Y169.7593
G1 X86.2253 Y169.8017
G1 X85.8443 Y169.717
G1 X85.3363 Y169.209
G1 X85.2517 Y168.8703
G1 Y168.6587
G1 X85.3363 Y168.32
G1 X85.8443 Y167.812
G1 X86.183 Y167.7273
G1 X86.3947
G1 X86.7333 Y167.812
G1 X87.2413 Y168.32
G1 X87.326 Y168.701
G1 X87.2837 Y169.082
G1 X89.612 Y171.4527
G1 X92.4907
G1 X94.819 Y169.082
G1 X94.7767 Y168.701
G1 X94.8613 Y168.32
G1 X95.3693 Y167.812
G1 X95.708 Y167.7273
G1 X95.9197
G1 X96.2583 Y167.812
G1 X96.724 Y168.2777
G1 X99.9837
G1 X100.4493 Y167.812
G1 X100.788 Y167.7273
G1 X100.9997
G1 X101.3383 Y167.812
G1 X101.804 Y168.2777
G1 X105.0637
G1 X105.5293 Y167.812
G1 X105.868 Y167.7273
G1 X106.0797
G1 X106.4183 Y167.812
G1 X106.884 Y168.2777
G1 X110.1437
G1 X110.6093 Y167.812
G1 X110.948 Y167.7273
G1 X111.1597
G1 X111.4983 Y167.812
G1 X112.0063 Y168.32
G1 X112.091 Y168.6587
G1 Y168.8703
G1 X112.0063 Y169.209
G1 X111.4983 Y169.717
G1 X111.1597 Y169.8017
G1 X110.948
G1 X110.6093 Y169.717
G1 X110.1437 Y169.2513
G1 X106.884
G1 X106.4183 Y169.717
G1 X106.0797 Y169.8017
G1 X105.868
G1 X105.5293 Y169.717
G1 X105.0637 Y169.2513
G1 X101.804
G1 X101.3383 Y169.717
G1 X100.9997 Y169.8017
G1 X100.788
G1 X100.4493 Y169.717
G1 X99.9837 Y169.2513
G1 X96.724
G1 X96.2583 Y169.717
G1 X95.8773 Y169.8017
G1 X95.4963 Y169.7593
G1 X92.8293 Y172.384
G1 X89.358 Y172.4263
G1 X89.1887 Y172.3417
G0 Z3.0
G0 X90.4587 Y171.0717
G0 Z1.0
G1 F300.0 Z-0.2
G1 F80.0 X89.1887 Y169.7593
G1 X88.7653 Y169.8017
G1 X88.3843 Y169.717
G1 X87.8763 Y169.209
G1 X87.7917 Y168.8703
G1 Y168.6587
G1 X87.8763 Y168.32
G1 X88.3843 Y167.812
G1 X88.723 Y167.7273
G1 X88.9347
G1 X89.2733 Y167.812
G1 X89.7813 Y168.32
G1 X89.866 Y168.701
G1 X89.8237 Y169.082
G1 X90.882 Y170.1827
G1 X91.8557
G1 X92.787 Y169.209
G1 X92.8293 Y168.574
G1 X94.819 Y166.542
G1 X94.7767 Y166.161
G1 X94.8613 Y165.78
G1 X95.3693 Y165.272
G1 X95.708 Y165.1873
G1 X95.9197
G1 X96.2583 Y165.272
G1 X96.724 Y165.7377
G1 X99.9837
G1 X100.4493 Y165.272
G1 X100.788 Y165.1873
G1 X100.9997
G1 X101.3383 Y165.272
G1 X101.804 Y165.7377
G1 X105.0637
G1 X105.5293 Y165.272
G1 X105.868 Y165.1873
G1 X106.0797
G1 X106.4183 Y165.272
G1 X106.884 Y165.7377
G1 X110.1437
G1 X110.6093 Y165.272
G1 X110.948 Y165.1873
G1 X111.1597
G1 X111.4983 Y165.272
G1 X112.0063 Y165.78
G1 X112.091 Y166.1187
G1 Y166.3303
G1 X112.0063 Y166.669
G1 X111.4983 Y167.177
G1 X111.1597 Y167.2617
G1 X110.948
G1 X110.6093 Y167.177
G1 X110.1437 Y166.7113
G1 X106.884
G1 X106.4183 Y167.177
G1 X106.0797 Y167.2617
G1 X105.868
G1 X105.5293 Y167.177
G1 X105.0637 Y166.7113
G1 X101.804
G1 X101.3383 Y167.177
G1 X100.9997 Y167.2617
G1 X100.788
G1 X100.4493 Y167.177
G1 X99.9837 Y166.7113
G1 X96.724
G1 X96.2583 Y167.177
G1 X95.8773 Y167.2617
G1 X95.454 Y167.2193
G1 X93.7607 Y168.955
G1 X93.7183 Y169.59
G1 X92.1943 Y171.114
G1 X90.628 Y171.1563
G1 X90.4587 Y171.0717
G0 Z3.0
G0 X90.9243 Y169.717
G0 Z1.0
G1 F300.0 Z-0.2
G1 F80.0 X90.4163 Y169.209
G1 X90.3317 Y168.8703
G1 Y168.6587
G1 X90.4163 Y168.32
G1 X90.882 Y167.8543
G1 Y167.1347
G1 X90.4163 Y166.669
G1 X90.3317 Y166.3303
G1 Y166.1187
G1 X90.4163 Y165.78
G1 X90.9243 Y165.272
G1 X91.263 Y165.1873
G1 X91.4747
G1 X91.8133 Y165.272
G1 X92.3213 Y165.78
G1 X92.406 Y166.1187
G1 Y166.3303
G1 X92.3213 Y166.669
G1 X91.8557 Y167.1347
G1 Y167.8543
G1 X92.3213 Y168.32
G1 X92.406 Y168.6587
G1 Y168.8703
G1 X92.3213 Y169.209
G1 X91.8133 Y169.717
G1 X91.4747 Y169.8017
G1 X91.1783
G1 X90.9243 Y169.717
G0 Z3.0
G0 X88.3843 Y164.764
G0 Z1.0
G1 F300.0 Z-0.2
G1 F80.0 X70.943 Y164.8063
G1 X70.8583 Y164.764
G1 X67.0483 Y160.9963
G1 X65.1433 Y160.954
G1 X64.3813 Y160.2343
G1 X64.0003 Y160.2767
G1 X63.6193 Y160.192
G1 X63.1113 Y159.684
G1 X63.0267 Y159.3453
G1 Y159.1337
G1 X63.1113 Y158.795
G1 X63.6193 Y158.287
G1 X63.958 Y158.2023
G1 X64.1697
G1 X64.5083 Y158.287
G1 X65.0163 Y158.795
G1 X65.101 Y159.176
G1 X65.0587 Y159.5993
G1 X65.5243 Y160.0227
G1 X67.4293 Y160.065
G1 X71.2393 Y163.8327
G1 X88.0457
G1 X90.374 Y161.462
G1 X90.3317 Y161.081
G1 X90.4163 Y160.7
G1 X90.9243 Y160.192
G1 X91.263 Y160.1073
G1 X91.4747
G1 X91.8133 Y160.192
G1 X92.3213 Y160.7
G1 X92.406 Y161.0387
G1 Y161.2503
G1 X92.3213 Y161.589
G1 X91.8133 Y162.097
G1 X91.4323 Y162.1817
G1 X91.0513 Y162.1393
G1 X88.3843 Y164.764
G0 Z3.0
G0 X87.1342 Y163.4748
G0 Z1.0
G1 F300.0 Z-0.2
G1 F80.0 X87.1143 Y163.494
G1 X77.928 Y163.5363
G1 X77.7587 Y163.4517
G1 X76.4887 Y162.1393
G1 X76.0653 Y162.1817
G1 X75.6843 Y162.097
G1 X75.1763 Y161.589
G1 X75.0917 Y161.2503
G1 Y161.0387
G1 X75.1763 Y160.7
G1 X75.6843 Y160.192
G1 X76.0653 Y160.1073
G1 X76.4463 Y160.1497
G1 X77.6317 Y159.0067
G1 X77.547 Y158.7103
G1 X77.5893 Y158.287
G1 X77.7587 Y157.9483
G1 X78.0973 Y157.652
G1 X78.3513 Y157.525
G1 X78.7747 Y157.4827
G1 X79.071 Y157.5673
G1 X81.3147 Y155.2813
G1 X76.3193
G1 X75.0493 Y156.509
G1 X73.1443 Y156.5513
G1 X72.1707 Y157.4827
G1 Y159.3453
G1 X72.0437 Y159.557
G1 X72.086 Y159.938
G1 X72.0013 Y160.319
G1 X71.4933 Y160.827
G1 X71.1547 Y160.9117
G1 X70.943
G1 X70.6043 Y160.827
G1 X70.0963 Y160.319
G1 X70.0117 Y159.9803
G1 Y159.7687
G1 X70.0963 Y159.43
G1 X70.6043 Y158.922
G1 X70.943 Y158.8373
G1 X71.197
G1 X71.2393 Y157.144
G1 X72.7633 Y155.62
G1 X74.6683 Y155.5777
G1 X75.9383 Y154.35
G1 X82.6693
G1 X82.9233 Y154.604
G1 Y154.985
G1 X79.706 Y158.2447
G1 X79.7907 Y158.4987
G1 X79.7483 Y158.922
G1 X79.579 Y159.2607
G1 X79.2403 Y159.557
G1 X78.9863 Y159.684
G1 X78.563 Y159.7263
G1 X78.2667 Y159.6417
G1 X77.1237 Y160.827
G1 X77.166 Y161.5043
G1 X78.182 Y162.5627
G1 X86.7757
G1 X87.834 Y161.462
G1 X87.7917 Y161.081
G1 X87.8763 Y160.7
G1 X88.3843 Y160.192
G1 X88.723 Y160.1073
G1 X88.9347
G1 X89.2733 Y160.192
G1 X89.7813 Y160.7
G1 X89.866 Y161.0387
G1 Y161.2503
G1 X89.7813 Y161.589
G1 X89.2733 Y162.097
G1 X88.8923 Y162.1817
G1 X88.5113 Y162.1393
G1 X87.1342 Y163.4748
G0 Z3.0
G0 X86.7333 Y162.097
G0 Z1.0
G1 F300.0 Z-0.2
G1 F80.0 X86.3947 Y162.1817
G1 X86.183
G1 X85.8443 Y162.097
G1 X85.3363 Y161.589
G1 X85.2517 Y161.2503
G1 Y161.0387
G1 X85.3363 Y160.7
G1 X85.8443 Y160.192
G1 X86.2253 Y160.1073
G1 X86.6063 Y160.1497
G1 X88.0033 Y158.795
G1 X92.1943
G1 X93.7183 Y160.319
G1 X93.7607 Y160.954
G1 X95.454 Y162.6897
G1 X95.8773 Y162.6473
G1 X96.2583 Y162.732
G1 X96.724 Y163.1977
G1 X99.9837
G1 X100.4493 Y162.732
G1 X100.788 Y162.6473
G1 X100.9997
G1 X101.3383 Y162.732
G1 X101.804 Y163.1977
G1 X105.0637
G1 X105.5293 Y162.732
G1 X105.868 Y162.6473
G1 X106.0797
G1 X106.4183 Y162.732
G1 X106.884 Y163.1977
G1 X110.1437
G1 X110.6093 Y162.732
G1 X110.948 Y162.6473
G1 X111.1597
G1 X111.4983 Y162.732
G1 X112.0063 Y163.24
G1 X112.091 Y163.5787
G1 Y163.7903
G1 X112.0063 Y164.129
G1 X111.4983 Y164.637
G1 X111.1597 Y164.7217
G1 X110.948
G1 X110.6093 Y164.637
G1 X110.1437 Y164.1713
G1 X106.884
G1 X106.4183 Y164.637
G1 X106.0797 Y164.7217
G1 X105.868
G1 X105.5293 Y164.637
G1 X105.0637 Y164.1713
G1 X101.804
G1 X101.3383 Y164.637
G1 X100.9997 Y164.7217
G1 X100.788
G1 X100.4493 Y164.637
G1 X99.9837 Y164.1713
G1 X96.724
G1 X96.2583 Y164.637
G1 X95.9197 Y164.7217
G1 X95.6233
G1 X95.3693 Y164.637
G1 X94.8613 Y164.129
G1 X94.7767 Y163.748
G1 X94.819 Y163.367
G1 X92.8293 Y161.335
G1 X92.787 Y160.7
G1 X91.8557 Y159.7263
G1 X88.342
G1 X87.2837 Y160.827
G1 X87.326 Y161.208
G1 X87.2413 Y161.589
G1 X86.7333 Y162.097
G0 Z3.0
G0 X84.7013 Y161.589
G0 Z1.0
G1 F300.0 Z-0.2
G1 F80.0 X84.1933 Y162.097
G1 X83.8547 Y162.1817
G1 X83.5583
G1 X83.3043 Y162.097
G1 X82.7963 Y161.589
G1 X82.7117 Y161.2503
G1 Y161.0387
G1 X82.7963 Y160.7
G1 X83.3043 Y160.192
G1 X83.6853 Y160.1073
G1 X84.0663 Y160.1497
G1 X86.7333 Y157.525
G1 X92.8293
G1 X95.4963 Y160.1497
G1 X95.8773 Y160.1073
G1 X96.2583 Y160.192
G1 X96.724 Y160.6577
G1 X99.9837
G1 X100.4493 Y160.192
G1 X100.788 Y160.1073
G1 X100.9997
G1 X101.3383 Y160.192
G1 X101.804 Y160.6577
G1 X105.0637
G1 X105.5293 Y160.192
G1 X105.868 Y160.1073
G1 X106.0797
G1 X106.4183 Y160.192
G1 X106.884 Y160.6577
G1 X110.1437
G1 X110.6093 Y160.192
G1 X110.948 Y160.1073
G1 X111.1597
G1 X111.4983 Y160.192
G1 X112.0063 Y160.7
G1 X112.091 Y161.0387
G1 Y161.2503
G1 X112.0063 Y161.589
G1 X111.4983 Y162.097
G1 X111.1597 Y162.1817
G1 X110.948
G1 X110.6093 Y162.097
G1 X110.1437 Y161.6313
G1 X106.884
G1 X106.4183 Y162.097
G1 X106.0797 Y162.1817
G1 X105.868
G1 X105.5293 Y162.097
G1 X105.0637 Y161.6313
G1 X101.804
G1 X101.3383 Y162.097
G1 X100.9997 Y162.1817
G1 X100.788
G1 X100.4493 Y162.097
G1 X99.9837 Y161.6313
G1 X96.724
G1 X96.2583 Y162.097
G1 X95.9197 Y162.1817
G1 X95.708
G1 X95.3693 Y162.097
G1 X94.8613 Y161.589
G1 X94.7767 Y161.208
G1 X94.819 Y160.827
G1 X92.4907 Y158.4563
G1 X87.072
G1 X84.7437 Y160.827
G1 X84.786 Y161.208
G1 X84.7013 Y161.589
G0 Z3.0
G0 X83.0569 Y159.9637
G0 Z1.0
G1 F300.0 Z-0.2
G1 F80.0 X82.2037 Y160.827
G1 X82.246 Y161.208
G1 X82.1613 Y161.589
G1 X81.6533 Y162.097
G1 X81.3147 Y162.1817
G1 X81.0183
G1 X80.7643 Y162.097
G1 X80.2563 Y161.589
G1 X80.1717 Y161.2503
G1 Y161.0387
G1 X80.2563 Y160.7
G1 X80.7643 Y160.192
G1 X81.1453 Y160.1073
G1 X81.5263 Y160.1497
G1 X85.4633 Y156.255
G1 X94.0993
G1 X95.4963 Y157.6097
G1 X95.8773 Y157.5673
G1 X96.2583 Y157.652
G1 X96.724 Y158.1177
G1 X99.9837
G1 X100.4493 Y157.652
G1 X100.788 Y157.5673
G1 X100.9997
G1 X101.3383 Y157.652
G1 X101.804 Y158.1177
G1 X105.0637
G1 X105.5293 Y157.652
G1 X105.868 Y157.5673
G1 X106.0797
G1 X106.4183 Y157.652
G1 X106.884 Y158.1177
G1 X110.1437
G1 X110.6093 Y157.652
G1 X110.948 Y157.5673
G1 X111.1597
G1 X111.4983 Y157.652
G1 X112.0063 Y158.16
G1 X112.091 Y158.4987
G1 Y158.7103
G1 X112.0063 Y159.049
G1 X111.4983 Y159.557
G1 X111.1597 Y159.6417
G1 X110.948
G1 X110.6093 Y159.557
G1 X110.1437 Y159.0913
G1 X106.884
G1 X106.4183 Y159.557
G1 X106.0797 Y159.6417
G1 X105.868
G1 X105.5293 Y159.557
G1 X105.0637 Y159.0913
G1 X101.804
G1 X101.3383 Y159.557
G1 X100.9997 Y159.6417
G1 X100.788
G1 X100.4493 Y159.557
G1 X99.9837 Y159.0913
G1 X96.724
G1 X96.2583 Y159.557
G1 X95.9197 Y159.6417
G1 X95.708
G1 X95.3693 Y159.557
G1 X94.8613 Y159.049
G1 X94.7767 Y158.668
G1 X94.819 Y158.287
G1 X93.7607 Y157.1863
G1 X85.802
G1 X83.0569 Y159.9637
G0 Z3.0
G0 X81.7772 Y158.6951
G0 Z1.0
G1 F300.0 Z-0.2
G1 F80.0 X79.6637 Y160.827
G1 X79.706 Y161.208
G1 X79.6213 Y161.589
G1 X79.1133 Y162.097
G1 X78.7747 Y162.1817
G1 X78.4783
G1 X78.2243 Y162.097
G1 X77.7163 Y161.589
G1 X77.6317 Y161.2503
G1 Y161.0387
G1 X77.7163 Y160.7
G1 X78.2243 Y160.192
G1 X78.6053 Y160.1073
G1 X78.9863 Y160.1497
G1 X84.1933 Y154.985
G1 X95.2423 Y154.9427
G1 X95.4963 Y155.0697
G1 X95.8773 Y155.0273
G1 X96.2583 Y155.112
G1 X96.724 Y155.5777
G1 X99.9837
G1 X100.4493 Y155.112
G1 X100.788 Y155.0273
G1 X100.9997
G1 X101.3383 Y155.112
G1 X101.804 Y155.5777
G1 X105.0637
G1 X105.5293 Y155.112
G1 X105.868 Y155.0273
G1 X106.0797
G1 X106.4183 Y155.112
G1 X106.884 Y155.5777
G1 X110.1437
G1 X110.6093 Y155.112
G1 X110.948 Y155.0273
G1 X111.1597
G1 X111.4983 Y155.112
G1 X112.0063 Y155.62
G1 X112.091 Y155.9587
G1 Y156.1703
G1 X112.0063 Y156.509
G1 X111.4983 Y157.017
G1 X111.1597 Y157.1017
G1 X110.948
G1 X110.6093 Y157.017
G1 X110.1437 Y156.5513
G1 X106.884
G1 X106.4183 Y157.017
G1 X106.0797 Y157.1017
G1 X105.868
G1 X105.5293 Y157.017
G1 X105.0637 Y156.5513
G1 X101.804
G1 X101.3383 Y157.017
G1 X100.9997 Y157.1017
G1 X100.788
G1 X100.4493 Y157.017
G1 X99.9837 Y156.5513
G1 X96.724
G1 X96.2583 Y157.017
G1 X95.9197 Y157.1017
G1 X95.708
G1 X95.3693 Y157.017
G1 X94.8613 Y156.509
G1 X94.7767 Y156.1703
G1 Y155.9163
G1 X84.532
G1 X81.7772 Y158.6951
G0 Z3.0
G0 X77.7397 Y157.6857
G0 Z1.0
G1 F300.0 Z-0.2
G1 F80.0 X77.7163 Y157.779
G1 X77.2083 Y158.287
G1 X76.8273 Y158.3717
G1 X76.4463 Y158.3293
G1 X75.6843 Y159.049
G1 X74.5837 Y159.0913
G1 Y159.5993
G1 X74.0757
G1 Y160.2343
G1 X74.5413 Y160.7
G1 X74.626 Y161.0387
G1 Y161.2503
G1 X74.5413 Y161.589
G1 X74.0333 Y162.097
G1 X73.6947 Y162.1817
G1 X73.3983
G1 X73.1443 Y162.097
G1 X72.6363 Y161.589
G1 X72.5517 Y161.2503
G1 Y161.0387
G1 X72.6363 Y160.7
G1 X73.102 Y160.2343
G1 Y159.5993
G1 X72.594
G1 Y157.6097
G1 X74.5837
G1 Y158.1177
G1 X75.3457
G1 X75.769 Y157.652
G1 X75.7267 Y157.271
G1 X75.8113 Y156.89
G1 X76.3193 Y156.382
G1 X76.658 Y156.2973
G1 X76.8697
G1 X77.2083 Y156.382
G1 X77.7163 Y156.89
G1 X77.801 Y157.2287
G1 Y157.4403
G1 X77.7397 Y157.6857
G0 Z3.0
G0 X77.8433 Y151.3867
G0 Z1.0
G1 F300.0 Z-0.2
G1 F80.0 X77.5893 Y151.302
G1 X77.1237 Y150.8363
G1 X76.4887
G1 Y151.3443
G1 X74.499
G1 Y149.3547
G1 X75.8537
G1 X76.912 Y148.254
G1 Y143.5127
G1 X76.5733 Y143.2163
G1 X76.4887
G1 Y143.7243
G1 X74.499
G1 Y141.7347
G1 X76.4887
G1 Y142.2427
G1 X76.5733
G1 X78.4783 Y140.38
G1 X96.2583 Y140.3377
G1 X96.597 Y140.0413
G1 Y139.7873
G1 X96.3007 Y139.5333
G1 X96.089 Y139.11
G1 Y138.729
G1 X96.3007 Y138.3057
G1 X96.597 Y138.0517
G1 Y134.7073
G1 X96.3007 Y134.4533
G1 X96.089 Y134.03
G1 Y133.649
G1 X96.3007 Y133.2257
G1 X96.5547 Y133.014
G1 X96.8933 Y132.8447
G1 X97.2743
G1 X97.6977 Y133.0563
G1 X97.9093 Y133.3103
G1 X98.0787 Y133.649
G1 Y134.03
G1 X97.867 Y134.4533
G1 X97.5707 Y134.7073
G1 Y138.0517
G1 X97.867 Y138.3057
G1 X98.0787 Y138.729
G1 Y139.11
G1 X97.867 Y139.5333
G1 X97.5707 Y139.7873
G1 X97.5283 Y140.38
G1 X96.6393 Y141.269
G1 X78.8593 Y141.3113
G1 X77.42 Y142.7083
G1 X77.8433 Y143.174
G1 Y148.635
G1 X76.658 Y149.8627
G1 X77.1237
G1 X77.5893 Y149.397
G1 X77.928 Y149.3123
G1 X78.1397
G1 X78.4783 Y149.397
G1 X78.9863 Y149.905
G1 X79.071 Y150.2437
G1 Y150.4553
G1 X78.9863 Y150.794
G1 X78.4783 Y151.302
G1 X78.1397 Y151.3867
G1 X77.8433
G0 Z3.0
G0 X75.6843 Y148.889
G0 Z1.0
G1 F300.0 Z-0.2
G1 F80.0 X74.372 Y148.9313
G1 X73.4407 Y149.905
G1 X73.3983 Y151.175
G1 X71.8743 Y152.699
G1 X69.9693 Y152.7413
G1 X65.5243 Y157.144
G1 X64.974 Y157.1863
G1 X64.5083 Y157.652
G1 X64.1697 Y157.7367
G1 X63.8733
G1 X63.6193 Y157.652
G1 X63.1113 Y157.144
G1 X63.0267 Y156.8053
G1 Y156.5937
G1 X63.1113 Y156.255
G1 X63.6193 Y155.747
G1 X63.958 Y155.6623
G1 X64.1697
G1 X64.5083 Y155.747
G1 X64.974 Y156.2127
G1 X65.1433
G1 X69.5883 Y151.81
G1 X71.4933 Y151.7677
G1 X72.467 Y150.8363
G1 X72.5093 Y149.524
G1 X74.0333 Y148.0
G1 X75.3033 Y147.9577
G1 X75.642 Y147.6613
G1 Y145.4177
G1 X75.3033 Y145.1213
G1 X73.3983 Y145.079
G1 X72.5093 Y144.19
G1 Y141.269
G1 X76.3193 Y137.4167
G1 Y135.3
G1 X78.4783
G1 Y137.459
G1 X77.6317
G1 X73.4407 Y141.6077
G1 Y143.8513
G1 X73.7793 Y144.1477
G1 X75.6843 Y144.19
G1 X76.5733 Y145.079
G1 Y148.0
G1 X75.6843 Y148.889
G0 Z3.0
G0 X74.7456 Y147.548
G0 Z1.0
G1 F300.0 Z-0.2
G1 F80.0 X74.5837 Y147.6613
G1 X74.2027 Y147.7037
G1 X73.8217 Y147.619
G1 X71.451 Y149.9473
G1 X71.5357 Y150.2437
G1 X71.4933 Y150.667
G1 X71.3663 Y150.921
G1 X71.07 Y151.2597
G1 X70.7313 Y151.429
G1 X70.2233 Y151.4713
G1 X70.0117 Y151.3867
G1 X69.7577 Y151.2597
G1 X69.3767 Y150.8363
G1 X68.9533 Y150.794
G1 X66.4133 Y148.2963
G1 X66.117
G1 X65.0163 Y149.4393
G1 X64.9317 Y149.651
G1 X64.5083 Y150.032
G1 X64.1697 Y150.1167
G1 X63.958
G1 X63.6193 Y150.032
G1 X63.1113 Y149.524
G1 X63.0267 Y149.1853
G1 Y148.9737
G1 X63.1113 Y148.635
G1 X63.6193 Y148.127
G1 X63.958 Y148.0423
G1 X64.212
G1 X64.466 Y148.127
G1 X64.7623 Y148.3387
G1 X65.7783 Y147.365
G1 X66.7943
G1 X69.3343 Y149.8627
G1 X69.3767
G1 X69.7577 Y149.4393
G1 X70.0963 Y149.27
G1 X70.5197 Y149.2277
G1 X70.816 Y149.3123
G1 X73.1443 Y146.9417
G1 X73.0597 Y146.5607
G1 X73.102 Y146.1797
G1 X73.3983 Y145.7563
G1 X73.7793 Y145.46
G1 X74.118 Y145.3753
G1 X74.5413 Y145.4177
G1 X74.88 Y145.587
G1 X75.134 Y145.7987
G1 X75.3457 Y146.222
G1 X75.388 Y146.6453
G1 X75.3033 Y146.984
G1 X75.007 Y147.365
G1 X74.7456 Y147.548
G0 Z3.0
G0 X70.2657 Y146.857
G0 Z1.0
G1 F300.0 Z-0.2
G1 F80.0 X70.054 Y147.2803
G1 X69.8 Y147.492
G1 X69.4613 Y147.6613
G1 X68.9533 Y147.7037
G1 X68.657 Y147.5767
G1 X68.3183 Y147.365
G1 X68.1067 Y147.0263
G1 X64.974
G1 X64.5083 Y147.492
G1 X64.1697 Y147.5767
G1 X63.958
G1 X63.6193 Y147.492
G1 X63.1113 Y146.984
G1 X63.0267 Y146.6453
G1 Y146.4337
G1 X63.1113 Y146.095
G1 X63.6193 Y145.587
G1 X63.958 Y145.5023
G1 X64.1697
G1 X64.5083 Y145.587
G1 X64.974 Y146.0527
G1 X68.1067
G1 X68.276 Y145.7563
G1 X68.6147 Y145.5023
G1 X68.6993 Y143.809
G1 X69.3767 Y143.0893
G1 X69.292 Y142.8353
G1 X69.3343 Y142.412
G1 X69.5037 Y142.0733
G1 X69.8423 Y141.777
G1 X70.0963 Y141.65
G1 X70.7313
G1 X70.9853 Y141.777
G1 X71.324 Y142.0733
G1 X71.4933 Y142.412
G1 Y143.047
G1 X71.324 Y143.3857
G1 X70.9853 Y143.682
G1 X70.7313 Y143.809
G1 X70.308 Y143.8513
G1 X70.0117 Y143.7667
G1 X69.6307 Y144.19
G1 Y145.5023
G1 X70.0117 Y145.7987
G1 X70.2657 Y146.222
G1 Y146.857
G0 Z3.0
G0 X67.641 Y144.2323
G0 Z1.0
G1 F300.0 Z-0.2
G1 F80.0 X67.4293 Y144.444
G1 X64.974 Y144.4863
G1 X64.5083 Y144.952
G1 X64.1697 Y145.0367
G1 X63.8733
G1 X63.6193 Y144.952
G1 X63.1113 Y144.444
G1 X63.0267 Y144.1053
G1 Y143.8937
G1 X63.1113 Y143.555
G1 X63.6193 Y143.047
G1 X63.958 Y142.9623
G1 X64.1697
G1 X64.5083 Y143.047
G1 X64.974 Y143.5127
G1 X67.0907
G1 X68.022 Y142.539
G1 Y142.031
G1 X68.1067 Y141.8193
G1 X69.8847 Y140.0413
G1 X70.5197 Y139.999
G1 X73.864 Y136.7393
G1 X73.8217 Y136.316
G1 X73.9063 Y135.935
G1 X74.4143 Y135.427
G1 X74.753 Y135.3423
G1 X74.9647
G1 X75.3033 Y135.427
G1 X75.8113 Y135.935
G1 X75.896 Y136.2737
G1 Y136.4853
G1 X75.8113 Y136.824
G1 X75.3033 Y137.332
G1 X74.9223 Y137.4167
G1 X74.499
G1 X70.9007 Y140.9303
G1 X70.2233 Y140.9727
G1 X68.9957 Y142.285
G1 X68.9533 Y142.92
G1 X67.641 Y144.2323
G0 Z3.0
G0 X67.4293 Y141.904
G0 Z1.0
G1 F300.0 Z-0.2
G1 F80.0 X64.974 Y141.9463
G1 X64.5083 Y142.412
G1 X64.1697 Y142.4967
G1 X63.8733
G1 X63.6193 Y142.412
G1 X63.1113 Y141.904
G1 X63.0267 Y141.5653
G1 Y141.3537
G1 X63.1113 Y141.015
G1 X63.6193 Y140.507
G1 X63.958 Y140.4223
G1 X64.1697
G1 X64.5083 Y140.507
G1 X64.974 Y140.9727
G1 X67.0907
G1 X71.324 Y136.697
G1 X71.2817 Y136.316
G1 X71.3663 Y135.935
G1 X71.8743 Y135.427
G1 X72.213 Y135.3423
G1 X72.4247
G1 X72.7633 Y135.427
G1 X73.2713 Y135.935
G1 X73.356 Y136.2737
G1 Y136.4853
G1 X73.2713 Y136.824
G1 X72.7633 Y137.332
G1 X72.3823 Y137.4167
G1 X72.0013 Y137.3743
G1 X67.4293 Y141.904
G0 Z3.0
G0 X67.3856 Y139.3648
G0 Z1.0
G1 F300.0 Z-0.2
G1 F80.0 X64.974 Y139.4063
G1 X64.5083 Y139.872
G1 X64.1697 Y139.9567
G1 X63.8733
G1 X63.6193 Y139.872
G1 X63.1113 Y139.364
G1 X63.0267 Y139.0253
G1 Y138.8137
G1 X63.1113 Y138.475
G1 X63.6193 Y137.967
G1 X63.958 Y137.8823
G1 X64.1697
G1 X64.5083 Y137.967
G1 X64.974 Y138.4327
G1 X67.0907
G1 X68.784 Y136.697
G1 X68.7417 Y136.316
G1 X68.8263 Y135.935
G1 X69.3343 Y135.427
G1 X69.673 Y135.3423
G1 X69.8847
G1 X70.2233 Y135.427
G1 X70.7313 Y135.935
G1 X70.816 Y136.2737
G1 Y136.4853
G1 X70.7313 Y136.824
G1 X70.2233 Y137.332
G1 X69.8423 Y137.4167
G1 X69.4613 Y137.3743
G1 X67.4293 Y139.364
G1 X67.3856 Y139.3648
G0 Z3.0
G0 X67.3447 Y137.4167
G0 Z1.0
G1 F300.0 Z-0.2
G1 F80.0 X67.133
G1 X66.7943 Y137.332
G1 X66.3287 Y136.8663
G1 X64.974
G1 X64.5083 Y137.332
G1 X64.1697 Y137.4167
G1 X63.8733
G1 X63.6193 Y137.332
G1 X63.1113 Y136.824
G1 X63.0267 Y136.4853
G1 Y136.2737
G1 X63.1113 Y135.935
G1 X63.6193 Y135.427
G1 X63.958 Y135.3423
G1 X64.1697
G1 X64.5083 Y135.427
G1 X64.974 Y135.8927
G1 X66.3287
G1 X66.7943 Y135.427
G1 X67.133 Y135.3423
G1 X67.3447
G1 X67.6833 Y135.427
G1 X68.1913 Y135.935
G1 X68.276 Y136.2737
G1 Y136.4853
G1 X68.1913 Y136.824
G1 X67.6833 Y137.332
G1 X67.3447 Y137.4167
G0 Z3.0
G0 X67.3291 Y133.6732
G0 Z1.0
G1 F300.0 Z-0.2
G1 F80.0 X62.9843 Y133.6913
G1 X62.6457 Y133.9877
G1 Y136.7393
G1 X63.1113 Y137.205
G1 X63.196 Y137.5437
G1 Y137.7553
G1 X63.1113 Y138.094
G1 X62.6033 Y138.602
G1 X62.2647 Y138.6867
G1 X61.9683
G1 X61.7143 Y138.602
G1 X61.2063 Y138.094
G1 X61.1217 Y137.7553
G1 Y137.5437
G1 X61.2063 Y137.205
G1 X61.672 Y136.7393
G1 X61.7143 Y133.649
G1 X62.6033 Y132.76
G1 X72.467 Y132.7177
G1 X72.5093 Y124.124
G1 X72.7633 Y123.87
G1 X74.5837 Y123.8277
G1 X75.0493 Y123.362
G1 X75.388 Y123.2773
G1 X75.5997
G1 X75.9383 Y123.362
G1 X76.4463 Y123.87
G1 X76.531 Y124.2087
G1 Y124.4203
G1 X76.4463 Y124.759
G1 X75.9383 Y125.267
G1 X75.5997 Y125.3517
G1 X75.388
G1 X75.0493 Y125.267
G1 X74.5837 Y124.8013
G1 X73.4407
G1 X73.3983 Y133.395
G1 X73.1443 Y133.649
G1 X67.3291 Y133.6732
G0 Z3.0
G0 X68.149 Y132.2943
G0 Z1.0
G1 F300.0 Z-0.2
G1 F80.0 Y131.7863
G1 X65.1433 Y131.744
G1 X63.2383 Y129.8813
G1 X59.894
G1 X59.4283 Y130.347
G1 X59.0473 Y130.4317
G1 X58.624 Y130.3893
G1 X57.5657 Y131.4053
G1 X55.2797
G1 X52.4433 Y128.6113
G1 X50.242
G1 X49.3107 Y129.585
G1 X49.2683 Y131.49
G1 X47.4057 Y133.395
G1 Y135.4693
G1 X47.8713 Y135.935
G1 X47.956 Y136.2737
G1 Y136.4853
G1 X47.8713 Y136.824
G1 X47.3633 Y137.332
G1 X47.0247 Y137.4167
G1 X46.813
G1 X46.4743 Y137.332
G1 X46.0087 Y136.8663
G1 X45.289
G1 X44.8233 Y137.332
G1 X44.4847 Y137.4167
G1 X44.1883
G1 X43.9343 Y137.332
G1 X43.4263 Y136.824
G1 X43.3417 Y136.4853
G1 Y136.2737
G1 X43.4263 Y135.935
G1 X43.9343 Y135.427
G1 X44.273 Y135.3423
G1 X44.4847
G1 X44.8233 Y135.427
G1 X45.289 Y135.8927
G1 X46.0087
G1 X46.432 Y135.4693
G1 X46.4743 Y133.014
G1 X48.337 Y131.109
G1 X48.3793 Y129.204
G1 X49.9033 Y127.68
G1 X52.8243
G1 X55.6607 Y130.474
G1 X57.227
G1 X57.989 Y129.712
G1 X57.9467 Y129.331
G1 X58.0313 Y128.95
G1 X58.5393 Y128.442
G1 X58.878 Y128.3573
G1 X59.0897
G1 X59.4283 Y128.442
G1 X59.894 Y128.9077
G1 X63.6193 Y128.95
G1 X65.5243 Y130.8127
G1 X68.149
G1 Y130.3047
G1 X70.1387
G1 Y130.8127
G1 X70.562
G1 Y122.5153
G1 X70.2657 Y122.2613
G1 X68.9533 Y122.219
G1 X68.6993 Y121.965
G1 X68.657 Y119.7213
G1 X67.514
G1 X67.0483 Y120.187
G1 X66.7097 Y120.2717
G1 X66.498
G1 X66.1593 Y120.187
G1 X65.6513 Y119.679
G1 X65.5667 Y119.3403
G1 Y119.1287
G1 X65.6513 Y118.79
G1 X66.1593 Y118.282
G1 X66.498 Y118.1973
G1 X66.7097
G1 X67.0483 Y118.282
G1 X67.514 Y118.7477
G1 X68.657
G1 Y110.7043
G1 X68.149
G1 Y110.1963
G1 X63.8733 Y110.154
G1 X62.6033 Y108.9263
G1 X59.513
G1 X59.3013 Y108.7993
G1 X58.9203 Y108.8417
G1 X58.5393 Y108.757
G1 X58.0313 Y108.249
G1 X57.9467 Y107.9103
G1 Y107.6987
G1 X58.0313 Y107.36
G1 X58.5393 Y106.852
G1 X58.878 Y106.7673
G1 X59.0897
G1 X59.4283 Y106.852
G1 X59.9363 Y107.36
G1 X60.021 Y107.6987
G1 Y107.9527
G1 X62.9843 Y107.995
G1 X64.2543 Y109.2227
G1 X68.149
G1 Y108.7147
G1 X70.1387
G1 Y109.2227
G1 X70.562
G1 Y98.1313
G1 X67.514
G1 X67.0483 Y98.597
G1 X66.7097 Y98.6817
G1 X66.498
G1 X66.1593 Y98.597
G1 X65.6513 Y98.089
G1 X65.5667 Y97.7503
G1 Y97.5387
G1 X65.6513 Y97.2
G1 X66.1593 Y96.692
G1 X66.498 Y96.6073
G1 X66.7097
G1 X67.0483 Y96.692
G1 X67.514 Y97.1577
G1 X70.562
G1 Y88.6063
G1 X70.1387
G1 Y89.1143
G1 X68.149
G1 Y88.6063
G1 X63.8733 Y88.564
G1 X62.6033 Y87.3363
G1 X59.513
G1 X59.3013 Y87.2093
G1 X58.9203 Y87.2517
G1 X58.5393 Y87.167
G1 X58.0313 Y86.659
G1 X57.9467 Y86.3203
G1 Y86.1087
G1 X58.0313 Y85.77
G1 X58.5393 Y85.262
G1 X58.878 Y85.1773
G1 X59.0897
G1 X59.4283 Y85.262
G1 X59.9363 Y85.77
G1 X60.021 Y86.1087
G1 Y86.3627
G1 X62.9843 Y86.405
G1 X64.2543 Y87.6327
G1 X68.149
G1 Y87.1247
G1 X70.1387
G1 Y87.6327
G1 X70.562
G1 Y76.5413
G1 X67.514
G1 X67.0483 Y77.007
G1 X66.7097 Y77.0917
G1 X66.498
G1 X66.1593 Y77.007
G1 X65.6513 Y76.499
G1 X65.5667 Y76.1603
G1 Y75.9487
G1 X65.6513 Y75.61
G1 X66.1593 Y75.102
G1 X66.498 Y75.0173
G1 X66.7097
G1 X67.0483 Y75.102
G1 X67.514 Y75.5677
G1 X70.562
G1 X70.6043 Y66.339
G1 X70.8583 Y66.085
G1 X71.959 Y66.0427
G1 Y65.7463
G1 X61.3333 Y65.704
G1 X56.2533 Y60.6663
G1 X54.0943
G1 X49.0143 Y65.704
G1 X22.5983
G1 X21.2013 Y64.3493
G1 X20.8203 Y64.3917
G1 X20.4393 Y64.307
G1 X19.9313 Y63.799
G1 X19.8467 Y63.4603
G1 Y63.2487
G1 X19.9313 Y62.91
G1 X20.397 Y62.4443
G1 Y61.7247
G1 X19.9313 Y61.259
G1 X19.8467 Y60.9203
G1 Y60.7087
G1 X19.9313 Y60.37
G1 X20.397 Y59.9043
G1 Y59.1847
G1 X19.9313 Y58.719
G1 X19.8467 Y58.3803
G1 Y58.1687
G1 X19.9313 Y57.83
G1 X20.397 Y57.3643
G1 Y56.6447
G1 X19.9313 Y56.179
G1 X19.8467 Y55.8403
G1 Y55.6287
G1 X19.9313 Y55.29
G1 X20.397 Y54.8243
G1 Y54.1047
G1 X19.9313 Y53.639
G1 X19.8467 Y53.3003
G1 Y53.0887
G1 X19.9313 Y52.75
G1 X20.397 Y52.2843
G1 Y51.5647
G1 X19.9313 Y51.099
G1 X19.8467 Y50.7603
G1 Y50.5487
G1 X19.9313 Y50.21
G1 X20.397 Y49.7443
G1 Y49.0247
G1 X19.9313 Y48.559
G1 X19.8467 Y48.2203
G1 Y48.0087
G1 X19.9313 Y47.67
G1 X20.397 Y47.2043
G1 Y46.4847
G1 X19.9313 Y46.019
G1 X19.8467 Y45.6803
G1 Y45.4687
G1 X19.9313 Y45.13
G1 X20.397 Y44.6643
G1 Y43.9447
G1 X19.9313 Y43.479
G1 X19.8467 Y43.1403
G1 Y42.9287
G1 X19.9313 Y42.59
G1 X20.397 Y42.1243
G1 Y41.4047
G1 X19.9313 Y40.939
G1 X19.8467 Y40.6003
G1 Y40.3887
G1 X19.9313 Y40.05
G1 X20.397 Y39.5843
G1 Y38.8647
G1 X19.9313 Y38.399
G1 X19.8467 Y38.0603
G1 Y37.8487
G1 X19.9313 Y37.51
G1 X20.397 Y37.0443
G1 Y36.3247
G1 X19.9313 Y35.859
G1 X19.8467 Y35.5203
G1 Y35.3087
G1 X19.9313 Y34.97
G1 X20.397 Y34.5043
G1 Y33.7847
G1 X19.9313 Y33.319
G1 X19.8467 Y32.9803
G1 Y32.7687
G1 X19.9313 Y32.43
G1 X20.397 Y31.9643
G1 Y31.2447
G1 X19.9313 Y30.779
G1 X19.8467 Y30.4403
G1 Y30.2287
G1 X19.9313 Y29.89
G1 X20.397 Y29.4243
G1 Y28.7047
G1 X19.9313 Y28.239
G1 X19.8467 Y27.9003
G1 Y27.6887
G1 X19.9313 Y27.35
G1 X20.397 Y26.8843
G1 Y26.1647
G1 X19.9313 Y25.699
G1 X19.8467 Y25.3603
G1 Y25.1487
G1 X19.9313 Y24.81
G1 X20.4393 Y24.302
G1 X20.778 Y24.2173
G1 X20.9897
G1 X21.3283 Y24.302
G1 X21.8363 Y24.81
G1 X21.921 Y25.1487
G1 Y25.3603
G1 X21.8363 Y25.699
G1 X21.3707 Y26.1647
G1 Y26.8843
G1 X21.8363 Y27.35
G1 X21.921 Y27.6887
G1 Y27.9003
G1 X21.8363 Y28.239
G1 X21.3707 Y28.7047
G1 Y29.4243
G1 X21.8363 Y29.89
G1 X21.921 Y30.2287
G1 Y30.4403
G1 X21.8363 Y30.779
G1 X21.3707 Y31.2447
G1 Y31.9643
G1 X21.8363 Y32.43
G1 X21.921 Y32.7687
G1 Y32.9803
G1 X21.8363 Y33.319
G1 X21.3707 Y33.7847
G1 Y34.5043
G1 X21.8363 Y34.97
G1 X21.921 Y35.3087
G1 Y35.5203
G1 X21.8363 Y35.859
G1 X21.3707 Y36.3247
G1 Y37.0443
G1 X21.8363 Y37.51
G1 X21.921 Y37.8487
G1 Y38.0603
G1 X21.8363 Y38.399
G1 X21.3707 Y38.8647
G1 Y39.5843
G1 X21.8363 Y40.05
G1 X21.921 Y40.3887
G1 Y40.6003
G1 X21.8363 Y40.939
G1 X21.3707 Y41.4047
G1 Y42.1243
G1 X21.8363 Y42.59
G1 X21.921 Y42.9287
G1 Y43.1403
G1 X21.8363 Y43.479
G1 X21.3707 Y43.9447
G1 Y44.6643
G1 X21.8363 Y45.13
G1 X21.921 Y45.4687
G1 Y45.6803
G1 X21.8363 Y46.019
G1 X21.3707 Y46.4847
G1 Y47.2043
G1 X21.8363 Y47.67
G1 X21.921 Y48.0087
G1 Y48.2203
G1 X21.8363 Y48.559
G1 X21.3707 Y49.0247
G1 Y49.7443
G1 X21.8363 Y50.21
G1 X21.921 Y50.5487
G1 Y50.7603
G1 X21.8363 Y51.099
G1 X21.3707 Y51.5647
G1 Y52.2843
G1 X21.8363 Y52.75
G1 X21.921 Y53.0887
G1 Y53.3003
G1 X21.8363 Y53.639
G1 X21.3707 Y54.1047
G1 Y54.8243
G1 X21.8363 Y55.29
G1 X21.921 Y55.6287
G1 Y55.8403
G1 X21.8363 Y56.179
G1 X21.3707 Y56.6447
G1 Y57.3643
G1 X21.8363 Y57.83
G1 X21.921 Y58.1687
G1 Y58.3803
G1 X21.8363 Y58.719
G1 X21.3707 Y59.1847
G1 Y59.9043
G1 X21.8363 Y60.37
G1 X21.921 Y60.7087
G1 Y60.9203
G1 X21.8363 Y61.259
G1 X21.3707 Y61.7247
G1 Y62.4443
G1 X21.8363 Y62.91
G1 X21.921 Y63.291
G1 X21.8787 Y63.672
G1 X22.937 Y64.7727
G1 X48.6333
G1 X53.7133 Y59.735
G1 X56.2533 Y59.6927
G1 X57.354 Y58.6343
G1 X57.3117 Y57.9147
G1 X54.8987 Y55.4593
G1 X54.4753 Y55.5017
G1 X54.0943 Y55.417
G1 X53.6287 Y54.9513
G1 X46.7283 Y54.909
G1 X43.4263 Y51.6493
G1 X43.0453 Y51.6917
G1 X42.6643 Y51.607
G1 X42.1563 Y51.099
G1 X42.0717 Y50.7603
G1 Y50.5487
G1 X42.1563 Y50.21
G1 X42.6643 Y49.702
G1 X43.003 Y49.6173
G1 X43.2147
G1 X43.5533 Y49.702
G1 X44.0613 Y50.21
G1 X44.146 Y50.591
G1 X44.1037 Y50.972
G1 X47.067 Y53.9777
G1 X53.6287
G1 X54.0943 Y53.512
G1 X54.433 Y53.4273
G1 X54.6447
G1 X54.9833 Y53.512
G1 X55.4913 Y54.02
G1 X55.576 Y54.401
G1 X55.5337 Y54.8243
G1 X58.0313 Y57.2797
G1 X58.4123 Y57.2373
G1 X58.7933 Y57.322
G1 X59.3013 Y57.83
G1 X59.386 Y58.1687
G1 Y58.3803
G1 X59.3013 Y58.719
G1 X58.7933 Y59.227
G1 X58.4123 Y59.3117
G1 X58.0313 Y59.2693
G1 X57.1 Y60.1583
G1 X61.672 Y64.7727
G1 X96.3007
G1 X97.359 Y63.672
G1 X97.3167 Y63.291
G1 X97.4013 Y62.91
G1 X97.867 Y62.4443
G1 Y61.7247
G1 X97.4013 Y61.259
G1 X97.3167 Y60.9203
G1 Y60.7087
G1 X97.4013 Y60.37
G1 X97.867 Y59.9043
G1 Y59.1847
G1 X97.4013 Y58.719
G1 X97.3167 Y58.3803
G1 Y58.1687
G1 X97.4013 Y57.83
G1 X97.867 Y57.3643
G1 Y56.6447
G1 X97.4013 Y56.179
G1 X97.3167 Y55.8403
G1 Y55.6287
G1 X97.4013 Y55.29
G1 X97.867 Y54.8243
G1 Y54.1047
G1 X97.4013 Y53.639
G1 X97.3167 Y53.3003
G1 Y53.0887
G1 X97.4013 Y52.75
G1 X97.867 Y52.2843
G1 Y51.5647
G1 X97.4013 Y51.099
G1 X97.3167 Y50.7603
G1 Y50.5487
G1 X97.4013 Y50.21
G1 X97.867 Y49.7443
G1 Y49.0247
G1 X97.4013 Y48.559
G1 X97.3167 Y48.2203
G1 Y48.0087
G1 X97.4013 Y47.67
G1 X97.867 Y47.2043
G1 Y46.4847
G1 X97.4013 Y46.019
G1 X97.3167 Y45.6803
G1 Y45.4687
G1 X97.4013 Y45.13
G1 X97.867 Y44.6643
G1 Y43.9447
G1 X97.4013 Y43.479
G1 X97.3167 Y43.1403
G1 Y42.9287
G1 X97.4013 Y42.59
G1 X97.867 Y42.1243
G1 Y41.4047
G1 X97.4013 Y40.939
G1 X97.3167 Y40.6003
G1 Y40.3887
G1 X97.4013 Y40.05
G1 X97.867 Y39.5843
G1 Y38.8647
G1 X97.4013 Y38.399
G1 X97.3167 Y38.0603
G1 Y37.8487
G1 X97.4013 Y37.51
G1 X97.867 Y37.0443
G1 Y36.3247
G1 X97.4013 Y35.859
G1 X97.3167 Y35.5203
G1 Y35.3087
G1 X97.4013 Y34.97
G1 X97.867 Y34.5043
G1 Y33.7847
G1 X97.4013 Y33.319
G1 X97.3167 Y32.9803
G1 Y32.7687
G1 X97.4013 Y32.43
G1 X97.867 Y31.9643
G1 Y31.2447
G1 X97.4013 Y30.779
G1 X97.3167 Y30.4403
G1 Y30.2287
G1 X97.4013 Y29.89
G1 X97.867 Y29.4243
G1 Y28.7047
G1 X97.4013 Y28.239
G1 X97.3167 Y27.9003
G1 Y27.6887
G1 X97.4013 Y27.35
G1 X97.867 Y26.8843
G1 Y26.1647
G1 X97.4013 Y25.699
G1 X97.3167 Y25.3603
G1 Y25.1487
G1 X97.4013 Y24.81
G1 X97.9093 Y24.302
G1 X98.248 Y24.2173
G1 X98.4597
G1 X98.7983 Y24.302
G1 X99.3063 Y24.81
G1 X99.391 Y25.1487
G1 Y25.3603
G1 X99.3063 Y25.699
G1 X98.8407 Y26.1647
G1 Y26.8843
G1 X99.3063 Y27.35
G1 X99.391 Y27.6887
G1 Y27.9003
G1 X99.3063 Y28.239
G1 X98.8407 Y28.7047
G1 Y29.4243
G1 X99.3063 Y29.89
G1 X99.391 Y30.2287
G1 Y30.4403
G1 X99.3063 Y30.779
G1 X98.8407 Y31.2447
G1 Y31.9643
G1 X99.3063 Y32.43
G1 X99.391 Y32.7687
G1 Y32.9803
G1 X99.3063 Y33.319
G1 X98.8407 Y33.7847
G1 Y34.5043
G1 X99.3063 Y34.97
G1 X99.391 Y35.3087
G1 Y35.5203
G1 X99.3063 Y35.859
G1 X98.8407 Y36.3247
G1 Y37.0443
G1 X99.3063 Y37.51
G1 X99.391 Y37.8487
G1 Y38.0603
G1 X99.3063 Y38.399
G1 X98.8407 Y38.8647
G1 Y39.5843
G1 X99.3063 Y40.05
G1 X99.391 Y40.3887
G1 Y40.6003
G1 X99.3063 Y40.939
G1 X98.8407 Y41.4047
G1 Y42.1243
G1 X99.3063 Y42.59
G1 X99.391 Y42.9287
G1 Y43.1403
G1 X99.3063 Y43.479
G1 X98.8407 Y43.9447
G1 Y44.6643
G1 X99.3063 Y45.13
G1 X99.391 Y45.4687
G1 Y45.6803
G1 X99.3063 Y46.019
G1 X98.8407 Y46.4847
G1 Y47.2043
G1 X99.3063 Y47.67
G1 X99.391 Y48.0087
G1 Y48.2203
G1 X99.3063 Y48.559
G1 X98.8407 Y49.0247
G1 Y49.7443
G1 X99.3063 Y50.21
G1 X99.391 Y50.5487
G1 Y50.7603
G1 X99.3063 Y51.099
G1 X98.8407 Y51.5647
G1 Y52.2843
G1 X99.3063 Y52.75
G1 X99.391 Y53.0887
G1 Y53.3003
G1 X99.3063 Y53.639
G1 X98.8407 Y54.1047
G1 Y54.8243
G1 X99.3063 Y55.29
G1 X99.391 Y55.6287
G1 Y55.8403
G1 X99.3063 Y56.179
G1 X98.8407 Y56.6447
G1 Y57.3643
G1 X99.3063 Y57.83
G1 X99.391 Y58.1687
G1 Y58.3803
G1 X99.3063 Y58.719
G1 X98.8407 Y59.1847
G1 Y59.9043
G1 X99.3063 Y60.37
G1 X99.391 Y60.7087
G1 Y60.9203
G1 X99.3063 Y61.259
G1 X98.8407 Y61.7247
G1 Y62.4443
G1 X99.3063 Y62.91
G1 X99.391 Y63.2487
G1 Y63.4603
G1 X99.3063 Y63.799
G1 X98.7983 Y64.307
G1 X98.4173 Y64.3917
G1 X98.0363 Y64.3493
G1 X96.6393 Y65.704
G1 X83.6007 Y65.7463
G1 Y67.5243
G1 X84.0663 Y67.99
G1 X84.151 Y68.3287
G1 Y68.5403
G1 X84.0663 Y68.879
G1 X83.5583 Y69.387
G1 X83.2197 Y69.4717
G1 X83.008
G1 X82.6693 Y69.387
G1 X82.1613 Y68.879
G1 X82.0767 Y68.5403
G1 Y68.2863
G1 X79.1133 Y68.244
G1 X77.8433 Y67.0163
G1 X73.9487
G1 Y67.5243
G1 X71.959
G1 Y67.0163
G1 X71.5357
G1 Y78.1077
G1 X74.5837
G1 X75.0493 Y77.642
G1 X75.388 Y77.5573
G1 X75.5997
G1 X75.9383 Y77.642
G1 X76.4463 Y78.15
G1 X76.531 Y78.4887
G1 Y78.7003
G1 X76.4463 Y79.039
G1 X75.9383 Y79.547
G1 X75.5997 Y79.6317
G1 X75.388
G1 X75.0493 Y79.547
G1 X74.5837 Y79.0813
G1 X71.5357
G1 Y87.6327
G1 X71.959
G1 Y87.1247
G1 X73.9487
G1 Y87.6327
G1 X78.2243 Y87.675
G1 X79.4943 Y88.9027
G1 X82.5847
G1 X82.7963 Y89.0297
G1 X83.1773 Y88.9873
G1 X83.5583 Y89.072
G1 X84.0663 Y89.58
G1 X84.151 Y89.9187
G1 Y90.1303
G1 X84.0663 Y90.469
G1 X83.5583 Y90.977
G1 X83.2197 Y91.0617
G1 X83.008
G1 X82.6693 Y90.977
G1 X82.1613 Y90.469
G1 X82.0767 Y90.1303
G1 Y89.8763
G1 X79.1133 Y89.834
G1 X77.8433 Y88.6063
G1 X73.9487
G1 Y89.1143
G1 X71.959
G1 Y88.6063
G1 X71.5357
G1 Y99.6977
G1 X74.5837
G1 X75.0493 Y99.232
G1 X75.388 Y99.1473
G1 X75.5997
G1 X75.9383 Y99.232
G1 X76.4463 Y99.74
G1 X76.531 Y100.0787
G1 Y100.2903
G1 X76.4463 Y100.629
G1 X75.9383 Y101.137
G1 X75.5997 Y101.2217
G1 X75.388
G1 X75.0493 Y101.137
G1 X74.5837 Y100.6713
G1 X71.5357
G1 Y109.2227
G1 X71.959
G1 Y108.7147
G1 X73.9487
G1 Y109.2227
G1 X78.2243 Y109.265
G1 X79.4943 Y110.4927
G1 X82.5847
G1 X82.7963 Y110.6197
G1 X83.1773 Y110.5773
G1 X83.5583 Y110.662
G1 X84.0663 Y111.17
G1 X84.151 Y111.5087
G1 Y111.7203
G1 X84.0663 Y112.059
G1 X83.5583 Y112.567
G1 X83.2197 Y112.6517
G1 X83.008
G1 X82.6693 Y112.567
G1 X82.1613 Y112.059
G1 X82.0767 Y111.7203
G1 Y111.4663
G1 X79.1133 Y111.424
G1 X77.8433 Y110.1963
G1 X73.9487
G1 Y110.7043
G1 X71.959
G1 Y110.1963
G1 X70.1387
G1 Y110.7043
G1 X69.6307
G1 Y121.2877
G1 X70.308
G1 X70.5197 Y121.0337
G1 X70.8583 Y120.8643
G1 X71.2393
G1 X71.578 Y121.0337
G1 X71.7897 Y121.2877
G1 X74.5837
G1 X75.0493 Y120.822
G1 X75.388 Y120.7373
G1 X75.5997
G1 X75.9383 Y120.822
G1 X76.4463 Y121.33
G1 X76.531 Y121.6687
G1 Y121.8803
G1 X76.4463 Y122.219
G1 X75.9383 Y122.727
G1 X75.5997 Y122.8117
G1 X75.388
G1 X75.0493 Y122.727
G1 X74.5837 Y122.2613
G1 X71.7897
G1 X71.5357 Y122.5577
G1 X71.4933 Y131.49
G1 X71.2393 Y131.744
G1 X70.1387 Y131.7863
G1 Y132.2943
G1 X68.149
G0 Z3.0
G0 X79.452 Y67.3127
G0 Z1.0
G1 F300.0 Z-0.2
G1 F80.0 X78.2243 Y66.085
G1 X73.9487 Y66.0427
G1 Y65.7463
G1 X82.627
G1 Y67.0163
G1 X82.2883 Y67.3127
G1 X79.452
G0 Z3.0
G0 X77.928 Y68.8367
G0 Z1.0
G1 F300.0 Z-0.2
G1 F80.0 X78.3513 Y69.26
G1 X78.436 Y69.5987
G1 Y69.8103
G1 X78.3513 Y70.149
G1 X77.8433 Y70.657
G1 X77.4623 Y70.7417
G1 X77.039 Y70.6993
G1 X76.4463 Y71.3343
G1 X76.3617 Y71.546
G1 X75.9383 Y71.927
G1 X75.5997 Y72.0117
G1 X75.388
G1 X75.0493 Y71.927
G1 X74.5837 Y71.4613
G1 X73.9487
G1 Y71.8
G1 X73.737 Y72.2233
G1 X73.483 Y72.435
G1 X73.1443 Y72.6043
G1 X72.7633
G1 X72.34 Y72.3927
G1 X72.1283 Y72.1387
G1 X71.959 Y71.8
G1 Y71.419
G1 X72.1707 Y70.9957
G1 X72.467 Y70.7417
G1 X72.848 Y70.6147
G1 X73.229 Y70.657
G1 X73.3983 Y70.53
G1 X74.5837 Y70.4877
G1 X75.0493 Y70.022
G1 X75.388 Y69.9373
G1 X75.642
G1 X75.896 Y70.022
G1 X76.1923 Y70.2337
G1 X76.404 Y70.0643
G1 X76.3617 Y69.641
G1 X76.4463 Y69.26
G1 X76.9543 Y68.752
G1 X77.293 Y68.6673
G1 X77.5047
G1 X77.8433 Y68.752
G1 X77.928 Y68.8367
G0 Z3.0
G0 X76.531 Y68.5403
G0 Z1.0
G1 F300.0 Z-0.2
G1 F80.0 X76.4463 Y68.879
G1 X75.9383 Y69.387
G1 X75.5997 Y69.4717
G1 X75.388
G1 X75.0493 Y69.387
G1 X74.5837 Y68.9213
G1 X73.991
G1 Y69.1753
G1 X73.9063 Y69.514
G1 X73.3983 Y70.022
G1 X73.0597 Y70.1067
G1 X72.7633
G1 X72.5093 Y70.022
G1 X72.0013 Y69.514
G1 X71.9167 Y69.1753
G1 Y68.9637
G1 X72.0013 Y68.625
G1 X72.5093 Y68.117
G1 X72.8903 Y68.0323
G1 X73.2713 Y68.0747
G1 X73.483 Y67.9477
G1 X74.5837
G1 X75.0493 Y67.482
G1 X75.388 Y67.3973
G1 X75.5997
G1 X75.9383 Y67.482
G1 X76.4463 Y67.99
G1 X76.531 Y68.3287
G1 Y68.5403
G0 Z3.0
G0 X78.8593 Y71.292
G0 Z1.0
G1 F300.0 Z-0.2
G1 F80.0 X79.198 Y71.2073
G1 X79.4097
G1 X79.7483 Y71.292
G1 X80.2563 Y71.8
G1 X80.341 Y72.1387
G1 Y72.3503
G1 X80.2563 Y72.689
G1 X79.7483 Y73.197
G1 X79.3673 Y73.2817
G1 X78.9863 Y73.2393
G1 X78.2243 Y73.959
G1 X76.404 Y74.0013
G1 X75.9383 Y74.467
G1 X75.5997 Y74.5517
G1 X75.3033
G1 X75.0493 Y74.467
G1 X74.5413 Y73.959
G1 X74.4567 Y73.6203
G1 Y73.4087
G1 X74.5413 Y73.07
G1 X75.0493 Y72.562
G1 X75.388 Y72.4773
G1 X75.5997
G1 X75.9383 Y72.562
G1 X76.404 Y73.0277
G1 X77.8857
G1 X78.309 Y72.562
G1 X78.2667 Y72.181
G1 X78.3513 Y71.8
G1 X78.8593 Y71.292
G0 Z3.0
G0 X82.0767 Y71.0803
G0 Z1.0
G1 F300.0 Z-0.2
G1 F80.0 Y70.8687
G1 X82.1613 Y70.53
G1 X82.6693 Y70.022
G1 X83.0503 Y69.9373
G1 X83.4737 Y69.9797
G1 X84.659 Y68.752
G1 X84.6167 Y68.371
G1 X84.7013 Y67.99
G1 X85.2093 Y67.482
G1 X85.548 Y67.3973
G1 X85.7597
G1 X86.0983 Y67.482
G1 X86.6063 Y67.99
G1 X86.691 Y68.3287
G1 Y68.5403
G1 X86.6063 Y68.879
G1 X86.0983 Y69.387
G1 X85.7173 Y69.4717
G1 X85.3363 Y69.4293
G1 X84.1087 Y70.6147
G1 X84.151 Y71.038
G1 X84.0663 Y71.419
G1 X83.5583 Y71.927
G1 X83.2197 Y72.0117
G1 X82.9233
G1 X82.6693 Y71.927
G1 X82.1613 Y71.419
G1 X82.0767 Y71.0803
G0 Z3.0
G0 X82.6693 Y72.562
G0 Z1.0
G1 F300.0 Z-0.2
G1 F80.0 X83.0503 Y72.4773
G1 X83.4737 Y72.5197
G1 X84.659 Y71.292
G1 X84.6167 Y70.911
G1 X84.7013 Y70.53
G1 X85.2093 Y70.022
G1 X85.548 Y69.9373
G1 X85.7597
G1 X86.0983 Y70.022
G1 X86.6063 Y70.53
G1 X86.691 Y70.8687
G1 Y71.0803
G1 X86.6063 Y71.419
G1 X86.0983 Y71.927
G1 X85.7173 Y72.0117
G1 X85.3363 Y71.9693
G1 X84.1087 Y73.1547
G1 X84.151 Y73.578
G1 X84.0663 Y73.959
G1 X83.5583 Y74.467
G1 X83.2197 Y74.5517
G1 X82.9233
G1 X82.6693 Y74.467
G1 X82.1613 Y73.959
G1 X82.0767 Y73.6203
G1 Y73.4087
G1 X82.1613 Y73.07
G1 X82.6693 Y72.562
G0 Z3.0
G0 X84.7013 Y73.07
G0 Z1.0
G1 F300.0 Z-0.2
G1 F80.0 X85.2093 Y72.562
G1 X85.548 Y72.4773
G1 X85.7597
G1 X86.0983 Y72.562
G1 X86.6063 Y73.07
G1 X86.691 Y73.4087
G1 Y73.6203
G1 X86.6063 Y73.959
G1 X86.0983 Y74.467
G1 X85.7173 Y74.5517
G1 X85.3363 Y74.5093
G1 X84.1087 Y75.6947
G1 X84.151 Y76.118
G1 X84.0663 Y76.499
G1 X83.5583 Y77.007
G1 X83.2197 Y77.0917
G1 X82.9233
G1 X82.6693 Y77.007
G1 X82.1613 Y76.499
G1 X82.0767 Y76.1603
G1 Y75.9487
G1 X82.1613 Y75.61
G1 X82.6693 Y75.102
G1 X83.0503 Y75.0173
G1 X83.4737 Y75.0597
G1 X84.659 Y73.832
G1 X84.6167 Y73.451
G1 X84.7013 Y73.07
G0 Z3.0
G0 X85.2093 Y75.102
G0 Z1.0
G1 F300.0 Z-0.2
G1 F80.0 X85.548 Y75.0173
G1 X85.7597
G1 X86.0983 Y75.102
G1 X86.6063 Y75.61
G1 X86.691 Y75.9487
G1 Y76.1603
G1 X86.6063 Y76.499
G1 X86.0983 Y77.007
G1 X85.7173 Y77.0917
G1 X85.3363 Y77.0493
G1 X84.1087 Y78.2347
G1 X84.151 Y78.658
G1 X84.0663 Y79.039
G1 X83.5583 Y79.547
G1 X83.2197 Y79.6317
G1 X82.9233
G1 X82.6693 Y79.547
G1 X82.1613 Y79.039
G1 X82.0767 Y78.7003
G1 Y78.4887
G1 X82.1613 Y78.15
G1 X82.6693 Y77.642
G1 X83.0503 Y77.5573
G1 X83.4737 Y77.5997
G1 X84.659 Y76.372
G1 X84.6167 Y75.991
G1 X84.7013 Y75.61
G1 X85.2093 Y75.102
G0 Z3.0
G0 X85.548 Y77.5573
G0 Z1.0
G1 F300.0 Z-0.2
G1 F80.0 X85.7597
G1 X86.0983 Y77.642
G1 X86.6063 Y78.15
G1 X86.691 Y78.4887
G1 Y78.7003
G1 X86.6063 Y79.039
G1 X86.0983 Y79.547
G1 X85.7173 Y79.6317
G1 X85.3363 Y79.5893
G1 X84.1087 Y80.7747
G1 X84.151 Y81.198
G1 X84.0663 Y81.579
G1 X83.5583 Y82.087
G1 X83.2197 Y82.1717
G1 X82.9233
G1 X82.6693 Y82.087
G1 X82.1613 Y81.579
G1 X82.0767 Y81.2403
G1 Y81.0287
G1 X82.1613 Y80.69
G1 X82.6693 Y80.182
G1 X83.0503 Y80.0973
G1 X83.4737 Y80.1397
G1 X84.659 Y78.912
G1 X84.6167 Y78.531
G1 X84.7013 Y78.15
G1 X85.2093 Y77.642
G1 X85.548 Y77.5573
G0 Z3.0
G0 Y80.0973
G0 Z1.0
G1 F300.0 Z-0.2
G1 F80.0 X85.7597
G1 X86.0983 Y80.182
G1 X86.6063 Y80.69
G1 X86.691 Y81.0287
G1 Y81.2403
G1 X86.6063 Y81.579
G1 X86.0983 Y82.087
G1 X85.7173 Y82.1717
G1 X85.3363 Y82.1293
G1 X84.1087 Y83.3147
G1 X84.151 Y83.738
G1 X84.0663 Y84.119
G1 X83.5583 Y84.627
G1 X83.2197 Y84.7117
G1 X82.9233
G1 X82.6693 Y84.627
G1 X82.1613 Y84.119
G1 X82.0767 Y83.7803
G1 Y83.5687
G1 X82.1613 Y83.23
G1 X82.6693 Y82.722
G1 X83.0503 Y82.6373
G1 X83.4737 Y82.6797
G1 X84.659 Y81.452
G1 X84.6167 Y81.071
G1 X84.7013 Y80.69
G1 X85.2093 Y80.182
G1 X85.548 Y80.0973
G0 Z3.0
G0 Y82.6373
G0 Z1.0
G1 F300.0 Z-0.2
G1 F80.0 X85.7597
G1 X86.0983 Y82.722
G1 X86.6063 Y83.23
G1 X86.691 Y83.5687
G1 Y83.7803
G1 X86.6063 Y84.119
G1 X86.0983 Y84.627
G1 X85.7173 Y84.7117
G1 X85.3363 Y84.6693
G1 X84.1933 Y85.77
G1 Y87.294
G1 X82.0343
G1 Y85.135
G1 X83.5583
G1 X84.659 Y83.992
G1 X84.6167 Y83.611
G1 X84.7013 Y83.23
G1 X85.2093 Y82.722
G1 X85.548 Y82.6373
G0 Z3.0
G0 Y85.1773
G0 Z1.0
G1 F300.0 Z-0.2
G1 F80.0 X85.7597
G1 X86.0983 Y85.262
G1 X86.6063 Y85.77
G1 X86.691 Y86.1087
G1 Y86.3203
G1 X86.6063 Y86.659
G1 X86.1407 Y87.1247
G1 X86.0983 Y88.31
G1 X85.8443 Y88.564
G1 X81.103 Y88.6063
G1 X80.9337 Y88.5217
G1 X80.7643 Y88.31
G1 X80.722 Y85.77
G1 X78.5207 Y83.5263
G1 X76.531
G1 Y83.7803
G1 X76.4463 Y84.119
G1 X75.9383 Y84.627
G1 X75.5997 Y84.7117
G1 X75.388
G1 X75.0493 Y84.627
G1 X74.5413 Y84.119
G1 X74.4567 Y83.7803
G1 Y83.5687
G1 X74.5413 Y83.23
G1 X75.0493 Y82.722
G1 X75.4303 Y82.6373
G1 X75.8113 Y82.6797
G1 X76.0653 Y82.5527
G1 X78.8593 Y82.595
G1 X81.6533 Y85.389
G1 X81.6957 Y87.6327
G1 X85.167
G1 Y87.1247
G1 X84.7013 Y86.659
G1 X84.6167 Y86.3203
G1 Y86.1087
G1 X84.7013 Y85.77
G1 X85.2093 Y85.262
G1 X85.548 Y85.1773
G0 Z3.0
G0 Y88.9873
G0 Z1.0
G1 F300.0 Z-0.2
G1 F80.0 X85.7597
G1 X86.0983 Y89.072
G1 X86.6063 Y89.58
G1 X86.691 Y89.9187
G1 Y90.1303
G1 X86.6063 Y90.469
G1 X86.0983 Y90.977
G1 X85.7173 Y91.0617
G1 X85.3363 Y91.0193
G1 X84.1087 Y92.2047
G1 X84.151 Y92.628
G1 X84.0663 Y93.009
G1 X83.5583 Y93.517
G1 X83.2197 Y93.6017
G1 X82.9233
G1 X82.6693 Y93.517
G1 X82.1613 Y93.009
G1 X82.0767 Y92.6703
G1 Y92.4587
G1 X82.1613 Y92.12
G1 X82.6693 Y91.612
G1 X83.0503 Y91.5273
G1 X83.4737 Y91.5697
G1 X84.659 Y90.342
G1 X84.6167 Y89.961
G1 X84.7013 Y89.58
G1 X85.2093 Y89.072
G1 X85.548 Y88.9873
G0 Z3.0
G0 Y91.5273
G0 Z1.0
G1 F300.0 Z-0.2
G1 F80.0 X85.7597
G1 X86.0983 Y91.612
G1 X86.6063 Y92.12
G1 X86.691 Y92.4587
G1 Y92.6703
G1 X86.6063 Y93.009
G1 X86.0983 Y93.517
G1 X85.7173 Y93.6017
G1 X85.3363 Y93.5593
G1 X84.1087 Y94.7447
G1 X84.151 Y95.168
G1 X84.0663 Y95.549
G1 X83.5583 Y96.057
G1 X83.2197 Y96.1417
G1 X82.9233
G1 X82.6693 Y96.057
G1 X82.1613 Y95.549
G1 X82.0767 Y95.2103
G1 Y94.9987
G1 X82.1613 Y94.66
G1 X82.6693 Y94.152
G1 X83.0503 Y94.0673
G1 X83.4737 Y94.1097
G1 X84.659 Y92.882
G1 X84.6167 Y92.501
G1 X84.7013 Y92.12
G1 X85.2093 Y91.612
G1 X85.548 Y91.5273
G0 Z3.0
G0 Y94.0673
G0 Z1.0
G1 F300.0 Z-0.2
G1 F80.0 X85.7597
G1 X86.0983 Y94.152
G1 X86.6063 Y94.66
G1 X86.691 Y94.9987
G1 Y95.2103
G1 X86.6063 Y95.549
G1 X86.0983 Y96.057
G1 X85.7173 Y96.1417
G1 X85.3363 Y96.0993
G1 X84.1087 Y97.2847
G1 X84.151 Y97.708
G1 X84.0663 Y98.089
G1 X83.5583 Y98.597
G1 X83.2197 Y98.6817
G1 X82.9233
G1 X82.6693 Y98.597
G1 X82.1613 Y98.089
G1 X82.0767 Y97.7503
G1 Y97.5387
G1 X82.1613 Y97.2
G1 X82.6693 Y96.692
G1 X83.0503 Y96.6073
G1 X83.4737 Y96.6497
G1 X84.659 Y95.422
G1 X84.6167 Y95.041
G1 X84.7013 Y94.66
G1 X85.2093 Y94.152
G1 X85.548 Y94.0673
G0 Z3.0
G0 Y96.6073
G0 Z1.0
G1 F300.0 Z-0.2
G1 F80.0 X85.7597
G1 X86.0983 Y96.692
G1 X86.6063 Y97.2
G1 X86.691 Y97.5387
G1 Y97.7503
G1 X86.6063 Y98.089
G1 X86.0983 Y98.597
G1 X85.7173 Y98.6817
G1 X85.3363 Y98.6393
G1 X84.1087 Y99.8247
G1 X84.151 Y100.248
G1 X84.0663 Y100.629
G1 X83.5583 Y101.137
G1 X83.2197 Y101.2217
G1 X82.9233
G1 X82.6693 Y101.137
G1 X82.1613 Y100.629
G1 X82.0767 Y100.2903
G1 Y100.0787
G1 X82.1613 Y99.74
G1 X82.6693 Y99.232
G1 X83.0503 Y99.1473
G1 X83.4737 Y99.1897
G1 X84.659 Y97.962
G1 X84.6167 Y97.581
G1 X84.7013 Y97.2
G1 X85.2093 Y96.692
G1 X85.548 Y96.6073
G0 Z3.0
G0 Y99.1473
G0 Z1.0
G1 F300.0 Z-0.2
G1 F80.0 X85.7597
G1 X86.0983 Y99.232
G1 X86.6063 Y99.74
G1 X86.691 Y100.0787
G1 Y100.2903
G1 X86.6063 Y100.629
G1 X86.0983 Y101.137
G1 X85.7173 Y101.2217
G1 X85.3363 Y101.1793
G1 X84.1087 Y102.3647
G1 X84.151 Y102.788
G1 X84.0663 Y103.169
G1 X83.5583 Y103.677
G1 X83.2197 Y103.7617
G1 X82.9233
G1 X82.6693 Y103.677
G1 X82.1613 Y103.169
G1 X82.0767 Y102.8303
G1 Y102.6187
G1 X82.1613 Y102.28
G1 X82.6693 Y101.772
G1 X83.0503 Y101.6873
G1 X83.4737 Y101.7297
G1 X84.659 Y100.502
G1 X84.6167 Y100.121
G1 X84.7013 Y99.74
G1 X85.2093 Y99.232
G1 X85.548 Y99.1473
G0 Z3.0
G0 Y101.6873
G0 Z1.0
G1 F300.0 Z-0.2
G1 F80.0 X85.7597
G1 X86.0983 Y101.772
G1 X86.6063 Y102.28
G1 X86.691 Y102.6187
G1 Y102.8303
G1 X86.6063 Y103.169
G1 X86.0983 Y103.677
G1 X85.7173 Y103.7617
G1 X85.3363 Y103.7193
G1 X84.1087 Y104.9047
G1 X84.151 Y105.328
G1 X84.0663 Y105.709
G1 X83.5583 Y106.217
G1 X83.2197 Y106.3017
G1 X82.9233
G1 X82.6693 Y106.217
G1 X82.1613 Y105.709
G1 X82.0767 Y105.3703
G1 Y105.1587
G1 X82.1613 Y104.82
G1 X82.6693 Y104.312
G1 X83.0503 Y104.2273
G1 X83.4737 Y104.2697
G1 X84.659 Y103.042
G1 X84.6167 Y102.661
G1 X84.7013 Y102.28
G1 X85.2093 Y101.772
G1 X85.548 Y101.6873
G0 Z3.0
G0 Y104.2273
G0 Z1.0
G1 F300.0 Z-0.2
G1 F80.0 X85.7597
G1 X86.0983 Y104.312
G1 X86.6063 Y104.82
G1 X86.691 Y105.1587
G1 Y105.3703
G1 X86.6063 Y105.709
G1 X86.0983 Y106.217
G1 X85.7173 Y106.3017
G1 X85.3363 Y106.2593
G1 X84.1933 Y107.36
G1 Y108.884
G1 X82.0343
G1 Y106.725
G1 X83.5583
G1 X84.659 Y105.582
G1 X84.6167 Y105.201
G1 X84.7013 Y104.82
G1 X85.2093 Y104.312
G1 X85.548 Y104.2273
G0 Z3.0
G0 Y106.7673
G0 Z1.0
G1 F300.0 Z-0.2
G1 F80.0 X85.7597
G1 X86.0983 Y106.852
G1 X86.6063 Y107.36
G1 X86.691 Y107.6987
G1 Y107.9103
G1 X86.6063 Y108.249
G1 X86.1407 Y108.7147
G1 X86.0983 Y109.9
G1 X85.8443 Y110.154
G1 X81.103 Y110.1963
G1 X80.9337 Y110.1117
G1 X80.7643 Y109.9
G1 X80.722 Y107.36
G1 X78.5207 Y105.1163
G1 X76.531
G1 Y105.3703
G1 X76.4463 Y105.709
G1 X75.9383 Y106.217
G1 X75.5997 Y106.3017
G1 X75.388
G1 X75.0493 Y106.217
G1 X74.5413 Y105.709
G1 X74.4567 Y105.3703
G1 Y105.1587
G1 X74.5413 Y104.82
G1 X75.0493 Y104.312
G1 X75.4303 Y104.2273
G1 X75.8113 Y104.2697
G1 X76.0653 Y104.1427
G1 X78.8593 Y104.185
G1 X81.6533 Y106.979
G1 X81.6957 Y109.2227
G1 X85.167
G1 Y108.7147
G1 X84.7013 Y108.249
G1 X84.6167 Y107.9103
G1 Y107.6987
G1 X84.7013 Y107.36
G1 X85.2093 Y106.852
G1 X85.548 Y106.7673
G0 Z3.0
G0 Y110.5773
G0 Z1.0
G1 F300.0 Z-0.2
G1 F80.0 X85.7597
G1 X86.0983 Y110.662
G1 X86.6063 Y111.17
G1 X86.691 Y111.5087
G1 Y111.7203
G1 X86.6063 Y112.059
G1 X86.0983 Y112.567
G1 X85.7173 Y112.6517
G1 X85.3363 Y112.6093
G1 X84.1087 Y113.7947
G1 X84.151 Y114.218
G1 X84.0663 Y114.599
G1 X83.5583 Y115.107
G1 X83.2197 Y115.1917
G1 X82.9233
G1 X82.6693 Y115.107
G1 X82.1613 Y114.599
G1 X82.0767 Y114.2603
G1 Y114.0487
G1 X82.1613 Y113.71
G1 X82.6693 Y113.202
G1 X83.0503 Y113.1173
G1 X83.4737 Y113.1597
G1 X84.659 Y111.932
G1 X84.6167 Y111.551
G1 X84.7013 Y111.17
G1 X85.2093 Y110.662
G1 X85.548 Y110.5773
G0 Z3.0
G0 Y113.1173
G0 Z1.0
G1 F300.0 Z-0.2
G1 F80.0 X85.7597
G1 X86.0983 Y113.202
G1 X86.6063 Y113.71
G1 X86.691 Y114.0487
G1 Y114.2603
G1 X86.6063 Y114.599
G1 X86.0983 Y115.107
G1 X85.7173 Y115.1917
G1 X85.3363 Y115.1493
G1 X84.1087 Y116.3347
G1 X84.151 Y116.758
G1 X84.0663 Y117.139
G1 X83.5583 Y117.647
G1 X83.2197 Y117.7317
G1 X82.9233
G1 X82.6693 Y117.647
G1 X82.1613 Y117.139
G1 X82.0767 Y116.8003
G1 Y116.5887
G1 X82.1613 Y116.25
G1 X82.6693 Y115.742
G1 X83.0503 Y115.6573
G1 X83.4737 Y115.6997
G1 X84.659 Y114.472
G1 X84.6167 Y114.091
G1 X84.7013 Y113.71
G1 X85.2093 Y113.202
G1 X85.548 Y113.1173
G0 Z3.0
G0 Y115.6573
G0 Z1.0
G1 F300.0 Z-0.2
G1 F80.0 X85.7597
G1 X86.0983 Y115.742
G1 X86.6063 Y116.25
G1 X86.691 Y116.5887
G1 Y116.8003
G1 X86.6063 Y117.139
G1 X86.0983 Y117.647
G1 X85.7173 Y117.7317
G1 X85.3363 Y117.6893
G1 X84.1087 Y118.8747
G1 X84.151 Y119.298
G1 X84.0663 Y119.679
G1 X83.5583 Y120.187
G1 X83.2197 Y120.2717
G1 X82.9233
G1 X82.6693 Y120.187
G1 X82.1613 Y119.679
G1 X82.0767 Y119.3403
G1 Y119.1287
G1 X82.1613 Y118.79
G1 X82.6693 Y118.282
G1 X83.0503 Y118.1973
G1 X83.4737 Y118.2397
G1 X84.659 Y117.012
G1 X84.6167 Y116.631
G1 X84.7013 Y116.25
G1 X85.2093 Y115.742
G1 X85.548 Y115.6573
G0 Z3.0
G0 Y118.1973
G0 Z1.0
G1 F300.0 Z-0.2
G1 F80.0 X85.7597
G1 X86.0983 Y118.282
G1 X86.6063 Y118.79
G1 X86.691 Y119.1287
G1 Y119.3403
G1 X86.6063 Y119.679
G1 X86.0983 Y120.187
G1 X85.7173 Y120.2717
G1 X85.3363 Y120.2293
G1 X84.1087 Y121.4147
G1 X84.151 Y121.838
G1 X84.0663 Y122.219
G1 X83.5583 Y122.727
G1 X83.2197 Y122.8117
G1 X82.9233
G1 X82.6693 Y122.727
G1 X82.1613 Y122.219
G1 X82.0767 Y121.8803
G1 Y121.6687
G1 X82.1613 Y121.33
G1 X82.6693 Y120.822
G1 X83.0503 Y120.7373
G1 X83.4737 Y120.7797
G1 X84.659 Y119.552
G1 X84.6167 Y119.171
G1 X84.7013 Y118.79
G1 X85.2093 Y118.282
G1 X85.548 Y118.1973
G0 Z3.0
G0 Y120.7373
G0 Z1.0
G1 F300.0 Z-0.2
G1 F80.0 X85.7597
G1 X86.0983 Y120.822
G1 X86.6063 Y121.33
G1 X86.691 Y121.6687
G1 Y121.8803
G1 X86.6063 Y122.219
G1 X86.0983 Y122.727
G1 X85.7173 Y122.8117
G1 X85.3363 Y122.7693
G1 X84.1087 Y123.9547
G1 X84.151 Y124.378
G1 X84.0663 Y124.759
G1 X83.5583 Y125.267
G1 X83.2197 Y125.3517
G1 X82.9233
G1 X82.6693 Y125.267
G1 X82.1613 Y124.759
G1 X82.0767 Y124.4203
G1 Y124.2087
G1 X82.1613 Y123.87
G1 X82.6693 Y123.362
G1 X83.0503 Y123.2773
G1 X83.4737 Y123.3197
G1 X84.659 Y122.092
G1 X84.6167 Y121.711
G1 X84.7013 Y121.33
G1 X85.2093 Y120.822
G1 X85.548 Y120.7373
G0 Z3.0
G0 Y123.2773
G0 Z1.0
G1 F300.0 Z-0.2
G1 F80.0 X85.7597
G1 X86.0983 Y123.362
G1 X86.6063 Y123.87
G1 X86.691 Y124.2087
G1 Y124.4203
G1 X86.6063 Y124.759
G1 X86.0983 Y125.267
G1 X85.7173 Y125.3517
G1 X85.3363 Y125.3093
G1 X84.1087 Y126.4947
G1 X84.151 Y126.918
G1 X84.0663 Y127.299
G1 X83.5583 Y127.807
G1 X83.2197 Y127.8917
G1 X82.9233
G1 X82.6693 Y127.807
G1 X82.1613 Y127.299
G1 X82.0767 Y126.9603
G1 Y126.7487
G1 X82.1613 Y126.41
G1 X82.6693 Y125.902
G1 X83.0503 Y125.8173
G1 X83.4737 Y125.8597
G1 X84.659 Y124.632
G1 X84.6167 Y124.251
G1 X84.7013 Y123.87
G1 X85.2093 Y123.362
G1 X85.548 Y123.2773
G0 Z3.0
G0 Y125.8173
G0 Z1.0
G1 F300.0 Z-0.2
G1 F80.0 X85.7597
G1 X86.0983 Y125.902
G1 X86.6063 Y126.41
G1 X86.691 Y126.7487
G1 Y126.9603
G1 X86.6063 Y127.299
G1 X86.0983 Y127.807
G1 X85.7173 Y127.8917
G1 X85.3363 Y127.8493
G1 X84.1933 Y128.95
G1 Y130.474
G1 X82.0343
G1 Y128.315
G1 X83.5583
G1 X84.659 Y127.172
G1 X84.6167 Y126.791
G1 X84.7013 Y126.41
G1 X85.2093 Y125.902
G1 X85.548 Y125.8173
G0 Z3.0
G0 Y128.3573
G0 Z1.0
G1 F300.0 Z-0.2
G1 F80.0 X85.7597
G1 X86.0983 Y128.442
G1 X86.6063 Y128.95
G1 X86.691 Y129.2887
G1 Y129.5003
G1 X86.6063 Y129.839
G1 X86.1407 Y130.3047
G1 X86.0983 Y131.49
G1 X85.8443 Y131.744
G1 X81.103 Y131.7863
G1 X80.9337 Y131.7017
G1 X80.7643 Y131.49
G1 X80.722 Y124.1663
G1 X78.817
G1 X76.4887 Y126.537
G1 X76.531 Y126.918
G1 X76.4463 Y127.299
G1 X75.9383 Y127.807
G1 X75.5997 Y127.8917
G1 X75.388
G1 X75.0493 Y127.807
G1 X74.5413 Y127.299
G1 X74.4567 Y126.9603
G1 Y126.7487
G1 X74.5413 Y126.41
G1 X75.0493 Y125.902
G1 X75.4303 Y125.8173
G1 X75.8113 Y125.8597
G1 X78.4783 Y123.235
G1 X81.3993
G1 X81.6533 Y123.489
G1 X81.6957 Y130.8127
G1 X85.167
G1 Y130.3047
G1 X84.7013 Y129.839
G1 X84.6167 Y129.5003
G1 Y129.2887
G1 X84.7013 Y128.95
G1 X85.2093 Y128.442
G1 X85.548 Y128.3573
G0 Z3.0
G0 X84.5743 Y132.125
G0 Z1.0
G1 F300.0 Z-0.2
G1 F80.0 X86.0983 Y133.649
G1 Y137.84
G1 X84.5743 Y139.364
G1 X81.484 Y139.4063
G1 X81.0183 Y139.872
G1 X80.6797 Y139.9567
G1 X80.3833
G1 X80.1293 Y139.872
G1 X79.6213 Y139.364
G1 X79.5367 Y139.0253
G1 Y138.8137
G1 X79.6213 Y138.475
G1 X80.1293 Y137.967
G1 X80.468 Y137.8823
G1 X80.6797
G1 X81.0183 Y137.967
G1 X81.484 Y138.4327
G1 X84.2357
G1 X85.167 Y137.459
G1 Y133.9877
G1 X84.1933 Y133.0563
G1 X79.1133 Y133.014
G1 X78.8593 Y132.76
G1 X78.817 Y126.4947
G1 X78.3513 Y126.029
G1 X78.2667 Y125.6903
G1 Y125.4787
G1 X78.3513 Y125.14
G1 X78.8593 Y124.632
G1 X79.198 Y124.5473
G1 X79.4097
G1 X79.7483 Y124.632
G1 X80.2563 Y125.14
G1 X80.341 Y125.4787
G1 Y125.6903
G1 X80.2563 Y126.029
G1 X79.7907 Y126.4947
G1 Y132.0827
G1 X84.5743 Y132.125
G0 Z3.0
G0 X81.611 Y135.3423
G0 Z1.0
G1 F300.0 Z-0.2
G1 F80.0 Y137.4167
G1 X79.5367
G1 Y135.3847
G1 X75.0493 Y130.855
G1 X75.007 Y130.3047
G1 X74.5413 Y129.839
G1 X74.4567 Y129.5003
G1 Y129.2887
G1 X74.5413 Y128.95
G1 X75.0493 Y128.442
G1 X75.388 Y128.3573
G1 X75.642
G1 X75.896 Y128.442
G1 X76.1923 Y128.6537
G1 X76.404 Y128.4843
G1 X76.3617 Y128.061
G1 X76.4463 Y127.68
G1 X76.9543 Y127.172
G1 X77.293 Y127.0873
G1 X77.5047
G1 X77.8433 Y127.172
G1 X78.3513 Y127.68
G1 X78.436 Y128.0187
G1 Y128.2303
G1 X78.3513 Y128.569
G1 X77.8433 Y129.077
G1 X77.4623 Y129.1617
G1 X77.039 Y129.1193
G1 X76.4463 Y129.7543
G1 X76.3617 Y129.966
G1 X75.9807 Y130.3047
G1 Y130.5163
G1 X80.849 Y135.3423
G1 X81.611
G0 Z3.0
G0 X89.6967 Y136.2737
G0 Z1.0
G1 F300.0 Z-0.2
G1 F80.0 X89.7813 Y135.935
G1 X90.2893 Y135.427
G1 X90.6703 Y135.3423
G1 X91.0513 Y135.3847
G1 X93.0833 Y133.395
G1 X93.549 Y133.3527
G1 Y132.8447
G1 X95.5387
G1 Y134.8343
G1 X93.549
G1 Y134.3263
G1 X93.422
G1 X91.7287 Y136.062
G1 X91.771 Y136.443
G1 X91.6863 Y136.824
G1 X91.1783 Y137.332
G1 X90.8397 Y137.4167
G1 X90.5433
G1 X90.2893 Y137.332
G1 X89.7813 Y136.824
G1 X89.6967 Y136.4853
G1 Y136.2737
G0 Z3.0
G0 Y137.8823
G0 Z1.0
G1 F300.0 Z-0.2
G1 F80.0 X91.771
G1 Y138.4327
G1 X93.549
G1 Y137.9247
G1 X95.5387
G1 Y139.9143
G1 X93.549
G1 Y139.4063
G1 X91.771
G1 Y139.9567
G1 X89.6967
G1 Y137.8823
G0 Z3.0
G0 X94.7767 Y130.4317
G0 Z1.0
G1 F300.0 Z-0.2
G1 F80.0 Y128.3573
G1 X96.851
G1 Y128.9077
G1 X96.9357
G1 X97.2743 Y128.5267
G1 Y127.045
G1 X99.4333
G1 Y129.204
G1 X97.9517
G1 X97.2743 Y129.839
G1 X96.851 Y129.8813
G1 Y130.4317
G1 X94.7767
G0 Z3.0
G0 Y127.8917
G0 Z1.0
G1 F300.0 Z-0.2
G1 F80.0 Y125.8173
G1 X96.851
G1 X97.4013 Y125.2247
G1 X97.486 Y125.013
G1 X97.9093 Y124.632
G1 X98.248 Y124.5473
G1 X98.4597
G1 X98.7983 Y124.632
G1 X99.3063 Y125.14
G1 X99.391 Y125.4787
G1 Y125.6903
G1 X99.3063 Y126.029
G1 X98.7983 Y126.537
G1 X98.4597 Y126.6217
G1 X98.2057
G1 X97.9517 Y126.537
G1 X97.6553 Y126.3253
G1 X96.851 Y127.0873
G1 Y127.8917
G1 X94.7767
G0 Z3.0
G0 Y125.3517
G0 Z1.0
G1 F300.0 Z-0.2
G1 F80.0 Y123.2773
G1 X96.851
G1 X97.4013 Y122.6847
G1 X97.486 Y122.473
G1 X97.9093 Y122.092
G1 X98.248 Y122.0073
G1 X98.4597
G1 X98.7983 Y122.092
G1 X99.3063 Y122.6
G1 X99.391 Y122.9387
G1 Y123.1503
G1 X99.3063 Y123.489
G1 X98.7983 Y123.997
G1 X98.4597 Y124.0817
G1 X98.2057
G1 X97.9517 Y123.997
G1 X97.6553 Y123.7853
G1 X96.851 Y124.5473
G1 Y125.3517
G1 X94.7767
G0 Z3.0
G0 Y122.8117
G0 Z1.0
G1 F300.0 Z-0.2
G1 F80.0 Y120.7373
G1 X96.851
G1 X97.4013 Y120.1447
G1 X97.486 Y119.933
G1 X97.9093 Y119.552
G1 X98.248 Y119.4673
G1 X98.4597
G1 X98.7983 Y119.552
G1 X99.3063 Y120.06
G1 X99.391 Y120.3987
G1 Y120.6103
G1 X99.3063 Y120.949
G1 X98.7983 Y121.457
G1 X98.4597 Y121.5417
G1 X98.2057
G1 X97.9517 Y121.457
G1 X97.6553 Y121.2453
G1 X96.851 Y122.0073
G1 Y122.8117
G1 X94.7767
G0 Z3.0
G0 Y120.2717
G0 Z1.0
G1 F300.0 Z-0.2
G1 F80.0 Y118.1973
G1 X96.851
G1 X97.4013 Y117.6047
G1 X97.486 Y117.393
G1 X97.9093 Y117.012
G1 X98.248 Y116.9273
G1 X98.4597
G1 X98.7983 Y117.012
G1 X99.3063 Y117.52
G1 X99.391 Y117.8587
G1 Y118.0703
G1 X99.3063 Y118.409
G1 X98.7983 Y118.917
G1 X98.4597 Y119.0017
G1 X98.2057
G1 X97.9517 Y118.917
G1 X97.6553 Y118.7053
G1 X96.851 Y119.4673
G1 Y120.2717
G1 X94.7767
G0 Z3.0
G0 Y117.7317
G0 Z1.0
G1 F300.0 Z-0.2
G1 F80.0 Y115.6573
G1 X96.851
G1 X97.4013 Y115.0647
G1 X97.486 Y114.853
G1 X97.9093 Y114.472
G1 X98.248 Y114.3873
G1 X98.4597
G1 X98.7983 Y114.472
G1 X99.3063 Y114.98
G1 X99.391 Y115.3187
G1 Y115.5303
G1 X99.3063 Y115.869
G1 X98.7983 Y116.377
G1 X98.4597 Y116.4617
G1 X98.2057
G1 X97.9517 Y116.377
G1 X97.6553 Y116.1653
G1 X96.851 Y116.9273
G1 Y117.7317
G1 X94.7767
G0 Z3.0
G0 Y115.1917
G0 Z1.0
G1 F300.0 Z-0.2
G1 F80.0 Y113.1173
G1 X96.851
G1 X97.4013 Y112.5247
G1 X97.486 Y112.313
G1 X97.9093 Y111.932
G1 X98.248 Y111.8473
G1 X98.4597
G1 X98.7983 Y111.932
G1 X99.3063 Y112.44
G1 X99.391 Y112.7787
G1 Y112.9903
G1 X99.3063 Y113.329
G1 X98.7983 Y113.837
G1 X98.4597 Y113.9217
G1 X98.2057
G1 X97.9517 Y113.837
G1 X97.6553 Y113.6253
G1 X96.851 Y114.3873
G1 Y115.1917
G1 X94.7767
G0 Z3.0
G0 Y112.6517
G0 Z1.0
G1 F300.0 Z-0.2
G1 F80.0 Y110.5773
G1 X96.851
G1 X97.4013 Y109.9847
G1 X97.486 Y109.773
G1 X97.9093 Y109.392
G1 X98.248 Y109.3073
G1 X98.4597
G1 X98.7983 Y109.392
G1 X99.3063 Y109.9
G1 X99.391 Y110.2387
G1 Y110.4503
G1 X99.3063 Y110.789
G1 X98.7983 Y111.297
G1 X98.4597 Y111.3817
G1 X98.2057
G1 X97.9517 Y111.297
G1 X97.6553 Y111.0853
G1 X96.851 Y111.8473
G1 Y112.6517
G1 X94.7767
G0 Z3.0
G0 Y108.8417
G0 Z1.0
G1 F300.0 Z-0.2
G1 F80.0 Y106.7673
G1 X96.851
G1 Y107.3177
G1 X97.2743
G1 Y106.725
G1 X99.4333
G1 Y108.884
G1 X97.2743
G1 Y108.2913
G1 X96.851
G1 Y108.8417
G1 X94.7767
G0 Z3.0
G0 Y106.3017
G0 Z1.0
G1 F300.0 Z-0.2
G1 F80.0 Y104.2273
G1 X96.851
G1 Y104.7777
G1 X97.4437
G1 X97.9093 Y104.312
G1 X98.248 Y104.2273
G1 X98.4597
G1 X98.7983 Y104.312
G1 X99.3063 Y104.82
G1 X99.391 Y105.1587
G1 Y105.3703
G1 X99.3063 Y105.709
G1 X98.7983 Y106.217
G1 X98.4597 Y106.3017
G1 X98.248
G1 X97.9093 Y106.217
G1 X97.4437 Y105.7513
G1 X96.851
G1 Y106.3017
G1 X94.7767
G0 Z3.0
G0 Y103.7617
G0 Z1.0
G1 F300.0 Z-0.2
G1 F80.0 Y101.6873
G1 X96.851
G1 Y102.2377
G1 X97.4437
G1 X97.9093 Y101.772
G1 X98.248 Y101.6873
G1 X98.4597
G1 X98.7983 Y101.772
G1 X99.3063 Y102.28
G1 X99.391 Y102.6187
G1 Y102.8303
G1 X99.3063 Y103.169
G1 X98.7983 Y103.677
G1 X98.4597 Y103.7617
G1 X98.248
G1 X97.9093 Y103.677
G1 X97.4437 Y103.2113
G1 X96.851
G1 Y103.7617
G1 X94.7767
G0 Z3.0
G0 Y101.2217
G0 Z1.0
G1 F300.0 Z-0.2
G1 F80.0 Y99.1473
G1 X96.851
G1 Y99.6977
G1 X97.4437
G1 X97.9093 Y99.232
G1 X98.248 Y99.1473
G1 X98.4597
G1 X98.7983 Y99.232
G1 X99.3063 Y99.74
G1 X99.391 Y100.0787
G1 Y100.2903
G1 X99.3063 Y100.629
G1 X98.7983 Y101.137
G1 X98.4597 Y101.2217
G1 X98.248
G1 X97.9093 Y101.137
G1 X97.4437 Y100.6713
G1 X96.851
G1 Y101.2217
G1 X94.7767
G0 Z3.0
G0 Y98.6817
G0 Z1.0
G1 F300.0 Z-0.2
G1 F80.0 Y96.6073
G1 X96.851
G1 Y97.1577
G1 X97.4437
G1 X97.9093 Y96.692
G1 X98.248 Y96.6073
G1 X98.4597
G1 X98.7983 Y96.692
G1 X99.3063 Y97.2
G1 X99.391 Y97.5387
G1 Y97.7503
G1 X99.3063 Y98.089
G1 X98.7983 Y98.597
G1 X98.4597 Y98.6817
G1 X98.248
G1 X97.9093 Y98.597
G1 X97.4437 Y98.1313
G1 X96.851
G1 Y98.6817
G1 X94.7767
G0 Z3.0
G0 Y96.1417
G0 Z1.0
G1 F300.0 Z-0.2
G1 F80.0 Y94.0673
G1 X96.851
G1 Y94.6177
G1 X97.4437
G1 X97.9093 Y94.152
G1 X98.248 Y94.0673
G1 X98.4597
G1 X98.7983 Y94.152
G1 X99.3063 Y94.66
G1 X99.391 Y94.9987
G1 Y95.2103
G1 X99.3063 Y95.549
G1 X98.7983 Y96.057
G1 X98.4597 Y96.1417
G1 X98.248
G1 X97.9093 Y96.057
G1 X97.4437 Y95.5913
G1 X96.851
G1 Y96.1417
G1 X94.7767
G0 Z3.0
G0 Y93.6017
G0 Z1.0
G1 F300.0 Z-0.2
G1 F80.0 Y91.5273
G1 X96.851
G1 Y92.0777
G1 X97.4437
G1 X97.9093 Y91.612
G1 X98.248 Y91.5273
G1 X98.4597
G1 X98.7983 Y91.612
G1 X99.3063 Y92.12
G1 X99.391 Y92.4587
G1 Y92.6703
G1 X99.3063 Y93.009
G1 X98.7983 Y93.517
G1 X98.4597 Y93.6017
G1 X98.248
G1 X97.9093 Y93.517
G1 X97.4437 Y93.0513
G1 X96.851
G1 Y93.6017
G1 X94.7767
G0 Z3.0
G0 Y91.0617
G0 Z1.0
G1 F300.0 Z-0.2
G1 F80.0 Y88.9873
G1 X96.851
G1 Y89.5377
G1 X97.4437
G1 X97.9093 Y89.072
G1 X98.248 Y88.9873
G1 X98.4597
G1 X98.7983 Y89.072
G1 X99.3063 Y89.58
G1 X99.391 Y89.9187
G1 Y90.1303
G1 X99.3063 Y90.469
G1 X98.7983 Y90.977
G1 X98.4597 Y91.0617
G1 X98.248
G1 X97.9093 Y90.977
G1 X97.4437 Y90.5113
G1 X96.851
G1 Y91.0617
G1 X94.7767
G0 Z3.0
G0 X97.2743 Y88.564
G0 Z1.0
G1 F300.0 Z-0.2
G1 F80.0 Y87.675
G1 X96.8087 Y87.2517
G1 X94.7767
G1 Y85.1773
G1 X96.851
G1 Y85.9817
G1 X97.3167 Y86.405
G1 X99.4333
G1 Y88.564
G1 X97.2743
G0 Z3.0
G0 X98.1379 Y85.9732
G0 Z1.0
G1 F300.0 Z-0.2
G1 F80.0 X97.9093 Y85.897
G1 X97.486 Y85.516
G1 X97.4013 Y85.3043
G1 X96.851 Y84.7117
G1 X94.7767
G1 Y82.6373
G1 X96.851
G1 Y83.4417
G1 X97.6553 Y84.2037
G1 X97.9517 Y83.992
G1 X98.2057 Y83.9073
G1 X98.4597
G1 X98.7983 Y83.992
G1 X99.3063 Y84.5
G1 X99.391 Y84.8387
G1 Y85.0503
G1 X99.3063 Y85.389
G1 X98.7983 Y85.897
G1 X98.4597 Y85.9817
G1 X98.1633
G1 X98.1379 Y85.9732
G0 Z3.0
G0 X98.1633 Y83.4417
G0 Z1.0
G1 F300.0 Z-0.2
G1 F80.0 X97.9093 Y83.357
G1 X97.486 Y82.976
G1 X97.4013 Y82.7643
G1 X96.851 Y82.1717
G1 X94.7767
G1 Y80.0973
G1 X96.851
G1 Y80.9017
G1 X97.6553 Y81.6637
G1 X97.9517 Y81.452
G1 X98.2057 Y81.3673
G1 X98.4597
G1 X98.7983 Y81.452
G1 X99.3063 Y81.96
G1 X99.391 Y82.2987
G1 Y82.5103
G1 X99.3063 Y82.849
G1 X98.7983 Y83.357
G1 X98.4597 Y83.4417
G1 X98.1633
G0 Z3.0
G0 Y80.9017
G0 Z1.0
G1 F300.0 Z-0.2
G1 F80.0 X97.9093 Y80.817
G1 X97.486 Y80.436
G1 X97.4013 Y80.2243
G1 X96.851 Y79.6317
G1 X94.7767
G1 Y77.5573
G1 X96.851
G1 Y78.3617
G1 X97.6553 Y79.1237
G1 X97.9517 Y78.912
G1 X98.2057 Y78.8273
G1 X98.4597
G1 X98.7983 Y78.912
G1 X99.3063 Y79.42
G1 X99.391 Y79.7587
G1 Y79.9703
G1 X99.3063 Y80.309
G1 X98.7983 Y80.817
G1 X98.4597 Y80.9017
G1 X98.1633
G0 Z3.0
G0 Y78.3617
G0 Z1.0
G1 F300.0 Z-0.2
G1 F80.0 X97.9093 Y78.277
G1 X97.486 Y77.896
G1 X97.4013 Y77.6843
G1 X96.851 Y77.0917
G1 X94.7767
G1 Y75.0173
G1 X96.851
G1 Y75.8217
G1 X97.6553 Y76.5837
G1 X97.9517 Y76.372
G1 X98.2057 Y76.2873
G1 X98.4597
G1 X98.7983 Y76.372
G1 X99.3063 Y76.88
G1 X99.391 Y77.2187
G1 Y77.4303
G1 X99.3063 Y77.769
G1 X98.7983 Y78.277
G1 X98.4597 Y78.3617
G1 X98.1633
G0 Z3.0
G0 Y75.8217
G0 Z1.0
G1 F300.0 Z-0.2
G1 F80.0 X97.9093 Y75.737
G1 X97.486 Y75.356
G1 X97.4013 Y75.1443
G1 X96.851 Y74.5517
G1 X94.7767
G1 Y72.4773
G1 X96.851
G1 Y73.2817
G1 X97.6553 Y74.0437
G1 X97.9517 Y73.832
G1 X98.2057 Y73.7473
G1 X98.4597
G1 X98.7983 Y73.832
G1 X99.3063 Y74.34
G1 X99.391 Y74.6787
G1 Y74.8903
G1 X99.3063 Y75.229
G1 X98.7983 Y75.737
G1 X98.4597 Y75.8217
G1 X98.1633
G0 Z3.0
G0 Y73.2817
G0 Z1.0
G1 F300.0 Z-0.2
G1 F80.0 X97.9093 Y73.197
G1 X97.486 Y72.816
G1 X97.4013 Y72.6043
G1 X96.851 Y72.0117
G1 X94.7767
G1 Y69.9373
G1 X96.851
G1 Y70.7417
G1 X97.6553 Y71.5037
G1 X97.9517 Y71.292
G1 X98.2057 Y71.2073
G1 X98.4597
G1 X98.7983 Y71.292
G1 X99.3063 Y71.8
G1 X99.391 Y72.1387
G1 Y72.3503
G1 X99.3063 Y72.689
G1 X98.7983 Y73.197
G1 X98.4597 Y73.2817
G1 X98.1633
G0 Z3.0
G0 Y70.7417
G0 Z1.0
G1 F300.0 Z-0.2
G1 F80.0 X97.9093 Y70.657
G1 X97.4013 Y70.149
G1 X97.3167 Y69.768
G1 X97.359 Y69.387
G1 X96.9357 Y68.9213
G1 X96.851
G1 Y69.4717
G1 X94.7767
G1 Y67.3973
G1 X96.851
G1 Y67.9477
G1 X97.2743 Y67.99
G1 X98.0363 Y68.7097
G1 X98.4173 Y68.6673
G1 X98.7983 Y68.752
G1 X99.3063 Y69.26
G1 X99.391 Y69.5987
G1 Y69.8103
G1 X99.3063 Y70.149
G1 X98.7983 Y70.657
G1 X98.4597 Y70.7417
G1 X98.1633
G0 Z3.0
G0 X89.231 Y64.3917
G0 Z1.0
G1 F300.0 Z-0.2
G1 F80.0 X87.1567
G1 Y63.8413
G1 X86.7333
G1 Y64.434
G1 X84.3203 Y64.4763
G1 X71.578
G1 X71.4087 Y64.3917
G1 X66.3287 Y59.2693
G1 X65.9053 Y59.3117
G1 X65.5243 Y59.227
G1 X65.0163 Y58.719
G1 X64.9317 Y58.3803
G1 Y58.1687
G1 X65.0163 Y57.83
G1 X65.5243 Y57.322
G1 X65.863 Y57.2373
G1 X66.0747
G1 X66.4133 Y57.322
G1 X66.9213 Y57.83
G1 X67.006 Y58.211
G1 X66.9637 Y58.592
G1 X71.832 Y63.5027
G1 X84.5743
G1 Y62.275
G1 X86.7333
G1 Y62.8677
G1 X87.1567
G1 Y62.3173
G1 X89.231
G1 Y64.3917
G0 Z3.0
G0 Y61.8517
G0 Z1.0
G1 F300.0 Z-0.2
G1 F80.0 X87.1567
G1 Y61.3013
G1 X86.564
G1 X86.0983 Y61.767
G1 X85.7597 Y61.8517
G1 X85.5057
G1 X85.2517 Y61.767
G1 X84.9553 Y61.5553
G1 X84.2357 Y62.2327
G1 X84.1933 Y62.91
G1 X83.9393 Y63.164
G1 X72.848 Y63.2063
G1 X72.6787 Y63.1217
G1 X68.8687 Y59.2693
G1 X68.4453 Y59.3117
G1 X68.0643 Y59.227
G1 X67.5563 Y58.719
G1 X67.4717 Y58.3803
G1 Y58.1687
G1 X67.5563 Y57.83
G1 X68.0643 Y57.322
G1 X68.403 Y57.2373
G1 X68.6147
G1 X68.9533 Y57.322
G1 X69.4613 Y57.83
G1 X69.546 Y58.211
G1 X69.5037 Y58.592
G1 X73.102 Y62.2327
G1 X83.262
G1 X83.3043 Y61.894
G1 X84.7013 Y60.4547
G1 X84.786 Y60.243
G1 X85.2093 Y59.862
G1 X85.548 Y59.7773
G1 X85.7597
G1 X86.0983 Y59.862
G1 X86.564 Y60.3277
G1 X87.1567
G1 Y59.7773
G1 X89.231
G1 Y61.8517
G0 Z3.0
G0 Y59.3117
G0 Z1.0
G1 F300.0 Z-0.2
G1 F80.0 X87.1567
G1 Y58.7613
G1 X86.564
G1 X86.0983 Y59.227
G1 X85.7173 Y59.3117
G1 X85.3363 Y59.2693
G1 X82.6693 Y61.894
G1 X74.118 Y61.9363
G1 X73.9487 Y61.8517
G1 X71.4087 Y59.2693
G1 X70.9853 Y59.3117
G1 X70.6043 Y59.227
G1 X70.0963 Y58.719
G1 X70.0117 Y58.3803
G1 Y58.1687
G1 X70.0963 Y57.83
G1 X70.6043 Y57.322
G1 X70.943 Y57.2373
G1 X71.1547
G1 X71.4933 Y57.322
G1 X72.0013 Y57.83
G1 X72.086 Y58.211
G1 X72.0437 Y58.592
G1 X74.372 Y60.9627
G1 X82.3307
G1 X84.659 Y58.592
G1 X84.6167 Y58.211
G1 X84.7013 Y57.83
G1 X85.2093 Y57.322
G1 X85.548 Y57.2373
G1 X85.7597
G1 X86.0983 Y57.322
G1 X86.564 Y57.7877
G1 X87.1567
G1 Y57.2373
G1 X89.231
G1 Y59.3117
G0 Z3.0
G0 Y56.7717
G0 Z1.0
G1 F300.0 Z-0.2
G1 F80.0 X87.1567
G1 Y56.2213
G1 X86.564
G1 X86.0983 Y56.687
G1 X85.7173 Y56.7717
G1 X85.3363 Y56.7293
G1 X81.3993 Y60.624
G1 X75.388 Y60.6663
G1 X75.2187 Y60.5817
G1 X73.9487 Y59.2693
G1 X73.5253 Y59.3117
G1 X73.1443 Y59.227
G1 X72.6363 Y58.719
G1 X72.5517 Y58.3803
G1 Y58.1687
G1 X72.6363 Y57.83
G1 X73.1443 Y57.322
G1 X73.483 Y57.2373
G1 X73.6947
G1 X74.0333 Y57.322
G1 X74.5413 Y57.83
G1 X74.626 Y58.211
G1 X74.5837 Y58.592
G1 X75.642 Y59.6927
G1 X81.0607
G1 X84.659 Y56.052
G1 X84.6167 Y55.671
G1 X84.7013 Y55.29
G1 X85.2093 Y54.782
G1 X85.548 Y54.6973
G1 X85.7597
G1 X86.0983 Y54.782
G1 X86.564 Y55.2477
G1 X87.1567
G1 Y54.6973
G1 X89.231
G1 Y56.7717
G0 Z3.0
G0 Y54.2317
G0 Z1.0
G1 F300.0 Z-0.2
G1 F80.0 X87.1567
G1 Y53.6813
G1 X86.564
G1 X86.0983 Y54.147
G1 X85.7597 Y54.2317
G1 X85.4633
G1 X85.2093 Y54.147
G1 X84.7013 Y53.639
G1 X84.6167 Y53.258
G1 X84.659 Y52.877
G1 X81.0607 Y49.2363
G1 X75.642
G1 X74.5837 Y50.337
G1 X74.626 Y50.718
G1 X74.5413 Y51.099
G1 X74.0333 Y51.607
G1 X73.6947 Y51.6917
G1 X73.483
G1 X73.1443 Y51.607
G1 X72.6363 Y51.099
G1 X72.5517 Y50.7603
G1 Y50.5487
G1 X72.6363 Y50.21
G1 X73.1443 Y49.702
G1 X73.5253 Y49.6173
G1 X73.9063 Y49.6597
G1 X75.3033 Y48.305
G1 X81.3993
G1 X85.3363 Y52.1997
G1 X85.7173 Y52.1573
G1 X86.0983 Y52.242
G1 X86.564 Y52.7077
G1 X87.1567
G1 Y52.1573
G1 X89.231
G1 Y54.2317
G0 Z3.0
G0 Y51.6917
G0 Z1.0
G1 F300.0 Z-0.2
G1 F80.0 X87.1567
G1 Y51.1413
G1 X86.564
G1 X86.0983 Y51.607
G1 X85.7597 Y51.6917
G1 X85.548
G1 X85.2093 Y51.607
G1 X84.7013 Y51.099
G1 X84.6167 Y50.718
G1 X84.659 Y50.337
G1 X82.3307 Y47.9663
G1 X74.372
G1 X72.0437 Y50.337
G1 X72.086 Y50.718
G1 X72.0013 Y51.099
G1 X71.4933 Y51.607
G1 X71.1547 Y51.6917
G1 X70.8583
G1 X70.6043 Y51.607
G1 X70.0963 Y51.099
G1 X70.0117 Y50.7603
G1 Y50.5487
G1 X70.0963 Y50.21
G1 X70.6043 Y49.702
G1 X70.9853 Y49.6173
G1 X71.3663 Y49.6597
G1 X74.0333 Y47.035
G1 X82.6693
G1 X85.3363 Y49.6597
G1 X85.7173 Y49.6173
G1 X86.0983 Y49.702
G1 X86.564 Y50.1677
G1 X87.1567
G1 Y49.6173
G1 X89.231
G1 Y51.6917
G0 Z3.0
G0 Y49.1517
G0 Z1.0
G1 F300.0 Z-0.2
G1 F80.0 X87.1567
G1 Y48.6013
G1 X86.564
G1 X86.0983 Y49.067
G1 X85.7597 Y49.1517
G1 X85.548
G1 X85.2093 Y49.067
G1 X84.7013 Y48.559
G1 X84.6167 Y48.178
G1 X84.659 Y47.797
G1 X83.6007 Y46.6963
G1 X73.102
G1 X69.5037 Y50.337
G1 X69.546 Y50.718
G1 X69.4613 Y51.099
G1 X68.9533 Y51.607
G1 X68.6147 Y51.6917
G1 X68.3183
G1 X68.0643 Y51.607
G1 X67.5563 Y51.099
G1 X67.4717 Y50.7603
G1 Y50.5487
G1 X67.5563 Y50.21
G1 X68.0643 Y49.702
G1 X68.4453 Y49.6173
G1 X68.8263 Y49.6597
G1 X72.7633 Y45.765
G1 X83.9393
G1 X85.3363 Y47.1197
G1 X85.7173 Y47.0773
G1 X86.0983 Y47.162
G1 X86.564 Y47.6277
G1 X87.1567
G1 Y47.0773
G1 X89.231
G1 Y49.1517
G0 Z3.0
G0 Y46.6117
G0 Z1.0
G1 F300.0 Z-0.2
G1 F80.0 X87.1567
G1 Y46.0613
G1 X86.564
G1 X86.0983 Y46.527
G1 X85.7597 Y46.6117
G1 X85.548
G1 X85.2093 Y46.527
G1 X84.7013 Y46.019
G1 X84.6167 Y45.6803
G1 Y45.4263
G1 X71.832
G1 X66.9637 Y50.337
G1 X67.006 Y50.718
G1 X66.9213 Y51.099
G1 X66.4133 Y51.607
G1 X66.0747 Y51.6917
G1 X65.7783
G1 X65.5243 Y51.607
G1 X65.0163 Y51.099
G1 X64.9317 Y50.7603
G1 Y50.5487
G1 X65.0163 Y50.21
G1 X65.5243 Y49.702
G1 X65.9053 Y49.6173
G1 X66.2863 Y49.6597
G1 X71.4933 Y44.495
G1 X85.0823 Y44.4527
G1 X85.3363 Y44.5797
G1 X85.7173 Y44.5373
G1 X86.0983 Y44.622
G1 X86.564 Y45.0877
G1 X87.1567
G1 Y44.5373
G1 X89.231
G1 Y46.6117
G0 Z3.0
G0 Y44.0717
G0 Z1.0
G1 F300.0 Z-0.2
G1 F80.0 X87.1567
G1 Y43.5213
G1 X86.7333
G1 Y44.114
G1 X84.3203 Y44.1563
G1 X71.578
G1 X71.4087 Y44.0717
G1 X66.3287 Y38.9493
G1 X65.9053 Y38.9917
G1 X65.5243 Y38.907
G1 X65.0163 Y38.399
G1 X64.9317 Y38.0603
G1 Y37.8487
G1 X65.0163 Y37.51
G1 X65.5243 Y37.002
G1 X65.863 Y36.9173
G1 X66.0747
G1 X66.4133 Y37.002
G1 X66.9213 Y37.51
G1 X67.006 Y37.891
G1 X66.9637 Y38.272
G1 X71.832 Y43.1827
G1 X84.5743
G1 Y41.955
G1 X86.7333
G1 Y42.5477
G1 X87.1567
G1 Y41.9973
G1 X89.231
G1 Y44.0717
G0 Z3.0
G0 Y41.5317
G0 Z1.0
G1 F300.0 Z-0.2
G1 F80.0 X87.1567
G1 Y40.9813
G1 X86.564
G1 X86.0983 Y41.447
G1 X85.7597 Y41.5317
G1 X85.5057
G1 X85.2517 Y41.447
G1 X84.9553 Y41.2353
G1 X84.2357 Y41.9127
G1 X84.1933 Y42.59
G1 X83.9393 Y42.844
G1 X72.848 Y42.8863
G1 X72.6787 Y42.8017
G1 X68.8687 Y38.9493
G1 X68.4453 Y38.9917
G1 X68.0643 Y38.907
G1 X67.5563 Y38.399
G1 X67.4717 Y38.0603
G1 Y37.8487
G1 X67.5563 Y37.51
G1 X68.0643 Y37.002
G1 X68.403 Y36.9173
G1 X68.6147
G1 X68.9533 Y37.002
G1 X69.4613 Y37.51
G1 X69.546 Y37.891
G1 X69.5037 Y38.272
G1 X73.102 Y41.9127
G1 X83.262
G1 X83.3043 Y41.574
G1 X84.7013 Y40.1347
G1 X84.786 Y39.923
G1 X85.2093 Y39.542
G1 X85.548 Y39.4573
G1 X85.7597
G1 X86.0983 Y39.542
G1 X86.564 Y40.0077
G1 X87.1567
G1 Y39.4573
G1 X89.231
G1 Y41.5317
G0 Z3.0
G0 Y38.9917
G0 Z1.0
G1 F300.0 Z-0.2
G1 F80.0 X87.1567
G1 Y38.4413
G1 X86.564
G1 X86.0983 Y38.907
G1 X85.7173 Y38.9917
G1 X85.3363 Y38.9493
G1 X82.6693 Y41.574
G1 X74.118 Y41.6163
G1 X73.9487 Y41.5317
G1 X71.4087 Y38.9493
G1 X70.9853 Y38.9917
G1 X70.6043 Y38.907
G1 X70.0963 Y38.399
G1 X70.0117 Y38.0603
G1 Y37.8487
G1 X70.0963 Y37.51
G1 X70.6043 Y37.002
G1 X70.943 Y36.9173
G1 X71.1547
G1 X71.4933 Y37.002
G1 X72.0013 Y37.51
G1 X72.086 Y37.891
G1 X72.0437 Y38.272
G1 X74.372 Y40.6427
G1 X82.3307
G1 X84.659 Y38.272
G1 X84.6167 Y37.891
G1 X84.7013 Y37.51
G1 X85.2093 Y37.002
G1 X85.548 Y36.9173
G1 X85.7597
G1 X86.0983 Y37.002
G1 X86.564 Y37.4677
G1 X87.1567
G1 Y36.9173
G1 X89.231
G1 Y38.9917
G0 Z3.0
G0 Y36.4517
G0 Z1.0
G1 F300.0 Z-0.2
G1 F80.0 X87.1567
G1 Y35.9013
G1 X86.564
G1 X86.0983 Y36.367
G1 X85.7173 Y36.4517
G1 X85.3363 Y36.4093
G1 X81.3993 Y40.304
G1 X75.388 Y40.3463
G1 X75.2187 Y40.2617
G1 X73.9487 Y38.9493
G1 X73.5253 Y38.9917
G1 X73.1443 Y38.907
G1 X72.6363 Y38.399
G1 X72.5517 Y38.0603
G1 Y37.8487
G1 X72.6363 Y37.51
G1 X73.1443 Y37.002
G1 X73.483 Y36.9173
G1 X73.6947
G1 X74.0333 Y37.002
G1 X74.5413 Y37.51
G1 X74.626 Y37.891
G1 X74.5837 Y38.272
G1 X75.642 Y39.3727
G1 X81.0607
G1 X84.659 Y35.732
G1 X84.6167 Y35.351
G1 X84.7013 Y34.97
G1 X85.2093 Y34.462
G1 X85.548 Y34.3773
G1 X85.7597
G1 X86.0983 Y34.462
G1 X86.564 Y34.9277
G1 X87.1567
G1 Y34.3773
G1 X89.231
G1 Y36.4517
G0 Z3.0
G0 Y33.9117
G0 Z1.0
G1 F300.0 Z-0.2
G1 F80.0 X87.1567
G1 Y33.3613
G1 X86.564
G1 X86.0983 Y33.827
G1 X85.7597 Y33.9117
G1 X85.4633
G1 X85.2093 Y33.827
G1 X84.7013 Y33.319
G1 X84.6167 Y32.938
G1 X84.659 Y32.557
G1 X81.0607 Y28.9163
G1 X75.642
G1 X74.5837 Y30.017
G1 X74.626 Y30.398
G1 X74.5413 Y30.779
G1 X74.0333 Y31.287
G1 X73.6947 Y31.3717
G1 X73.483
G1 X73.1443 Y31.287
G1 X72.6363 Y30.779
G1 X72.5517 Y30.4403
G1 Y30.2287
G1 X72.6363 Y29.89
G1 X73.1443 Y29.382
G1 X73.5253 Y29.2973
G1 X73.9063 Y29.3397
G1 X75.3033 Y27.985
G1 X81.3993
G1 X85.3363 Y31.8797
G1 X85.7173 Y31.8373
G1 X86.0983 Y31.922
G1 X86.564 Y32.3877
G1 X87.1567
G1 Y31.8373
G1 X89.231
G1 Y33.9117
G0 Z3.0
G0 Y31.3717
G0 Z1.0
G1 F300.0 Z-0.2
G1 F80.0 X87.1567
G1 Y30.8213
G1 X86.564
G1 X86.0983 Y31.287
G1 X85.7597 Y31.3717
G1 X85.548
G1 X85.2093 Y31.287
G1 X84.7013 Y30.779
G1 X84.6167 Y30.398
G1 X84.659 Y30.017
G1 X82.3307 Y27.6463
G1 X74.372
G1 X72.0437 Y30.017
G1 X72.086 Y30.398
G1 X72.0013 Y30.779
G1 X71.4933 Y31.287
G1 X71.1547 Y31.3717
G1 X70.8583
G1 X70.6043 Y31.287
G1 X70.0963 Y30.779
G1 X70.0117 Y30.4403
G1 Y30.2287
G1 X70.0963 Y29.89
G1 X70.6043 Y29.382
G1 X70.9853 Y29.2973
G1 X71.3663 Y29.3397
G1 X74.0333 Y26.715
G1 X82.6693
G1 X85.3363 Y29.3397
G1 X85.7173 Y29.2973
G1 X86.0983 Y29.382
G1 X86.564 Y29.8477
G1 X87.1567
G1 Y29.2973
G1 X89.231
G1 Y31.3717
G0 Z3.0
G0 Y28.8317
G0 Z1.0
G1 F300.0 Z-0.2
G1 F80.0 X87.1567
G1 Y28.2813
G1 X86.564
G1 X86.0983 Y28.747
G1 X85.7597 Y28.8317
G1 X85.548
G1 X85.2093 Y28.747
G1 X84.7013 Y28.239
G1 X84.6167 Y27.858
G1 X84.659 Y27.477
G1 X83.6007 Y26.3763
G1 X73.102
G1 X69.5037 Y30.017
G1 X69.546 Y30.398
G1 X69.4613 Y30.779
G1 X68.9533 Y31.287
G1 X68.6147 Y31.3717
G1 X68.3183
G1 X68.0643 Y31.287
G1 X67.5563 Y30.779
G1 X67.4717 Y30.4403
G1 Y30.2287
G1 X67.5563 Y29.89
G1 X68.0643 Y29.382
G1 X68.4453 Y29.2973
G1 X68.8263 Y29.3397
G1 X72.7633 Y25.445
G1 X83.9393
G1 X85.3363 Y26.7997
G1 X85.7173 Y26.7573
G1 X86.0983 Y26.842
G1 X86.564 Y27.3077
G1 X87.1567
G1 Y26.7573
G1 X89.231
G1 Y28.8317
G0 Z3.0
G0 Y26.2917
G0 Z1.0
G1 F300.0 Z-0.2
G1 F80.0 X87.1567
G1 Y25.7413
G1 X86.564
G1 X86.0983 Y26.207
G1 X85.7597 Y26.2917
G1 X85.548
G1 X85.2093 Y26.207
G1 X84.7013 Y25.699
G1 X84.6167 Y25.3603
G1 Y25.1063
G1 X71.832
G1 X66.9637 Y30.017
G1 X67.006 Y30.398
G1 X66.9213 Y30.779
G1 X66.4133 Y31.287
G1 X66.0747 Y31.3717
G1 X65.7783
G1 X65.5243 Y31.287
G1 X65.0163 Y30.779
G1 X64.9317 Y30.4403
G1 Y30.2287
G1 X65.0163 Y29.89
G1 X65.5243 Y29.382
G1 X65.9053 Y29.2973
G1 X66.2863 Y29.3397
G1 X71.4933 Y24.175
G1 X85.0823 Y24.1327
G1 X85.3363 Y24.2597
G1 X85.7173 Y24.2173
G1 X86.0983 Y24.302
G1 X86.564 Y24.7677
G1 X87.1567
G1 Y24.2173
G1 X89.231
G1 Y26.2917
G0 Z3.0
G0 X83.2526 Y32.3467
G0 Z1.0
G1 F300.0 Z-0.2
G1 F80.0 X84.1087 Y33.192
G1 X84.3203 Y33.2767
G1 X84.7013 Y33.7
G1 X84.786 Y34.0387
G1 Y34.2503
G1 X84.7013 Y34.589
G1 X84.1933 Y35.097
G1 X83.8547 Y35.1817
G1 X83.643
G1 X83.3043 Y35.097
G1 X82.7963 Y34.589
G1 X82.7117 Y34.2503
G1 Y33.9963
G1 X82.7963 Y33.7423
G1 X83.008 Y33.446
G1 X80.4257 Y30.8213
G1 X79.7483
G1 Y31.414
G1 X79.1557
G1 Y34.5043
G1 X79.6213 Y34.97
G1 X79.706 Y35.3087
G1 Y35.5203
G1 X79.6213 Y35.859
G1 X79.1133 Y36.367
G1 X78.7747 Y36.4517
G1 X78.4783
G1 X78.2243 Y36.367
G1 X77.7163 Y35.859
G1 X77.6317 Y35.5203
G1 Y35.3087
G1 X77.7163 Y34.97
G1 X78.182 Y34.5043
G1 Y31.414
G1 X77.5893
G1 Y29.255
G1 X79.7483
G1 Y29.8477
G1 X80.7643 Y29.89
G1 X83.2526 Y32.3467
G0 Z3.0
G0 X82.2883 Y34.462
G0 Z1.0
G1 F300.0 Z-0.2
G1 F80.0 X82.7963 Y34.97
G1 X82.881 Y35.3087
G1 Y35.5203
G1 X82.7963 Y35.859
G1 X82.2883 Y36.367
G1 X81.9073 Y36.4517
G1 X81.484 Y36.4093
G1 X79.6213 Y38.3143
G1 X79.5367 Y38.526
G1 X79.1133 Y38.907
G1 X78.7747 Y38.9917
G1 X78.4783
G1 X78.2243 Y38.907
G1 X77.7163 Y38.399
G1 X77.6317 Y38.0603
G1 Y37.8487
G1 X77.7163 Y37.51
G1 X78.2243 Y37.002
G1 X78.563 Y36.9173
G1 X78.817
G1 X79.071 Y37.002
G1 X79.3673 Y37.2137
G1 X80.849 Y35.7743
G1 X80.8067 Y35.351
G1 X80.8913 Y34.97
G1 X81.3993 Y34.462
G1 X81.738 Y34.3773
G1 X81.9497
G1 X82.2883 Y34.462
G0 Z3.0
G0 X77.1187 Y33.1696
G0 Z1.0
G1 F300.0 Z-0.2
G1 F80.0 X77.0813 Y33.319
G1 X76.5733 Y33.827
G1 X76.2347 Y33.9117
G1 X75.9383
G1 X75.6843 Y33.827
G1 X75.1763 Y33.319
G1 X75.0917 Y32.9803
G1 Y32.7687
G1 X75.1763 Y32.43
G1 X75.642 Y31.9643
G1 Y31.2447
G1 X75.1763 Y30.779
G1 X75.0917 Y30.4403
G1 Y30.2287
G1 X75.1763 Y29.89
G1 X75.6843 Y29.382
G1 X76.023 Y29.2973
G1 X76.2347
G1 X76.5733 Y29.382
G1 X77.0813 Y29.89
G1 X77.166 Y30.2287
G1 Y30.4403
G1 X77.0813 Y30.779
G1 X76.6157 Y31.2447
G1 Y31.9643
G1 X77.0813 Y32.43
G1 X77.166 Y32.7687
G1 Y32.9803
G1 X77.1187 Y33.1696
G0 Z3.0
G0 X74.5786 Y35.7427
G0 Z1.0
G1 F300.0 Z-0.2
G1 F80.0 X75.8113 Y36.9597
G1 X76.1923 Y36.9173
G1 X76.5733 Y37.002
G1 X77.0813 Y37.51
G1 X77.166 Y37.8487
G1 Y38.0603
G1 X77.0813 Y38.399
G1 X76.5733 Y38.907
G1 X76.2347 Y38.9917
G1 X75.9383
G1 X75.6843 Y38.907
G1 X75.1763 Y38.399
G1 X75.0917 Y38.018
G1 X75.134 Y37.637
G1 X72.1707 Y34.6313
G1 X65.609
G1 X65.1433 Y35.097
G1 X64.8047 Y35.1817
G1 X64.593
G1 X64.2543 Y35.097
G1 X63.7463 Y34.589
G1 X63.6617 Y34.208
G1 X63.704 Y33.7847
G1 X61.2063 Y31.3293
G1 X60.8253 Y31.3717
G1 X60.4443 Y31.287
G1 X59.9363 Y30.779
G1 X59.8517 Y30.4403
G1 Y30.2287
G1 X59.9363 Y29.89
G1 X60.402 Y29.4243
G1 X60.4443 Y27.604
G1 X61.2063 Y26.7997
G1 X61.164 Y26.3763
G1 X61.3333 Y25.953
G1 X61.672 Y25.6567
G1 Y24.8523
G1 X61.3757 Y24.5983
G1 X61.164 Y24.175
G1 Y23.794
G1 X61.3757 Y23.3707
G1 X61.6297 Y23.159
G1 X61.9683 Y22.9897
G1 X62.3493
G1 X62.688 Y23.159
G1 X62.942 Y23.3707
G1 X63.1537 Y23.794
G1 Y24.175
G1 X62.942 Y24.5983
G1 X62.6457 Y24.8523
G1 Y25.6567
G1 X62.942 Y25.9107
G1 X63.1537 Y26.334
G1 Y26.715
G1 X62.942 Y27.1383
G1 X62.6457 Y27.3923
G1 X62.2647 Y27.5193
G1 X61.8413 Y27.477
G1 X61.3757 Y27.985
G1 Y29.4243
G1 X61.8413 Y29.89
G1 X61.926 Y30.271
G1 X61.8837 Y30.652
G1 X64.339 Y33.1497
G1 X64.7623 Y33.1073
G1 X65.1433 Y33.192
G1 X65.609 Y33.6577
G1 X72.5093 Y33.7
G1 X74.5786 Y35.7427
G0 Z3.0
G0 X66.752 Y41.1507
G0 Z1.0
G1 F300.0 Z-0.2
G1 F80.0 X66.9637 Y41.574
G1 Y41.955
G1 X66.752 Y42.3783
G1 X66.498 Y42.59
G1 X66.1593 Y42.7593
G1 X65.7783
G1 X65.355 Y42.5477
G1 X65.101 Y42.2513
G1 X64.2967
G1 X64.0427 Y42.5477
G1 X63.6193 Y42.7593
G1 X63.2383
G1 X62.815 Y42.5477
G1 X62.561 Y42.2513
G1 X62.3493
G1 X59.8093 Y44.749
G1 X58.8357 Y44.7913
G1 Y47.9663
G1 X60.5713 Y49.6597
G1 X60.9523 Y49.6173
G1 X61.3333 Y49.702
G1 X61.8413 Y50.21
G1 X61.926 Y50.591
G1 X61.8837 Y50.972
G1 X64.339 Y53.4697
G1 X64.7623 Y53.4273
G1 X65.1433 Y53.512
G1 X65.609 Y53.9777
G1 X72.5093 Y54.02
G1 X75.8113 Y57.2797
G1 X76.1923 Y57.2373
G1 X76.5733 Y57.322
G1 X77.0813 Y57.83
G1 X77.166 Y58.1687
G1 Y58.3803
G1 X77.0813 Y58.719
G1 X76.5733 Y59.227
G1 X76.2347 Y59.3117
G1 X75.9383
G1 X75.6843 Y59.227
G1 X75.1763 Y58.719
G1 X75.0917 Y58.338
G1 X75.134 Y57.957
G1 X72.1707 Y54.9513
G1 X65.609
G1 X65.1433 Y55.417
G1 X64.8047 Y55.5017
G1 X64.593
G1 X64.2543 Y55.417
G1 X63.7463 Y54.909
G1 X63.6617 Y54.528
G1 X63.704 Y54.1047
G1 X61.2063 Y51.6493
G1 X60.8253 Y51.6917
G1 X60.4443 Y51.607
G1 X59.9363 Y51.099
G1 X59.8517 Y50.718
G1 X59.894 Y50.337
G1 X57.9043 Y48.305
G1 X57.862 Y38.8647
G1 X57.3963 Y38.399
G1 X57.3117 Y38.018
G1 X57.354 Y37.5947
G1 X54.8563 Y35.1393
G1 X54.4753 Y35.1817
G1 X54.0943 Y35.097
G1 X53.6287 Y34.6313
G1 X46.7283 Y34.589
G1 X43.4263 Y31.3293
G1 X43.0453 Y31.3717
G1 X42.6643 Y31.287
G1 X42.1563 Y30.779
G1 X42.0717 Y30.4403
G1 Y30.2287
G1 X42.1563 Y29.89
G1 X42.6643 Y29.382
G1 X43.003 Y29.2973
G1 X43.2147
G1 X43.5533 Y29.382
G1 X44.0613 Y29.89
G1 X44.146 Y30.271
G1 X44.1037 Y30.652
G1 X47.067 Y33.6577
G1 X53.6287
G1 X54.0943 Y33.192
G1 X54.433 Y33.1073
G1 X54.6447
G1 X54.9833 Y33.192
G1 X55.4913 Y33.7
G1 X55.576 Y34.081
G1 X55.5337 Y34.462
G1 X57.989 Y36.9597
G1 X58.4123 Y36.9173
G1 X58.7933 Y37.002
G1 X59.3013 Y37.51
G1 X59.386 Y37.8487
G1 Y38.0603
G1 X59.3013 Y38.399
G1 X58.8357 Y38.8647
G1 Y43.8177
G1 X59.4283
G1 X61.9683 Y41.32
G1 X62.561 Y41.2777
G1 X62.815 Y40.9813
G1 X63.2383 Y40.7697
G1 X63.6193
G1 X64.0427 Y40.9813
G1 X64.2967 Y41.2777
G1 X65.101
G1 X65.355 Y40.9813
G1 X65.7783 Y40.7697
G1 X66.1593
G1 X66.498 Y40.939
G1 X66.752 Y41.1507
G0 Z3.0
G0 X64.1908 Y38.5895
G0 Z1.0
G1 F300.0 Z-0.2
G1 F80.0 X63.8733 Y38.907
G1 X63.5347 Y38.9917
G1 X63.2383
G1 X62.9843 Y38.907
G1 X62.4763 Y38.399
G1 X62.3917 Y38.018
G1 X62.434 Y37.637
G1 X57.9043 Y33.065
G1 X57.862 Y31.2447
G1 X57.3963 Y30.779
G1 X57.3117 Y30.4403
G1 Y30.2287
G1 X57.3963 Y29.89
G1 X57.9043 Y29.382
G1 X58.243 Y29.2973
G1 X58.4547
G1 X58.7933 Y29.382
G1 X59.3013 Y29.89
G1 X59.386 Y30.2287
G1 Y30.4403
G1 X59.3013 Y30.779
G1 X58.8357 Y31.2447
G1 Y32.7263
G1 X63.1113 Y36.9597
G1 X63.4923 Y36.9173
G1 X63.8733 Y37.002
G1 X64.3813 Y37.51
G1 X64.466 Y37.8487
G1 Y38.0603
G1 X64.3813 Y38.399
G1 X64.1908 Y38.5895
G0 Z3.0
G0 X61.926 Y38.0603
G0 Z1.0
G1 F300.0 Z-0.2
G1 F80.0 X61.8413 Y38.399
G1 X61.3757 Y38.8647
G1 Y39.5843
G1 X61.8413 Y40.05
G1 X61.926 Y40.3887
G1 Y40.6003
G1 X61.8413 Y40.939
G1 X61.3333 Y41.447
G1 X60.9947 Y41.5317
G1 X60.6983
G1 X60.4443 Y41.447
G1 X59.9363 Y40.939
G1 X59.8517 Y40.6003
G1 Y40.3887
G1 X59.9363 Y40.05
G1 X60.402 Y39.5843
G1 Y38.8647
G1 X59.9363 Y38.399
G1 X59.8517 Y38.0603
G1 Y37.8487
G1 X59.9363 Y37.51
G1 X60.4443 Y37.002
G1 X60.783 Y36.9173
G1 X60.9947
G1 X61.3333 Y37.002
G1 X61.8413 Y37.51
G1 X61.926 Y37.8487
G1 Y38.0603
G0 Z3.0
G0 X56.846
G0 Z1.0
G1 F300.0 Z-0.2
G1 F80.0 X56.7613 Y38.399
G1 X56.2533 Y38.907
G1 X55.9147 Y38.9917
G1 X55.6183
G1 X55.3643 Y38.907
G1 X54.8563 Y38.399
G1 X54.7717 Y38.0603
G1 Y37.8487
G1 X54.8563 Y37.51
G1 X55.3643 Y37.002
G1 X55.703 Y36.9173
G1 X55.9147
G1 X56.2533 Y37.002
G1 X56.7613 Y37.51
G1 X56.846 Y37.8487
G1 Y38.0603
G0 Z3.0
G0 X54.306
G0 Z1.0
G1 F300.0 Z-0.2
G1 F80.0 X54.2213 Y38.399
G1 X53.7133 Y38.907
G1 X53.3323 Y38.9917
G1 X52.9513 Y38.9493
G1 X47.7443 Y44.114
G1 X34.113 Y44.1563
G1 X33.9013 Y44.0293
G1 X33.5203 Y44.0717
G1 X33.1393 Y43.987
G1 X32.6737 Y43.5213
G1 X32.081
G1 Y44.0717
G1 X30.0067
G1 Y41.9973
G1 X32.081
G1 Y42.5477
G1 X32.6737
G1 X33.1393 Y42.082
G1 X33.478 Y41.9973
G1 X33.6897
G1 X34.0283 Y42.082
G1 X34.5363 Y42.59
G1 X34.621 Y42.9287
G1 Y43.1827
G1 X47.4057
G1 X52.274 Y38.272
G1 X52.2317 Y37.891
G1 X52.3163 Y37.51
G1 X52.8243 Y37.002
G1 X53.163 Y36.9173
G1 X53.3747
G1 X53.7133 Y37.002
G1 X54.2213 Y37.51
G1 X54.306 Y37.8487
G1 Y38.0603
G0 Z3.0
G0 X51.766
G0 Z1.0
G1 F300.0 Z-0.2
G1 F80.0 X51.6813 Y38.399
G1 X51.1733 Y38.907
G1 X50.7923 Y38.9917
G1 X50.4113 Y38.9493
G1 X46.4743 Y42.844
G1 X35.383 Y42.8863
G1 X35.2137 Y42.8017
G1 X33.9437 Y41.4893
G1 X33.5203 Y41.5317
G1 X33.1393 Y41.447
G1 X32.6737 Y40.9813
G1 X32.081
G1 Y41.5317
G1 X30.0067
G1 Y39.4573
G1 X32.081
G1 Y40.0077
G1 X32.6737
G1 X33.1393 Y39.542
G1 X33.478 Y39.4573
G1 X33.6897
G1 X34.0283 Y39.542
G1 X34.5363 Y40.05
G1 X34.621 Y40.431
G1 X34.5787 Y40.812
G1 X35.637 Y41.9127
G1 X46.1357
G1 X49.734 Y38.272
G1 X49.6917 Y37.891
G1 X49.7763 Y37.51
G1 X50.2843 Y37.002
G1 X50.623 Y36.9173
G1 X50.8347
G1 X51.1733 Y37.002
G1 X51.6813 Y37.51
G1 X51.766 Y37.8487
G1 Y38.0603
G0 Z3.0
G0 X49.226
G0 Z1.0
G1 F300.0 Z-0.2
G1 F80.0 X49.1413 Y38.399
G1 X48.6333 Y38.907
G1 X48.2523 Y38.9917
G1 X47.8713 Y38.9493
G1 X45.2043 Y41.574
G1 X36.653 Y41.6163
G1 X36.4837 Y41.5317
G1 X33.9437 Y38.9493
G1 X33.5203 Y38.9917
G1 X33.1393 Y38.907
G1 X32.6737 Y38.4413
G1 X32.081
G1 Y38.9917
G1 X30.0067
G1 Y36.9173
G1 X32.081
G1 Y37.4677
G1 X32.6737
G1 X33.1393 Y37.002
G1 X33.478 Y36.9173
G1 X33.6897
G1 X34.0283 Y37.002
G1 X34.5363 Y37.51
G1 X34.621 Y37.891
G1 X34.5787 Y38.272
G1 X36.907 Y40.6427
G1 X44.8657
G1 X47.194 Y38.272
G1 X47.1517 Y37.891
G1 X47.2363 Y37.51
G1 X47.7443 Y37.002
G1 X48.083 Y36.9173
G1 X48.2947
G1 X48.6333 Y37.002
G1 X49.1413 Y37.51
G1 X49.226 Y37.8487
G1 Y38.0603
G0 Z3.0
G0 X46.686
G0 Z1.0
G1 F300.0 Z-0.2
G1 F80.0 X46.6013 Y38.399
G1 X46.0933 Y38.907
G1 X45.7123 Y38.9917
G1 X45.3313 Y38.9493
G1 X43.9343 Y40.304
G1 X37.923 Y40.3463
G1 X37.7537 Y40.2617
G1 X33.9437 Y36.4093
G1 X33.5203 Y36.4517
G1 X33.1393 Y36.367
G1 X32.6737 Y35.9013
G1 X32.081
G1 Y36.4517
G1 X30.0067
G1 Y34.3773
G1 X32.081
G1 Y34.9277
G1 X32.6737
G1 X33.1393 Y34.462
G1 X33.478 Y34.3773
G1 X33.6897
G1 X34.0283 Y34.462
G1 X34.5363 Y34.97
G1 X34.621 Y35.351
G1 X34.5787 Y35.732
G1 X38.177 Y39.3727
G1 X43.5957
G1 X44.654 Y38.272
G1 X44.6117 Y37.891
G1 X44.6963 Y37.51
G1 X45.2043 Y37.002
G1 X45.543 Y36.9173
G1 X45.7547
G1 X46.0933 Y37.002
G1 X46.6013 Y37.51
G1 X46.686 Y37.8487
G1 Y38.0603
G0 Z3.0
G0 X44.146
G0 Z1.0
G1 F300.0 Z-0.2
G1 F80.0 X44.0613 Y38.399
G1 X43.5533 Y38.907
G1 X43.2147 Y38.9917
G1 X42.9183
G1 X42.6643 Y38.907
G1 X42.1563 Y38.399
G1 X42.0717 Y38.0603
G1 Y37.8487
G1 X42.1563 Y37.51
G1 X42.622 Y37.0443
G1 Y33.7847
G1 X42.1563 Y33.319
G1 X42.0717 Y32.9803
G1 Y32.7687
G1 X42.1563 Y32.43
G1 X42.6643 Y31.922
G1 X43.003 Y31.8373
G1 X43.2147
G1 X43.5533 Y31.922
G1 X44.0613 Y32.43
G1 X44.146 Y32.7687
G1 Y32.9803
G1 X44.0613 Y33.319
G1 X43.5957 Y33.7847
G1 Y37.0443
G1 X44.0613 Y37.51
G1 X44.146 Y37.8487
G1 Y38.0603
G0 Z3.0
G0 X41.6483
G0 Z1.0
G1 F300.0 Z-0.2
G1 F80.0 Y39.034
G1 X39.4893
G1 Y38.4413
G1 X39.1083 Y38.399
G1 X35.8063 Y35.1393
G1 X35.4253 Y35.1817
G1 X35.0443 Y35.097
G1 X34.5363 Y34.589
G1 X34.4517 Y34.2503
G1 Y34.0387
G1 X34.5363 Y33.7
G1 X35.0443 Y33.192
G1 X35.383 Y33.1073
G1 X35.5947
G1 X35.9333 Y33.192
G1 X36.4413 Y33.7
G1 X36.526 Y34.081
G1 X36.4837 Y34.5043
G1 X39.4893 Y37.4677
G1 Y36.875
G1 X40.082
G1 Y36.3247
G1 X39.6163 Y35.859
G1 X39.5317 Y35.5203
G1 Y35.3087
G1 X39.6163 Y34.97
G1 X40.1243 Y34.462
G1 X40.463 Y34.3773
G1 X40.6747
G1 X41.0133 Y34.462
G1 X41.5213 Y34.97
G1 X41.606 Y35.3087
G1 Y35.5203
G1 X41.5213 Y35.859
G1 X41.0557 Y36.3247
G1 Y36.875
G1 X41.6483
G1 Y38.0603
G0 Z3.0
G0 X38.4733 Y32.557
G0 Z1.0
G1 F300.0 Z-0.2
G1 F80.0 X38.1347 Y32.6417
G1 X37.8383
G1 X37.5843 Y32.557
G1 X37.0763 Y32.049
G1 X36.9917 Y31.7103
G1 Y31.4987
G1 X37.0763 Y31.16
G1 X37.5843 Y30.652
G1 X37.9653 Y30.5673
G1 X38.3463 Y30.6097
G1 X39.1083 Y29.89
G1 X39.6587 Y29.8477
G1 X40.1243 Y29.382
G1 X40.463 Y29.2973
G1 X40.6747
G1 X41.0133 Y29.382
G1 X41.5213 Y29.89
G1 X41.606 Y30.2287
G1 Y30.4403
G1 X41.5213 Y30.779
G1 X41.0133 Y31.287
G1 X40.6747 Y31.3717
G1 X40.463
G1 X40.1243 Y31.287
G1 X39.6587 Y30.8213
G1 X39.447
G1 X39.0237 Y31.287
G1 X39.066 Y31.668
G1 X38.9813 Y32.049
G1 X38.4733 Y32.557
G0 Z3.0
G0 X36.5032 Y30.6098
G0 Z1.0
G1 F300.0 Z-0.2
G1 F80.0 X34.5787 Y32.557
G1 X34.621 Y32.938
G1 X34.5363 Y33.319
G1 X34.0283 Y33.827
G1 X33.6897 Y33.9117
G1 X33.478
G1 X33.1393 Y33.827
G1 X32.6737 Y33.3613
G1 X32.081
G1 Y33.9117
G1 X30.0067
G1 Y31.8373
G1 X32.081
G1 Y32.3877
G1 X32.6737
G1 X33.1393 Y31.922
G1 X33.5203 Y31.8373
G1 X33.9013 Y31.8797
G1 X37.8383 Y27.985
G1 X43.9343
G1 X45.3313 Y29.3397
G1 X45.7123 Y29.2973
G1 X46.0933 Y29.382
G1 X46.6013 Y29.89
G1 X46.686 Y30.2287
G1 Y30.4403
G1 X46.6013 Y30.779
G1 X46.0933 Y31.287
G1 X45.7547 Y31.3717
G1 X45.543
G1 X45.2043 Y31.287
G1 X44.6963 Y30.779
G1 X44.6117 Y30.398
G1 X44.654 Y30.017
G1 X43.5957 Y28.9163
G1 X38.177
G1 X36.5032 Y30.6098
G0 Z3.0
G0 X35.2273 Y29.3566
G0 Z1.0
G1 F300.0 Z-0.2
G1 F80.0 X34.5787 Y30.017
G1 X34.621 Y30.398
G1 X34.5363 Y30.779
G1 X34.0283 Y31.287
G1 X33.6897 Y31.3717
G1 X33.478
G1 X33.1393 Y31.287
G1 X32.6737 Y30.8213
G1 X32.081
G1 Y31.3717
G1 X30.0067
G1 Y29.2973
G1 X32.081
G1 Y29.8477
G1 X32.6737
G1 X33.1393 Y29.382
G1 X33.5203 Y29.2973
G1 X33.9013 Y29.3397
G1 X36.5683 Y26.715
G1 X45.2043
G1 X47.8713 Y29.3397
G1 X48.2523 Y29.2973
G1 X48.6333 Y29.382
G1 X49.1413 Y29.89
G1 X49.226 Y30.2287
G1 Y30.4403
G1 X49.1413 Y30.779
G1 X48.6333 Y31.287
G1 X48.2947 Y31.3717
G1 X48.083
G1 X47.7443 Y31.287
G1 X47.2363 Y30.779
G1 X47.1517 Y30.398
G1 X47.194 Y30.017
G1 X44.8657 Y27.6463
G1 X36.907
G1 X35.2273 Y29.3566
G0 Z3.0
G0 X34.3876 Y28.4237
G0 Z1.0
G1 F300.0 Z-0.2
G1 F80.0 X34.0283 Y28.747
G1 X33.6897 Y28.8317
G1 X33.478
G1 X33.1393 Y28.747
G1 X32.6737 Y28.2813
G1 X32.081
G1 Y28.8317
G1 X30.0067
G1 Y26.7573
G1 X32.081
G1 Y27.3077
G1 X32.6737
G1 X33.1393 Y26.842
G1 X33.478 Y26.7573
G1 X33.732
G1 X33.986 Y26.842
G1 X34.2823 Y27.0537
G1 X35.002 Y26.3763
G1 X35.0443 Y25.699
G1 X35.2983 Y25.445
G1 X46.4743
G1 X50.4113 Y29.3397
G1 X50.7923 Y29.2973
G1 X51.1733 Y29.382
G1 X51.6813 Y29.89
G1 X51.766 Y30.2287
G1 Y30.4403
G1 X51.6813 Y30.779
G1 X51.1733 Y31.287
G1 X50.8347 Y31.3717
G1 X50.5383
G1 X50.2843 Y31.287
G1 X49.7763 Y30.779
G1 X49.6917 Y30.398
G1 X49.734 Y30.017
G1 X46.1357 Y26.3763
G1 X35.9757
G1 X35.9333 Y26.715
G1 X34.5363 Y28.1543
G1 X34.4517 Y28.366
G1 X34.3876 Y28.4237
G0 Z3.0
G0 Y26.334
G0 Z1.0
G1 F300.0 Z-0.2
G1 F80.0 X32.5043
G1 Y25.7413
G1 X32.081
G1 Y26.2917
G1 X30.0067
G1 Y24.2173
G1 X32.081
G1 Y24.7677
G1 X32.5043
G1 Y24.175
G1 X35.764 Y24.1327
G1 X47.7443 Y24.175
G1 X52.9513 Y29.3397
G1 X53.3323 Y29.2973
G1 X53.7133 Y29.382
G1 X54.2213 Y29.89
G1 X54.306 Y30.2287
G1 Y30.4403
G1 X54.2213 Y30.779
G1 X53.7133 Y31.287
G1 X53.3747 Y31.3717
G1 X53.0783
G1 X52.8243 Y31.287
G1 X52.3163 Y30.779
G1 X52.2317 Y30.398
G1 X52.274 Y30.017
G1 X47.4057 Y25.1063
G1 X34.6633
G1 Y26.334
G1 X34.3876
G0 Z3.0
G0 X34.6231 Y44.4675
G0 Z1.0
G1 F300.0 Z-0.2
G1 F80.0 X35.764 Y44.4527
G1 X47.7443 Y44.495
G1 X52.9513 Y49.6597
G1 X53.3323 Y49.6173
G1 X53.7133 Y49.702
G1 X54.2213 Y50.21
G1 X54.306 Y50.5487
G1 Y50.7603
G1 X54.2213 Y51.099
G1 X53.7133 Y51.607
G1 X53.3747 Y51.6917
G1 X53.0783
G1 X52.8243 Y51.607
G1 X52.3163 Y51.099
G1 X52.2317 Y50.718
G1 X52.274 Y50.337
G1 X47.4057 Y45.4263
G1 X34.6633
G1 Y46.654
G1 X32.5043
G1 Y46.0613
G1 X32.081
G1 Y46.6117
G1 X30.0067
G1 Y44.5373
G1 X32.081
G1 Y45.0877
G1 X32.5043
G1 Y44.495
G1 X34.6231 Y44.4675
G0 Z3.0
G0 X35.2983 Y45.765
G0 Z1.0
G1 F300.0 Z-0.2
G1 F80.0 X46.4743
G1 X50.4113 Y49.6597
G1 X50.7923 Y49.6173
G1 X51.1733 Y49.702
G1 X51.6813 Y50.21
G1 X51.766 Y50.5487
G1 Y50.7603
G1 X51.6813 Y51.099
G1 X51.1733 Y51.607
G1 X50.8347 Y51.6917
G1 X50.5383
G1 X50.2843 Y51.607
G1 X49.7763 Y51.099
G1 X49.6917 Y50.718
G1 X49.734 Y50.337
G1 X46.1357 Y46.6963
G1 X35.9757
G1 X35.9333 Y47.035
G1 X34.5363 Y48.4743
G1 X34.4517 Y48.686
G1 X34.0283 Y49.067
G1 X33.6897 Y49.1517
G1 X33.478
G1 X33.1393 Y49.067
G1 X32.6737 Y48.6013
G1 X32.081
G1 Y49.1517
G1 X30.0067
G1 Y47.0773
G1 X32.081
G1 Y47.6277
G1 X32.6737
G1 X33.1393 Y47.162
G1 X33.478 Y47.0773
G1 X33.732
G1 X33.986 Y47.162
G1 X34.2823 Y47.3737
G1 X35.002 Y46.6963
G1 X35.0443 Y46.019
G1 X35.2983 Y45.765
G0 Z3.0
G0 X36.5581 Y47.0451
G0 Z1.0
G1 F300.0 Z-0.2
G1 F80.0 X36.5683 Y47.035
G1 X45.2043
G1 X47.8713 Y49.6597
G1 X48.2523 Y49.6173
G1 X48.6333 Y49.702
G1 X49.1413 Y50.21
G1 X49.226 Y50.5487
G1 Y50.7603
G1 X49.1413 Y51.099
G1 X48.6333 Y51.607
G1 X48.2947 Y51.6917
G1 X48.083
G1 X47.7443 Y51.607
G1 X47.2363 Y51.099
G1 X47.1517 Y50.718
G1 X47.194 Y50.337
G1 X44.8657 Y47.9663
G1 X36.907
G1 X34.5787 Y50.337
G1 X34.621 Y50.718
G1 X34.5363 Y51.099
G1 X34.0283 Y51.607
G1 X33.6897 Y51.6917
G1 X33.478
G1 X33.1393 Y51.607
G1 X32.6737 Y51.1413
G1 X32.081
G1 Y51.6917
G1 X30.0067
G1 Y49.6173
G1 X32.081
G1 Y50.1677
G1 X32.6737
G1 X33.1393 Y49.702
