( Made using CamBam - http://www.cambam.co.uk )
( midi_organ_v0.3.gcode.complete 8/21/2014 12:26:05 PM )
( T0 : 0.0 )
G21 G90 G64 G40
G0 Z3.0
( T0 : 0.0 )
T0 M6
( bottom )
G17
M3 S1000
G0 X107.5613 Y189.275
G0 Z1.2
G1 F400.0 Z-0.2
G1 X107.011 Y189.148
G1 X106.4607 Y188.9363
G1 X105.9527 Y188.64
G1 X105.3177 Y188.0473
G1 X104.9367 Y187.4547
G1 X104.6827 Y186.8197
G1 X104.5557 Y186.1847
G1 Y185.6343
G1 X104.6827 Y184.9993
G1 X104.9367 Y184.3643
G1 X105.3177 Y183.7717
G1 X105.9527 Y183.179
G1 X106.4607 Y182.8827
G1 X107.011 Y182.671
G1 X107.646 Y182.544
G1 X108.1963
G1 X108.8313 Y182.671
G1 X109.3817 Y182.8827
G1 X109.8897 Y183.179
G1 X110.5247 Y183.7717
G1 X110.9057 Y184.3643
G1 X111.1597 Y184.9993
G1 X111.2867 Y185.6343
G1 Y186.1847
G1 X111.1597 Y186.8197
G1 X110.9057 Y187.4547
G1 X110.5247 Y188.0473
G1 X109.8897 Y188.64
G1 X109.3817 Y188.9363
G1 X108.8313 Y189.148
G1 X108.1963 Y189.275
G1 X107.5613
G0 Z3.0
G0 X109.0853 Y172.9767
G0 Z1.2
G1 Z-0.2
G1 X108.7467 Y172.892
G1 X108.281 Y172.4263
G1 X102.4813
G1 X102.0157 Y172.892
G1 X101.677 Y172.9767
G1 X101.4653
G1 X101.1267 Y172.892
G1 X100.661 Y172.4263
G1 X94.8613
G1 X94.438 Y172.8497
G1 Y174.8393
G1 X94.9037 Y175.305
G1 X94.9883 Y175.6437
G1 Y175.8553
G1 X94.9037 Y176.194
G1 X94.3957 Y176.702
G1 X94.057 Y176.7867
G1 X93.7607
G1 X93.5067 Y176.702
G1 X92.9987 Y176.194
G1 X92.914 Y175.8553
G1 Y175.6437
G1 X92.9987 Y175.305
G1 X93.4643 Y174.8393
G1 Y172.8497
G1 X92.9987 Y172.384
G1 X92.914 Y172.0453
G1 Y171.8337
G1 X92.9987 Y171.495
G1 X93.5067 Y170.987
G1 X93.8453 Y170.9023
G1 X94.057
G1 X94.3957 Y170.987
G1 X94.8613 Y171.4527
G1 X100.661
G1 X101.1267 Y170.987
G1 X101.4653 Y170.9023
G1 X101.677
G1 X102.0157 Y170.987
G1 X102.4813 Y171.4527
G1 X108.281
G1 X108.7467 Y170.987
G1 X109.0853 Y170.9023
G1 X109.297
G1 X109.6357 Y170.987
G1 X110.1437 Y171.495
G1 X110.2283 Y171.8337
G1 Y172.0453
G1 X110.1437 Y172.384
G1 X109.6357 Y172.892
G1 X109.297 Y172.9767
G1 X109.0853
G0 Z3.0
G0 Y170.4367
G0 Z1.2
G1 Z-0.2
G1 X109.0007
G1 X108.7467 Y170.352
G1 X108.2387 Y169.844
G1 X108.154 Y169.5053
G1 Y169.2937
G1 X108.2387 Y168.955
G1 X108.7467 Y168.447
G1 X109.0853 Y168.3623
G1 X109.297
G1 X109.6357 Y168.447
G1 X110.1437 Y168.955
G1 X110.2283 Y169.2937
G1 Y169.5053
G1 X110.1437 Y169.844
G1 X109.6357 Y170.352
G1 X109.297 Y170.4367
G1 X109.0853
G0 Z3.0
G0 X107.6037 Y169.844
G0 Z1.2
G1 Z-0.2
G1 X107.0957 Y170.352
G1 X106.757 Y170.4367
G1 X106.4607
G1 X106.2067 Y170.352
G1 X105.6987 Y169.844
G1 X105.614 Y169.5053
G1 Y169.2937
G1 X105.6987 Y168.955
G1 X106.2067 Y168.447
G1 X106.5453 Y168.3623
G1 X106.757
G1 X107.0957 Y168.447
G1 X107.6037 Y168.955
G1 X107.6883 Y169.2937
G1 Y169.5053
G1 X107.6037 Y169.844
G0 Z3.0
G0 X105.1907
G0 Z1.2
G1 Z-0.2
G1 Y170.479
G1 X103.0317
G1 Y168.32
G1 X105.1907
G1 Y169.844
G0 Z3.0
G0 X102.6083 Y169.5053
G0 Z1.2
G1 Z-0.2
G1 X102.5237 Y169.844
G1 X102.0157 Y170.352
G1 X101.677 Y170.4367
G1 X101.3807
G1 X101.1267 Y170.352
G1 X100.6187 Y169.844
G1 X100.534 Y169.5053
G1 Y169.2937
G1 X100.6187 Y168.955
G1 X101.1267 Y168.447
G1 X101.4653 Y168.3623
G1 X101.677
G1 X102.0157 Y168.447
G1 X102.5237 Y168.955
G1 X102.6083 Y169.2937
G1 Y169.5053
G0 Z3.0
G0 X102.0157 Y167.812
G0 Z1.2
G1 Z-0.2
G1 X101.677 Y167.8967
G1 X101.3807
G1 X101.1267 Y167.812
G1 X100.6187 Y167.304
G1 X100.534 Y166.9653
G1 Y166.7537
G1 X100.6187 Y166.415
G1 X101.1267 Y165.907
G1 X101.5077 Y165.8223
G1 X101.8887 Y165.8647
G1 X103.2857 Y164.51
G1 X105.741 Y164.4677
G1 X106.2067 Y164.002
G1 X106.5453 Y163.9173
G1 X106.757
G1 X107.0957 Y164.002
G1 X107.6037 Y164.51
G1 X107.6883 Y164.8487
G1 Y165.0603
G1 X107.6037 Y165.399
G1 X107.0957 Y165.907
G1 X106.757 Y165.9917
G1 X106.5453
G1 X106.2067 Y165.907
G1 X105.741 Y165.4413
G1 X103.6243
G1 X102.566 Y166.542
G1 X102.6083 Y166.923
G1 X102.5237 Y167.304
G1 X102.0157 Y167.812
G0 Z3.0
G0 X99.9837 Y168.955
G0 Z1.2
G1 Z-0.2
G1 X100.0683 Y169.2937
G1 Y169.5053
G1 X99.9837 Y169.844
G1 X99.4757 Y170.352
G1 X99.137 Y170.4367
G1 X98.8407
G1 X98.5867 Y170.352
G1 X98.0787 Y169.844
G1 X97.994 Y169.5053
G1 Y169.2937
G1 X98.0787 Y168.955
G1 X98.5867 Y168.447
G1 X98.9253 Y168.3623
G1 X99.137
G1 X99.4757 Y168.447
G1 X99.9837 Y168.955
G0 Z3.0
G0 X97.5707
G0 Z1.2
G1 Z-0.2
G1 Y170.479
G1 X95.4117
G1 Y168.32
G1 X97.5707
G1 Y168.955
G0 Z3.0
G0 X94.9883 Y169.2937
G0 Z1.2
G1 Z-0.2
G1 Y169.5053
G1 X94.9037 Y169.844
G1 X94.3957 Y170.352
G1 X94.057 Y170.4367
G1 X93.7607
G1 X93.5067 Y170.352
G1 X92.9987 Y169.844
G1 X92.914 Y169.5053
G1 Y169.2937
G1 X92.9987 Y168.955
G1 X93.5067 Y168.447
G1 X93.8453 Y168.3623
G1 X94.057
G1 X94.3957 Y168.447
G1 X94.9037 Y168.955
G1 X94.9883 Y169.2937
G0 Z3.0
G0 X92.4483
G0 Z1.2
G1 Z-0.2
G1 Y169.5053
G1 X92.3637 Y169.844
G1 X91.8557 Y170.352
G1 X91.517 Y170.4367
G1 X91.2207
G1 X90.9667 Y170.352
G1 X90.4587 Y169.844
G1 X90.374 Y169.5053
G1 Y169.2937
G1 X90.4587 Y168.955
G1 X90.9667 Y168.447
G1 X91.3053 Y168.3623
G1 X91.517
G1 X91.8557 Y168.447
G1 X92.3637 Y168.955
G1 X92.4483 Y169.2937
G0 Z3.0
G0 X89.9507
G0 Z1.2
G1 Z-0.2
G1 Y170.479
G1 X87.7917
G1 Y168.32
G1 X89.9507
G1 Y169.2937
G0 Z3.0
G0 X87.3683
G0 Z1.2
G1 Z-0.2
G1 Y169.5053
G1 X87.2837 Y169.844
G1 X86.7757 Y170.352
G1 X86.437 Y170.4367
G1 X86.1407
G1 X85.8867 Y170.352
G1 X85.3787 Y169.844
G1 X85.294 Y169.5053
G1 Y169.2937
G1 X85.3787 Y168.955
G1 X85.8443 Y168.4893
G1 Y162.6897
G1 X85.3787 Y162.224
G1 X85.294 Y161.8853
G1 Y161.6737
G1 X85.3787 Y161.335
G1 X85.8443 Y160.8693
G1 X85.8867 Y155.239
G1 X90.2893 Y150.794
G1 Y149.9897
G1 X89.8237 Y149.524
G1 X89.739 Y149.1853
G1 Y148.9737
G1 X89.8237 Y148.635
G1 X90.3317 Y148.127
G1 X90.6703 Y148.0423
G1 X90.882
G1 X91.2207 Y148.127
G1 X91.6863 Y148.5927
G1 X92.8717 Y148.635
G1 X97.9517 Y153.6727
G1 X105.741
G1 X106.2067 Y153.207
G1 X106.5453 Y153.1223
G1 X106.757
G1 X107.0957 Y153.207
G1 X107.6037 Y153.715
G1 X107.6883 Y154.0537
G1 Y154.2653
G1 X107.6037 Y154.604
G1 X107.0957 Y155.112
G1 X106.757 Y155.1967
G1 X106.5453
G1 X106.2067 Y155.112
G1 X105.741 Y154.6463
G1 X97.5707 Y154.604
G1 X92.4907 Y149.5663
G1 X91.6863
G1 X91.263 Y149.9897
G1 X91.2207 Y151.175
G1 X86.818 Y155.62
G1 Y160.8693
G1 X87.2837 Y161.335
G1 X87.3683 Y161.6737
G1 Y161.8853
G1 X87.2837 Y162.224
G1 X86.818 Y162.6897
G1 Y168.4893
G1 X87.2837 Y168.955
G1 X87.3683 Y169.2937
G0 Z3.0
G0 X85.9725 Y173.9465
G0 Z1.2
G1 Z-0.2
G1 X86.2677 Y174.035
G1 X86.7757 Y174.543
G1 X86.9027 Y174.9663
G1 Y175.2627
G1 X86.7757 Y175.686
G1 X86.2677 Y176.194
G1 X85.8443 Y176.321
G1 X85.5057
G1 X85.1247 Y176.194
G1 X84.6167 Y175.686
G1 X84.4897 Y175.2627
G1 Y174.9663
G1 X84.6167 Y174.543
G1 X85.1247 Y174.035
G1 X85.548 Y173.908
G1 X85.8443
G1 X85.9725 Y173.9465
G0 Z3.0
G0 X87.6647 Y176.575
G0 Z1.2
G1 Z-0.2
G1 X88.088 Y176.448
G1 X88.3843
G1 X88.8077 Y176.575
G1 X89.3157 Y177.083
G1 X89.4427 Y177.5063
G1 Y177.8027
G1 X89.3157 Y178.226
G1 X88.8077 Y178.734
G1 X88.3843 Y178.861
G1 X88.0457
G1 X87.6647 Y178.734
G1 X87.1567 Y178.226
G1 X87.0297 Y177.8027
G1 Y177.5063
G1 X87.1567 Y177.083
G1 X87.6647 Y176.575
G0 Z3.0
G0 X87.8763 Y181.2317
G0 Z1.2
G1 Z-0.2
G1 X88.596
G1 X89.0617 Y181.4433
G1 X89.5273 Y181.8667
G1 X89.739 Y182.3747
G1 Y183.0943
G1 X89.5273 Y183.6023
G1 X89.0617 Y184.0257
G1 X88.596 Y184.2373
G1 X88.0033 Y184.2797
G1 X87.6647 Y184.1527
G1 X87.326 Y183.9833
G1 X86.945 Y183.56
G1 X86.7333 Y183.0943
G1 Y182.3747
G1 X86.945 Y181.8667
G1 X87.4107 Y181.4433
G1 X87.8763 Y181.2317
G0 Z3.0
G0 X81.6957 Y178.226
G0 Z1.2
G1 Z-0.2
G1 X81.1877 Y178.734
G1 X80.7643 Y178.861
G1 X80.4257
G1 X80.0447 Y178.734
G1 X79.5367 Y178.226
G1 X79.4097 Y177.8027
G1 Y177.5063
G1 X79.5367 Y177.083
G1 X80.0447 Y176.575
G1 X80.468 Y176.448
G1 X80.7643
G1 X81.1877 Y176.575
G1 X81.6957 Y177.083
G1 X81.8227 Y177.5063
G1 Y177.8027
G1 X81.6957 Y178.226
G0 Z3.0
G0 X76.6157 Y175.686
G0 Z1.2
G1 Z-0.2
G1 X76.1077 Y176.194
G1 X75.6843 Y176.321
G1 X75.3457
G1 X74.9647 Y176.194
G1 X74.4567 Y175.686
G1 X74.3297 Y175.2627
G1 Y174.9663
G1 X74.4567 Y174.543
G1 X74.9647 Y174.035
G1 X75.388 Y173.908
G1 X75.6843
G1 X76.1077 Y174.035
G1 X76.6157 Y174.543
G1 X76.7427 Y174.9663
G1 Y175.2627
G1 X76.6157 Y175.686
G0 Z3.0
G0 X74.0757 Y177.083
G0 Z1.2
G1 Z-0.2
G1 X74.2027 Y177.5063
G1 Y177.8027
G1 X74.0757 Y178.226
G1 X73.5677 Y178.734
G1 X73.1443 Y178.861
G1 X72.8057
G1 X72.4247 Y178.734
G1 X71.9167 Y178.226
G1 X71.7897 Y177.8027
G1 Y177.5063
G1 X71.9167 Y177.083
G1 X72.4247 Y176.575
G1 X72.848 Y176.448
G1 X73.1443
G1 X73.5677 Y176.575
G1 X74.0757 Y177.083
G0 Z3.0
G0 X73.356 Y181.2317
G0 Z1.2
G1 Z-0.2
G1 X73.8217 Y181.4433
G1 X74.2873 Y181.8667
G1 X74.499 Y182.3747
G1 Y183.0943
G1 X74.2873 Y183.6023
G1 X73.8217 Y184.0257
G1 X73.356 Y184.2373
G1 X72.7633 Y184.2797
G1 X72.4247 Y184.1527
G1 X72.086 Y183.9833
G1 X71.705 Y183.56
G1 X71.4933 Y183.0943
G1 Y182.3747
G1 X71.705 Y181.8667
G1 X72.1707 Y181.4433
G1 X72.6363 Y181.2317
G1 X73.356
G0 Z3.0
G0 X68.9533 Y182.3323
G0 Z1.2
G1 Z-0.2
G1 Y184.4067
G1 X66.879
G1 Y182.3323
G1 X68.9533
G0 Z3.0
G0 X64.339 Y182.3747
G0 Z1.2
G1 Z-0.2
G1 Y183.0943
G1 X64.1273 Y183.6023
G1 X63.6617 Y184.0257
G1 X63.196 Y184.2373
G1 X62.6033 Y184.2797
G1 X62.2647 Y184.1527
G1 X61.926 Y183.9833
G1 X61.545 Y183.56
G1 X61.3333 Y183.0943
G1 Y182.3747
G1 X61.545 Y181.8667
G1 X62.0107 Y181.4433
G1 X62.4763 Y181.2317
G1 X63.196
G1 X63.6617 Y181.4433
G1 X64.1273 Y181.8667
G1 X64.339 Y182.3747
G0 Z3.0
G0 X63.2601 Y178.7783
G0 Z1.2
G1 Z-0.2
G1 X62.9843 Y178.861
G1 X62.6457
G1 X62.2647 Y178.734
G1 X61.7567 Y178.226
G1 X61.6297 Y177.8027
G1 Y177.5063
G1 X61.7567 Y177.083
G1 X62.2647 Y176.575
G1 X62.688 Y176.448
G1 X62.9843
G1 X63.4077 Y176.575
G1 X63.9157 Y177.083
G1 X64.0427 Y177.5063
G1 Y177.8027
G1 X63.9157 Y178.226
G1 X63.4077 Y178.734
G1 X63.2601 Y178.7783
G0 Z3.0
G0 X60.8677 Y176.194
G0 Z1.2
G1 Z-0.2
G1 X60.4443 Y176.321
G1 X60.1057
G1 X59.7247 Y176.194
G1 X59.2167 Y175.686
G1 X59.0897 Y175.2627
G1 Y174.9663
G1 X59.2167 Y174.543
G1 X59.7247 Y174.035
G1 X60.148 Y173.908
G1 X60.4443
G1 X60.8677 Y174.035
G1 X61.3757 Y174.543
G1 X61.5027 Y174.9663
G1 Y175.2627
G1 X61.3757 Y175.686
G1 X60.8677 Y176.194
G0 Z3.0
G0 Y172.9767
G0 Z1.2
G1 Z-0.2
G1 X59.894
G1 Y170.9023
G1 X61.9683
G1 Y172.9767
G1 X60.8677
G0 Z3.0
G0 X59.1284 Y171.2316
G0 Z1.2
G1 Z-0.2
G1 X50.3267 Y180.004
G1 X43.638 Y180.0463
G1 Y181.8243
G1 X44.1037 Y182.29
G1 X44.1883 Y182.6287
G1 Y182.8403
G1 X44.1037 Y183.179
G1 X43.5957 Y183.687
G1 X43.257 Y183.7717
G1 X42.9607
G1 X42.7067 Y183.687
G1 X42.1987 Y183.179
G1 X42.114 Y182.8403
G1 Y182.6287
G1 X42.1987 Y182.29
G1 X42.6643 Y181.8243
G1 X42.7067 Y179.369
G1 X42.9607 Y179.115
G1 X49.9457 Y179.0727
G1 X62.6457 Y166.415
G1 X64.466 Y166.3727
G1 X64.9317 Y165.907
G1 X65.2703 Y165.8223
G1 X65.482
G1 X65.8207 Y165.907
G1 X66.3287 Y166.415
G1 X66.4133 Y166.7537
G1 Y166.9653
G1 X66.3287 Y167.304
G1 X65.8207 Y167.812
G1 X65.482 Y167.8967
G1 X65.2703
G1 X64.9317 Y167.812
G1 X64.466 Y167.3463
G1 X63.0267
G1 X59.1284 Y171.2316
G0 Z3.0
G0 X58.7548 Y169.7372
G0 Z1.2
G1 Z-0.2
G1 X58.497 Y169.8017
G1 X58.2007
G1 X57.9467 Y169.717
G1 X57.4387 Y169.209
G1 X57.354 Y168.8703
G1 Y168.6587
G1 X57.4387 Y168.32
G1 X57.9043 Y167.8543
G1 X57.9467 Y163.494
G1 X60.4443 Y160.954
G1 Y160.7847
G1 X59.9787 Y160.319
G1 X59.894 Y159.9803
G1 Y159.7687
G1 X59.9787 Y159.43
G1 X60.4867 Y158.922
G1 X60.8253 Y158.8373
G1 X61.0793
G1 X61.1217 Y155.239
G1 X63.9157 Y152.445
G1 X64.466 Y152.4027
G1 X64.9317 Y151.937
G1 X65.2703 Y151.8523
G1 X65.482
G1 X65.8207 Y151.937
G1 X66.3287 Y152.445
G1 X66.4133 Y152.7837
G1 Y152.9953
G1 X66.3287 Y153.334
G1 X65.8207 Y153.842
G1 X65.482 Y153.9267
G1 X65.2703
G1 X64.9317 Y153.842
G1 X64.466 Y153.3763
G1 X64.2543
G1 X62.053 Y155.62
G1 Y159.3453
G1 X61.926 Y159.557
G1 X61.9683 Y159.938
G1 X61.8837 Y160.319
G1 X61.418 Y160.7847
G1 X61.3757 Y161.335
G1 X58.878 Y163.875
G1 Y167.8543
G1 X59.3437 Y168.32
G1 X59.4283 Y168.6587
G1 Y168.8703
G1 X59.3437 Y169.209
G1 X58.8357 Y169.717
G1 X58.7548 Y169.7372
G0 Z3.0
G0 X56.9307
G0 Z1.2
G1 Z-0.2
G1 Y169.844
G1 X54.7717
G1 Y167.685
G1 X56.9307
G1 Y169.7372
G0 Z3.0
G0 X54.2963 Y169.0786
G0 Z1.2
G1 Z-0.2
G1 X54.2637 Y169.209
G1 X53.7557 Y169.717
G1 X53.417 Y169.8017
G1 X53.1207
G1 X52.8667 Y169.717
G1 X52.3587 Y169.209
G1 X52.274 Y168.8703
G1 Y168.6587
G1 X52.3587 Y168.32
G1 X52.8667 Y167.812
G1 X53.2053 Y167.7273
G1 X53.417
G1 X53.7557 Y167.812
G1 X54.2637 Y168.32
G1 X54.3483 Y168.6587
G1 Y168.8703
G1 X54.2963 Y169.0786
G0 Z3.0
G0 X51.8083 Y168.8703
G0 Z1.2
G1 Z-0.2
G1 X51.7237 Y169.209
G1 X51.2157 Y169.717
G1 X50.877 Y169.8017
G1 X50.5807
G1 X50.3267 Y169.717
G1 X49.8187 Y169.209
G1 X49.734 Y168.8703
G1 Y168.6587
G1 X49.8187 Y168.32
G1 X50.3267 Y167.812
G1 X50.6653 Y167.7273
G1 X50.877
G1 X51.2157 Y167.812
G1 X51.7237 Y168.32
G1 X51.8083 Y168.6587
G1 Y168.8703
G0 Z3.0
G0 X51.8006 Y166.675
G0 Z1.2
G1 Z-0.2
G1 X41.5213 Y166.7113
G1 X41.0557 Y167.177
G1 X40.717 Y167.2617
G1 X40.4207
G1 X40.1667 Y167.177
G1 X39.6587 Y166.669
G1 X39.574 Y166.3303
G1 Y166.1187
G1 X39.6587 Y165.78
G1 X40.1667 Y165.272
G1 X40.5053 Y165.1873
G1 X40.717
G1 X41.0557 Y165.272
G1 X41.5213 Y165.7377
G1 X53.163
G1 X57.3963 Y161.462
G1 X57.354 Y161.081
G1 X57.4387 Y160.7
G1 X57.9467 Y160.192
G1 X58.2853 Y160.1073
G1 X58.497
G1 X58.8357 Y160.192
G1 X59.3437 Y160.7
G1 X59.4283 Y161.0387
G1 Y161.2503
G1 X59.3437 Y161.589
G1 X58.8357 Y162.097
G1 X58.4547 Y162.1817
G1 X58.0737 Y162.1393
G1 X53.5017 Y166.669
G1 X51.8006 Y166.675
G0 Z3.0
G0 X49.1837 Y168.32
G0 Z1.2
G1 Z-0.2
G1 X49.2683 Y168.6587
G1 Y168.8703
G1 X49.1837 Y169.209
G1 X48.6757 Y169.717
G1 X48.337 Y169.8017
G1 X48.0407
G1 X47.7867 Y169.717
G1 X47.2787 Y169.209
G1 X47.194 Y168.8703
G1 Y168.6587
G1 X47.2787 Y168.32
G1 X47.7867 Y167.812
G1 X48.1253 Y167.7273
G1 X48.337
G1 X48.6757 Y167.812
G1 X49.1837 Y168.32
G0 Z3.0
G0 X46.7283 Y168.6587
G0 Z1.2
G1 Z-0.2
G1 Y168.8703
G1 X46.6437 Y169.209
G1 X46.1357 Y169.717
G1 X45.797 Y169.8017
G1 X45.5007
G1 X45.2467 Y169.717
G1 X44.7387 Y169.209
G1 X44.654 Y168.8703
G1 Y168.6587
G1 X44.7387 Y168.32
G1 X45.2467 Y167.812
G1 X45.5853 Y167.7273
G1 X45.797
G1 X46.1357 Y167.812
G1 X46.6437 Y168.32
G1 X46.7283 Y168.6587
G0 Z3.0
G0 X44.1883
G0 Z1.2
G1 Z-0.2
G1 Y168.8703
G1 X44.1037 Y169.209
G1 X43.5957 Y169.717
G1 X43.257 Y169.8017
G1 X42.9607
G1 X42.7067 Y169.717
G1 X42.1987 Y169.209
G1 X42.114 Y168.8703
G1 Y168.6587
G1 X42.1987 Y168.32
G1 X42.7067 Y167.812
G1 X43.0453 Y167.7273
G1 X43.257
G1 X43.5957 Y167.812
G1 X44.1037 Y168.32
G1 X44.1883 Y168.6587
G0 Z3.0
G0 X41.6483
G0 Z1.2
G1 Z-0.2
G1 Y168.8703
G1 X41.5637 Y169.209
G1 X41.0557 Y169.717
G1 X40.717 Y169.8017
G1 X40.4207
G1 X40.1667 Y169.717
G1 X39.6587 Y169.209
G1 X39.574 Y168.8703
G1 Y168.6587
G1 X39.6587 Y168.32
G1 X40.1667 Y167.812
G1 X40.5053 Y167.7273
G1 X40.717
G1 X41.0557 Y167.812
G1 X41.5637 Y168.32
G1 X41.6483 Y168.6587
G0 Z3.0
G0 X37.2033
G0 Z1.2
G1 Z-0.2
G1 Y168.8703
G1 X37.1187 Y169.209
G1 X36.6107 Y169.717
G1 X36.272 Y169.8017
G1 X35.9757
G1 X35.7217 Y169.717
G1 X35.2137 Y169.209
G1 X35.129 Y168.8703
G1 Y168.6587
G1 X35.2137 Y168.32
G1 X35.7217 Y167.812
G1 X36.0603 Y167.7273
G1 X36.272
G1 X36.6107 Y167.812
G1 X37.1187 Y168.32
G1 X37.2033 Y168.6587
G0 Z3.0
G0 X36.6107 Y167.177
G0 Z1.2
G1 Z-0.2
G1 X36.272 Y167.2617
G1 X35.9757
G1 X35.7217 Y167.177
G1 X35.2137 Y166.669
G1 X35.129 Y166.3303
G1 Y166.1187
G1 X35.2137 Y165.78
G1 X35.7217 Y165.272
G1 X36.0603 Y165.1873
G1 X36.272
G1 X36.6107 Y165.272
G1 X37.1187 Y165.78
G1 X37.2033 Y166.1187
G1 Y166.3303
G1 X37.1187 Y166.669
G1 X36.6107 Y167.177
G0 Z3.0
G0 X36.272 Y164.7217
G0 Z1.2
G1 Z-0.2
G1 X35.9757
G1 X35.7217 Y164.637
G1 X35.2137 Y164.129
G1 X35.129 Y163.7903
G1 Y163.5787
G1 X35.2137 Y163.24
G1 X35.7217 Y162.732
G1 X36.0603 Y162.6473
G1 X36.272
G1 X36.6107 Y162.732
G1 X37.1187 Y163.24
G1 X37.2033 Y163.5787
G1 Y163.7903
G1 X37.1187 Y164.129
G1 X36.6107 Y164.637
G1 X36.272 Y164.7217
G0 Z3.0
G0 Y162.1817
G0 Z1.2
G1 Z-0.2
G1 X35.9757
G1 X35.7217 Y162.097
G1 X35.2137 Y161.589
G1 X35.129 Y161.2503
G1 Y161.0387
G1 X35.2137 Y160.7
G1 X35.7217 Y160.192
G1 X36.0603 Y160.1073
G1 X36.272
G1 X36.6107 Y160.192
G1 X37.1187 Y160.7
G1 X37.2033 Y161.0387
G1 Y161.2503
G1 X37.1187 Y161.589
G1 X36.6107 Y162.097
G1 X36.272 Y162.1817
G0 Z3.0
G0 Y159.6417
G0 Z1.2
G1 Z-0.2
G1 X35.9757
G1 X35.7217 Y159.557
G1 X35.2137 Y159.049
G1 X35.129 Y158.7103
G1 Y158.4987
G1 X35.2137 Y158.16
G1 X35.7217 Y157.652
G1 X36.0603 Y157.5673
G1 X36.272
G1 X36.6107 Y157.652
G1 X37.1187 Y158.16
G1 X37.2033 Y158.4987
G1 Y158.7103
G1 X37.1187 Y159.049
G1 X36.6107 Y159.557
G1 X36.272 Y159.6417
G0 Z3.0
G0 Y157.1017
G0 Z1.2
G1 Z-0.2
G1 X35.9757
G1 X35.7217 Y157.017
G1 X35.2137 Y156.509
G1 X35.129 Y156.1703
G1 Y155.9587
G1 X35.2137 Y155.62
G1 X35.7217 Y155.112
G1 X36.0603 Y155.0273
G1 X36.272
G1 X36.6107 Y155.112
G1 X37.1187 Y155.62
G1 X37.2033 Y155.9587
G1 Y156.1703
G1 X37.1187 Y156.509
G1 X36.6107 Y157.017
G1 X36.272 Y157.1017
G0 Z3.0
G0 X32.1233 Y156.1703
G0 Z1.2
G1 Z-0.2
G1 X32.0387 Y156.509
G1 X31.5307 Y157.017
G1 X31.192 Y157.1017
G1 X30.8957
G1 X30.6417 Y157.017
G1 X30.1337 Y156.509
G1 X30.049 Y156.1703
G1 Y155.9587
G1 X30.1337 Y155.62
G1 X30.6417 Y155.112
G1 X30.9803 Y155.0273
G1 X31.192
G1 X31.5307 Y155.112
G1 X32.0387 Y155.62
G1 X32.1233 Y155.9587
G1 Y156.1703
G0 Z3.0
G0 X31.5307 Y157.652
G0 Z1.2
G1 Z-0.2
G1 X32.0387 Y158.16
G1 X32.1233 Y158.4987
G1 Y158.7103
G1 X32.0387 Y159.049
G1 X31.5307 Y159.557
G1 X31.192 Y159.6417
G1 X30.8957
G1 X30.6417 Y159.557
G1 X30.1337 Y159.049
G1 X30.049 Y158.7103
G1 Y158.4987
G1 X30.1337 Y158.16
G1 X30.6417 Y157.652
G1 X30.9803 Y157.5673
G1 X31.192
G1 X31.5307 Y157.652
G0 Z3.0
G0 X31.192 Y160.1073
G0 Z1.2
G1 Z-0.2
G1 X31.5307 Y160.192
G1 X32.0387 Y160.7
G1 X32.1233 Y161.0387
G1 Y161.2503
G1 X32.0387 Y161.589
G1 X31.5307 Y162.097
G1 X31.192 Y162.1817
G1 X30.8957
G1 X30.6417 Y162.097
G1 X30.1337 Y161.589
G1 X30.049 Y161.2503
G1 Y161.0387
G1 X30.1337 Y160.7
G1 X30.6417 Y160.192
G1 X30.9803 Y160.1073
G1 X31.192
G0 Z3.0
G0 Y162.6473
G0 Z1.2
G1 Z-0.2
G1 X31.5307 Y162.732
G1 X32.0387 Y163.24
G1 X32.1233 Y163.5787
G1 Y163.7903
G1 X32.0387 Y164.129
G1 X31.5307 Y164.637
G1 X31.192 Y164.7217
G1 X30.8957
G1 X30.6417 Y164.637
G1 X30.1337 Y164.129
G1 X30.049 Y163.7903
G1 Y163.5787
G1 X30.1337 Y163.24
G1 X30.6417 Y162.732
G1 X30.9803 Y162.6473
G1 X31.192
G0 Z3.0
G0 Y165.1873
G0 Z1.2
G1 Z-0.2
G1 X31.5307 Y165.272
G1 X32.0387 Y165.78
G1 X32.1233 Y166.1187
G1 Y166.3303
G1 X32.0387 Y166.669
G1 X31.5307 Y167.177
G1 X31.192 Y167.2617
G1 X30.8957
G1 X30.6417 Y167.177
G1 X30.1337 Y166.669
G1 X30.049 Y166.3303
G1 Y166.1187
G1 X30.1337 Y165.78
G1 X30.6417 Y165.272
G1 X30.9803 Y165.1873
G1 X31.192
G0 Z3.0
G0 Y167.7273
G0 Z1.2
G1 Z-0.2
G1 X31.5307 Y167.812
G1 X32.0387 Y168.32
G1 X32.1233 Y168.6587
G1 Y168.8703
G1 X32.0387 Y169.209
G1 X31.5307 Y169.717
G1 X31.192 Y169.8017
G1 X30.8957
G1 X30.6417 Y169.717
G1 X30.1337 Y169.209
G1 X30.049 Y168.8703
G1 Y168.6587
G1 X30.1337 Y168.32
G1 X30.6417 Y167.812
G1 X30.9803 Y167.7273
G1 X31.192
G0 Z3.0
G0 Y170.2673
G0 Z1.2
G1 Z-0.2
G1 X31.5307 Y170.352
G1 X32.0387 Y170.86
G1 X32.1233 Y171.1987
G1 Y171.4103
G1 X32.0387 Y171.749
G1 X31.5307 Y172.257
G1 X31.192 Y172.3417
G1 X30.8957
G1 X30.6417 Y172.257
G1 X30.1337 Y171.749
G1 X30.049 Y171.4103
G1 Y171.1987
G1 X30.1337 Y170.86
G1 X30.6417 Y170.352
G1 X30.9803 Y170.2673
G1 X31.192
G0 Z3.0
G0 Y172.765
G0 Z1.2
G1 Z-0.2
G1 X32.1657
G1 Y174.924
G1 X30.0067
G1 Y172.765
G1 X31.192
G0 Z3.0
G0 X35.0867
G0 Z1.2
G1 Z-0.2
G1 X37.2457
G1 Y174.924
G1 X35.0867
G1 Y172.765
G0 Z3.0
G0 X35.6582 Y172.1935
G0 Z1.2
G1 Z-0.2
G1 X35.2137 Y171.749
G1 X35.129 Y171.4103
G1 Y171.1987
G1 X35.2137 Y170.86
G1 X35.7217 Y170.352
G1 X36.0603 Y170.2673
G1 X36.272
G1 X36.6107 Y170.352
G1 X37.1187 Y170.86
G1 X37.2033 Y171.1987
G1 Y171.4103
G1 X37.1187 Y171.749
G1 X36.6107 Y172.257
G1 X36.272 Y172.3417
G1 X35.9757
G1 X35.7217 Y172.257
G1 X35.6582 Y172.1935
G0 Z3.0
G0 X34.0707 Y177.845
G0 Z1.2
G1 Z-0.2
G1 Y180.004
G1 X31.9117
G1 Y177.845
G1 X34.0707
G0 Z3.0
G0 Y181.655
G0 Z1.2
G1 Z-0.2
G1 Y183.814
G1 X31.9117
G1 Y181.655
G1 X34.0707
G0 Z3.0
G0 X34.6422 Y182.2265
G0 Z1.2
G1 Z-0.2
G1 X35.0867 Y181.782
G1 X35.4253 Y181.6973
G1 X35.637
G1 X35.9757 Y181.782
G1 X36.4837 Y182.29
G1 X36.5683 Y182.6287
G1 Y182.8403
G1 X36.4837 Y183.179
G1 X35.9757 Y183.687
G1 X35.637 Y183.7717
G1 X35.3407
G1 X35.0867 Y183.687
G1 X34.5787 Y183.179
G1 X34.494 Y182.8403
G1 Y182.6287
G1 X34.5787 Y182.29
G1 X34.6422 Y182.2265
G0 Z3.0
G0 X37.034 Y182.6287
G0 Z1.2
G1 Z-0.2
G1 X37.1187 Y182.29
G1 X37.6267 Y181.782
G1 X37.9653 Y181.6973
G1 X38.177
G1 X38.5157 Y181.782
G1 X39.0237 Y182.29
G1 X39.1083 Y182.6287
G1 Y182.8403
G1 X39.0237 Y183.179
G1 X38.5157 Y183.687
G1 X38.177 Y183.7717
G1 X37.8807
G1 X37.6267 Y183.687
G1 X37.1187 Y183.179
G1 X37.034 Y182.8403
G1 Y182.6287
G0 Z3.0
G0 X39.9762 Y179.6865
G0 Z1.2
G1 Z-0.2
G1 X39.6587 Y179.369
G1 X39.574 Y179.0303
G1 Y178.8187
G1 X39.6587 Y178.48
G1 X40.1667 Y177.972
G1 X40.5053 Y177.8873
G1 X40.717
G1 X41.0557 Y177.972
G1 X41.5637 Y178.48
G1 X41.6483 Y178.8187
G1 Y179.0303
G1 X41.5637 Y179.369
G1 X41.0557 Y179.877
G1 X40.717 Y179.9617
G1 X40.4207
G1 X40.1667 Y179.877
G1 X39.9762 Y179.6865
G0 Z3.0
G0 X42.7067 Y185.592
G0 Z1.2
G1 Z-0.2
G1 X43.0453 Y185.5073
G1 X43.257
G1 X43.5957 Y185.592
G1 X44.1037 Y186.1
G1 X44.1883 Y186.4387
G1 Y186.6503
G1 X44.1037 Y186.989
G1 X43.5957 Y187.497
G1 X43.257 Y187.5817
G1 X42.9607
G1 X42.7067 Y187.497
G1 X42.1987 Y186.989
G1 X42.114 Y186.6503
G1 Y186.4387
G1 X42.1987 Y186.1
G1 X42.7067 Y185.592
G0 Z3.0
G0 X46.305 Y183.56
G0 Z1.2
G1 Z-0.2
G1 X46.0933 Y183.0943
G1 Y182.3747
G1 X46.305 Y181.8667
G1 X46.7707 Y181.4433
G1 X47.2363 Y181.2317
G1 X47.956
G1 X48.4217 Y181.4433
G1 X48.8873 Y181.8667
G1 X49.099 Y182.3747
G1 Y183.0943
G1 X48.8873 Y183.6023
G1 X48.4217 Y184.0257
G1 X47.956 Y184.2373
G1 X47.3633 Y184.2797
G1 X47.0247 Y184.1527
G1 X46.686 Y183.9833
G1 X46.305 Y183.56
G0 Z3.0
G0 X47.4057 Y178.861
G0 Z1.2
G1 Z-0.2
G1 X47.0247 Y178.734
G1 X46.5167 Y178.226
G1 X46.3897 Y177.8027
G1 Y177.5063
G1 X46.5167 Y177.083
G1 X47.0247 Y176.575
G1 X47.448 Y176.448
G1 X47.7443
G1 X48.1677 Y176.575
G1 X48.6757 Y177.083
G1 X48.8027 Y177.5063
G1 Y177.8027
G1 X48.6757 Y178.226
G1 X48.1677 Y178.734
G1 X47.7443 Y178.861
G1 X47.4057
G0 Z3.0
G0 X49.5647 Y176.194
G0 Z1.2
G1 Z-0.2
G1 X49.0567 Y175.686
G1 X48.9297 Y175.2627
G1 Y174.9663
G1 X49.0567 Y174.543
G1 X49.5647 Y174.035
G1 X49.988 Y173.908
G1 X50.2843
G1 X50.7077 Y174.035
G1 X51.2157 Y174.543
G1 X51.3427 Y174.9663
G1 Y175.2627
G1 X51.2157 Y175.686
G1 X50.7077 Y176.194
G1 X50.2843 Y176.321
G1 X49.9457
G1 X49.5647 Y176.194
G0 Z3.0
G0 X50.5807 Y172.9767
G0 Z1.2
G1 Z-0.2
G1 X50.3267 Y172.892
G1 X49.8187 Y172.384
G1 X49.734 Y172.0453
G1 Y171.8337
G1 X49.8187 Y171.495
G1 X50.3267 Y170.987
G1 X50.6653 Y170.9023
G1 X50.877
G1 X51.2157 Y170.987
G1 X51.7237 Y171.495
G1 X51.8083 Y171.8337
G1 Y172.0453
G1 X51.7237 Y172.384
G1 X51.2157 Y172.892
G1 X50.877 Y172.9767
G1 X50.5807
G0 Z3.0
G0 X54.4118 Y176.8078
G0 Z1.2
G1 Z-0.2
G1 X54.6447 Y176.575
G1 X55.068 Y176.448
G1 X55.3643
G1 X55.7877 Y176.575
G1 X56.2957 Y177.083
G1 X56.4227 Y177.5063
G1 Y177.8027
G1 X56.2957 Y178.226
G1 X55.7877 Y178.734
G1 X55.3643 Y178.861
G1 X55.0257
G1 X54.6447 Y178.734
G1 X54.1367 Y178.226
G1 X54.0097 Y177.8027
G1 Y177.5063
G1 X54.1367 Y177.083
G1 X54.4118 Y176.8078
G0 Z3.0
G0 X52.8243 Y186.608
G0 Z1.2
G1 Z-0.2
G1 X53.2477 Y186.735
G1 X53.7557 Y187.243
G1 X53.8827 Y187.6663
G1 Y187.9627
G1 X53.7557 Y188.386
G1 X53.2477 Y188.894
G1 X52.8243 Y189.021
G1 X52.4857
G1 X52.1047 Y188.894
G1 X51.5967 Y188.386
G1 X51.4697 Y187.9627
G1 Y187.6663
G1 X51.5967 Y187.243
G1 X52.1047 Y186.735
G1 X52.528 Y186.608
G1 X52.8243
G0 Z3.0
G0 X56.5497 Y187.6663
G0 Z1.2
G1 Z-0.2
G1 X56.6767 Y187.243
G1 X57.1847 Y186.735
G1 X57.608 Y186.608
G1 X57.9043
G1 X58.3277 Y186.735
G1 X58.8357 Y187.243
G1 X58.9627 Y187.6663
G1 Y187.9627
G1 X58.8357 Y188.386
G1 X58.3277 Y188.894
G1 X57.9043 Y189.021
G1 X57.5657
G1 X57.1847 Y188.894
G1 X56.6767 Y188.386
G1 X56.5497 Y187.9627
G1 Y187.6663
G0 Z3.0
G0 X67.4717 Y174.162
G0 Z1.2
G1 Z-0.2
G1 X66.9637 Y173.654
G1 X66.879 Y173.3153
G1 Y173.1037
G1 X66.9637 Y172.765
G1 X67.4717 Y172.257
G1 X67.8103 Y172.1723
G1 X68.022
G1 X68.3607 Y172.257
G1 X68.8687 Y172.765
G1 X68.9533 Y173.1037
G1 Y173.3153
G1 X68.8687 Y173.654
G1 X68.3607 Y174.162
G1 X68.022 Y174.2467
G1 X67.7257
G1 X67.4717 Y174.162
G0 Z3.0
G0 Y170.479
G0 Z1.2
G1 Z-0.2
G1 X66.8367
G1 Y168.32
G1 X68.9957
G1 Y170.479
G1 X67.4717
G0 Z3.0
G0 X69.5037 Y169.844
G0 Z1.2
G1 Z-0.2
G1 X69.419 Y169.5053
G1 Y169.2937
G1 X69.5037 Y168.955
G1 X70.0117 Y168.447
G1 X70.3503 Y168.3623
G1 X70.562
G1 X70.9007 Y168.447
G1 X71.4087 Y168.955
G1 X71.4933 Y169.336
G1 X71.451 Y169.717
G1 X72.5093 Y170.8177
G1 X77.928
G1 X78.8593 Y169.844
G1 X78.9017 Y155.239
G1 X79.1557 Y154.985
G1 X83.008 Y154.9427
G1 X84.5743 Y153.334
G1 X84.6167 Y147.619
G1 X86.6063 Y145.587
G1 X86.564 Y145.206
G1 X86.6487 Y144.825
G1 X87.1567 Y144.317
G1 X87.4953 Y144.2323
G1 X87.707
G1 X88.0457 Y144.317
G1 X88.5537 Y144.825
G1 X88.6383 Y145.1637
G1 Y145.3753
G1 X88.5537 Y145.714
G1 X88.0457 Y146.222
G1 X87.6647 Y146.3067
G1 X87.2413 Y146.2643
G1 X85.548 Y148.0
G1 X85.5057 Y153.715
G1 X83.3467 Y155.874
G1 X79.833 Y155.9163
G1 X79.7907 Y170.225
G1 X78.2667 Y171.749
G1 X72.2553 Y171.7913
G1 X72.086 Y171.7067
G1 X70.816 Y170.3943
G1 X70.3927 Y170.4367
G1 X70.0117 Y170.352
G1 X69.5037 Y169.844
G0 Z3.0
G0 X68.3607 Y167.812
G0 Z1.2
G1 Z-0.2
G1 X68.022 Y167.8967
G1 X67.7257
G1 X67.4717 Y167.812
G1 X66.9637 Y167.304
G1 X66.879 Y166.9653
G1 Y166.7537
G1 X66.9637 Y166.415
G1 X67.4717 Y165.907
G1 X67.8103 Y165.8223
G1 X68.022
G1 X68.3607 Y165.907
G1 X68.8687 Y166.415
G1 X68.9533 Y166.7537
G1 Y166.9653
G1 X68.8687 Y167.304
G1 X68.3607 Y167.812
G0 Z3.0
G0 X68.022 Y165.3567
G0 Z1.2
G1 Z-0.2
G1 X67.7257
G1 X67.4717 Y165.272
G1 X66.9637 Y164.764
G1 X66.879 Y164.4253
G1 Y164.2137
G1 X66.9637 Y163.875
G1 X67.4717 Y163.367
G1 X67.8103 Y163.2823
G1 X68.022
G1 X68.3607 Y163.367
G1 X68.8687 Y163.875
G1 X68.9533 Y164.2137
G1 Y164.4253
G1 X68.8687 Y164.764
G1 X68.3607 Y165.272
G1 X68.022 Y165.3567
G0 Z3.0
G0 Y162.8167
G0 Z1.2
G1 Z-0.2
G1 X67.7257
G1 X67.4717 Y162.732
G1 X66.9637 Y162.224
G1 X66.879 Y161.8853
G1 Y161.6737
G1 X66.9637 Y161.335
G1 X67.4717 Y160.827
G1 X67.8103 Y160.7423
G1 X68.022
G1 X68.3607 Y160.827
G1 X68.8687 Y161.335
G1 X68.9533 Y161.6737
G1 Y161.8853
G1 X68.8687 Y162.224
G1 X68.3607 Y162.732
G1 X68.022 Y162.8167
G0 Z3.0
G0 Y160.2767
G0 Z1.2
G1 Z-0.2
G1 X67.7257
G1 X67.4717 Y160.192
G1 X66.9637 Y159.684
G1 X66.879 Y159.3453
G1 Y159.1337
G1 X66.9637 Y158.795
G1 X67.4717 Y158.287
G1 X67.8103 Y158.2023
G1 X68.022
G1 X68.3607 Y158.287
G1 X68.8687 Y158.795
G1 X68.9533 Y159.1337
G1 Y159.3453
G1 X68.8687 Y159.684
G1 X68.3607 Y160.192
G1 X68.022 Y160.2767
G0 Z3.0
G0 Y157.7367
G0 Z1.2
G1 Z-0.2
G1 X67.7257
G1 X67.4717 Y157.652
G1 X66.9637 Y157.144
G1 X66.879 Y156.8053
G1 Y156.5937
G1 X66.9637 Y156.255
G1 X67.4717 Y155.747
G1 X67.8103 Y155.6623
G1 X68.022
G1 X68.3607 Y155.747
G1 X68.8687 Y156.255
G1 X68.9533 Y156.5937
G1 Y156.8053
G1 X68.8687 Y157.144
G1 X68.3607 Y157.652
G1 X68.022 Y157.7367
G0 Z3.0
G0 Y155.1967
G0 Z1.2
G1 Z-0.2
G1 X67.7257
G1 X67.4717 Y155.112
G1 X66.9637 Y154.604
G1 X66.879 Y154.2653
G1 Y154.0537
G1 X66.9637 Y153.715
G1 X67.4717 Y153.207
G1 X67.8103 Y153.1223
G1 X68.022
G1 X68.3607 Y153.207
G1 X68.8687 Y153.715
G1 X68.9533 Y154.0537
G1 Y154.2653
G1 X68.8687 Y154.604
G1 X68.3607 Y155.112
G1 X68.022 Y155.1967
G0 Z3.0
G0 X69.3767 Y153.842
G0 Z1.2
G1 Z-0.2
G1 X68.8687 Y153.334
G1 X68.784 Y152.9953
G1 Y152.7837
G1 X68.8687 Y152.445
G1 X69.3767 Y151.937
G1 X69.7153 Y151.8523
G1 X69.927
G1 X70.2657 Y151.937
G1 X70.7313 Y152.4027
G1 X72.721
G1 X73.1867 Y151.937
G1 X73.5253 Y151.8523
G1 X73.737
G1 X74.0757 Y151.937
G1 X74.5837 Y152.445
G1 X74.6683 Y152.7837
G1 Y152.9953
G1 X74.5837 Y153.334
G1 X74.0757 Y153.842
G1 X73.737 Y153.9267
G1 X73.5253
G1 X73.1867 Y153.842
G1 X72.721 Y153.3763
G1 X70.7313
G1 X70.2657 Y153.842
G1 X69.927 Y153.9267
G1 X69.6307
G1 X69.3767 Y153.842
G0 Z3.0
G0 X68.3607 Y152.572
G0 Z1.2
G1 Z-0.2
G1 X68.022 Y152.6567
G1 X67.7257
G1 X67.4717 Y152.572
G1 X66.9637 Y152.064
G1 X66.879 Y151.7253
G1 Y151.5137
G1 X66.9637 Y151.175
G1 X67.4717 Y150.667
G1 X67.8103 Y150.5823
G1 X68.022
G1 X68.3607 Y150.667
G1 X68.8687 Y151.175
G1 X68.9533 Y151.5137
G1 Y151.7253
G1 X68.8687 Y152.064
G1 X68.3607 Y152.572
G0 Z3.0
G0 X68.022 Y150.1167
G0 Z1.2
G1 Z-0.2
G1 X67.7257
G1 X67.4717 Y150.032
G1 X66.9637 Y149.524
G1 X66.879 Y149.1853
G1 Y148.9737
G1 X66.9637 Y148.635
G1 X67.4717 Y148.127
G1 X67.8103 Y148.0423
G1 X68.022
G1 X68.3607 Y148.127
G1 X68.8687 Y148.635
G1 X68.9533 Y148.9737
G1 Y149.1853
G1 X68.8687 Y149.524
G1 X68.3607 Y150.032
G1 X68.022 Y150.1167
G0 Z3.0
G0 X66.4133 Y150.2437
G0 Z1.2
G1 Z-0.2
G1 Y150.4553
G1 X66.3287 Y150.794
G1 X65.8207 Y151.302
G1 X65.482 Y151.3867
G1 X65.228
G1 X64.974 Y151.302
G1 X64.6777 Y151.0903
G1 X63.0267 Y152.699
G1 X54.433 Y152.7413
G1 Y155.9163
G1 X54.8987 Y156.3397
G1 X55.2797 Y156.2973
G1 X55.6607 Y156.382
G1 X56.1687 Y156.89
G1 X56.2533 Y157.2287
G1 Y157.4403
G1 X56.1687 Y157.779
G1 X55.6607 Y158.287
G1 X55.322 Y158.3717
G1 X55.0257
G1 X54.7717 Y158.287
G1 X54.2637 Y157.779
G1 X54.179 Y157.398
G1 X54.2213 Y157.017
G1 X53.5017 Y156.255
G1 X53.4593 Y151.2597
G1 X52.9937 Y150.794
G1 X52.909 Y150.4553
G1 Y150.2437
G1 X52.9937 Y149.905
G1 X53.5017 Y149.397
G1 X53.8403 Y149.3123
G1 X54.052
G1 X54.3907 Y149.397
G1 X54.8987 Y149.905
G1 X54.9833 Y150.2437
G1 Y150.4553
G1 X54.8987 Y150.794
G1 X54.433 Y151.2597
G1 Y151.7677
G1 X62.688
G1 X64.4237 Y149.9897
G1 X64.5083 Y149.778
G1 X64.9317 Y149.397
G1 X65.2703 Y149.3123
G1 X65.482
G1 X65.8207 Y149.397
G1 X66.3287 Y149.905
G1 X66.4133 Y150.2437
G0 Z3.0
G0 X67.4717 Y147.492
G0 Z1.2
G1 Z-0.2
G1 X66.9637 Y146.984
G1 X66.879 Y146.6453
G1 Y146.4337
G1 X66.9637 Y146.095
G1 X67.4717 Y145.587
G1 X67.8103 Y145.5023
G1 X68.022
G1 X68.3607 Y145.587
G1 X68.8687 Y146.095
G1 X68.9533 Y146.4337
G1 Y146.6453
G1 X68.8687 Y146.984
G1 X68.3607 Y147.492
G1 X68.022 Y147.5767
G1 X67.7257
G1 X67.4717 Y147.492
G0 Z3.0
G0 X67.7257 Y145.0367
G0 Z1.2
G1 Z-0.2
G1 X67.4717 Y144.952
G1 X66.9637 Y144.444
G1 X66.879 Y144.1053
G1 Y143.8937
G1 X66.9637 Y143.555
G1 X67.4717 Y143.047
G1 X67.8103 Y142.9623
G1 X68.022
G1 X68.3607 Y143.047
G1 X68.8687 Y143.555
G1 X68.9533 Y143.8937
G1 Y144.1053
G1 X68.8687 Y144.444
G1 X68.3607 Y144.952
G1 X68.022 Y145.0367
G1 X67.7257
G0 Z3.0
G0 Y142.4967
G0 Z1.2
G1 Z-0.2
G1 X67.4717 Y142.412
G1 X66.9637 Y141.904
G1 X66.879 Y141.5653
G1 Y141.3537
G1 X66.9637 Y141.015
G1 X67.4717 Y140.507
G1 X67.8103 Y140.4223
G1 X68.022
G1 X68.3607 Y140.507
G1 X68.8687 Y141.015
G1 X68.9533 Y141.3537
G1 Y141.5653
G1 X68.8687 Y141.904
G1 X68.3607 Y142.412
G1 X68.022 Y142.4967
G1 X67.7257
G0 Z3.0
G0 Y139.9567
G0 Z1.2
G1 Z-0.2
G1 X67.4717 Y139.872
G1 X66.9637 Y139.364
G1 X66.879 Y139.0253
G1 Y138.8137
G1 X66.9637 Y138.475
G1 X67.4717 Y137.967
G1 X67.8103 Y137.8823
G1 X68.022
G1 X68.3607 Y137.967
G1 X68.8687 Y138.475
G1 X68.9533 Y138.8137
G1 Y139.0253
G1 X68.8687 Y139.364
G1 X68.3607 Y139.872
G1 X68.022 Y139.9567
G1 X67.7257
G0 Z3.0
G0 X69.3659 Y139.9185
G0 Z1.2
G1 Z-0.2
G1 X69.3343 Y138.5597
G1 X68.8687 Y138.094
G1 X68.784 Y137.7553
G1 Y137.5437
G1 X68.8687 Y137.205
G1 X69.3767 Y136.697
G1 X69.7153 Y136.6123
G1 X69.927
G1 X70.2657 Y136.697
G1 X70.7737 Y137.205
G1 X70.8583 Y137.5437
G1 Y137.7553
G1 X70.7737 Y138.094
G1 X70.308 Y138.5597
G1 Y140.0413
G1 X72.5517 Y142.2427
G1 X72.721
G1 X73.1867 Y141.777
G1 X73.5253 Y141.6923
G1 X73.737
G1 X74.0757 Y141.777
G1 X74.5837 Y142.285
G1 X74.6683 Y142.6237
G1 Y142.8353
G1 X74.5837 Y143.174
G1 X74.0757 Y143.682
G1 X73.737 Y143.7667
G1 X73.4407
G1 X73.1867 Y143.682
G1 X72.721 Y143.2163
G1 X72.1707 Y143.174
G1 X69.3767 Y140.38
G1 X69.3659 Y139.9185
G0 Z3.0
G0 X68.3607 Y137.332
G0 Z1.2
G1 Z-0.2
G1 X68.022 Y137.4167
G1 X67.7257
G1 X67.4717 Y137.332
G1 X66.9637 Y136.824
G1 X66.879 Y136.4853
G1 Y136.2737
G1 X66.9637 Y135.935
G1 X67.4717 Y135.427
G1 X67.8103 Y135.3423
G1 X68.022
G1 X68.3607 Y135.427
G1 X68.8687 Y135.935
G1 X68.9533 Y136.2737
G1 Y136.4853
G1 X68.8687 Y136.824
G1 X68.3607 Y137.332
G0 Z3.0
G0 X68.3665 Y134.939
G0 Z1.2
G1 Z-0.2
G1 X60.1057 Y134.919
G1 X56.9307 Y131.7863
G1 X44.8657 Y131.744
G1 X40.8017 Y127.68
G1 Y65.069
G1 X41.0557 Y64.815
G1 X52.4857 Y64.7727
G1 X56.9307 Y60.37
G1 X70.181 Y60.3277
G1 X70.6467 Y59.862
G1 X70.9853 Y59.7773
G1 X71.197
G1 X71.5357 Y59.862
G1 X72.0437 Y60.37
G1 X72.1283 Y60.7087
G1 Y60.9203
G1 X72.0437 Y61.259
G1 X71.5357 Y61.767
G1 X71.197 Y61.8517
G1 X70.9853
G1 X70.6467 Y61.767
G1 X70.181 Y61.3013
G1 X57.3117
G1 X52.8667 Y65.704
G1 X41.733 Y65.7463
G1 Y127.3413
G1 X45.2467 Y130.8127
G1 X57.3117 Y130.855
G1 X60.4867 Y133.9877
G1 X78.2667 Y134.03
G1 X78.5207 Y134.284
G1 X78.563 Y143.0893
G1 X79.0287 Y143.555
G1 X79.1133 Y143.8937
G1 Y144.1053
G1 X79.0287 Y144.444
G1 X78.5207 Y144.952
G1 X78.182 Y145.0367
G1 X77.8857
G1 X77.6317 Y144.952
G1 X77.1237 Y144.444
G1 X77.039 Y144.1053
G1 Y143.8937
G1 X77.1237 Y143.555
G1 X77.5893 Y143.0893
G1 Y134.9613
G1 X68.3665 Y134.939
G0 Z3.0
G0 X68.3702 Y133.6713
G0 Z1.2
G1 Z-0.2
G1 X60.7407 Y133.649
G1 X60.4867 Y133.395
G1 Y123.489
G1 X60.7407 Y123.235
G1 X61.926 Y123.1927
G1 X62.3493 Y122.7693
G1 Y117.1813
G1 X61.8413
G1 X61.3757 Y117.647
G1 X61.037 Y117.7317
G1 X60.8253
G1 X60.4867 Y117.647
G1 X59.9787 Y117.139
G1 X59.894 Y116.8003
G1 Y116.5887
G1 X59.9787 Y116.25
G1 X60.4443 Y115.7843
G1 Y98.4277
G1 X60.1057 Y98.1313
G1 X59.9363
G1 X59.4707 Y98.597
G1 X59.132 Y98.6817
G1 X58.9203
G1 X58.5817 Y98.597
G1 X58.0737 Y98.089
G1 X57.989 Y97.7503
G1 Y97.5387
G1 X58.0737 Y97.2
G1 X58.5817 Y96.692
G1 X58.9203 Y96.6073
G1 X59.132
G1 X59.4707 Y96.692
G1 X59.9363 Y97.1577
G1 X60.4443 Y97.2
G1 Y76.8377
G1 X60.1057 Y76.5413
G1 X59.9363
G1 X59.4707 Y77.007
G1 X59.132 Y77.0917
G1 X58.9203
G1 X58.5817 Y77.007
G1 X58.0737 Y76.499
G1 X57.989 Y76.1603
G1 Y75.9487
G1 X58.0737 Y75.61
G1 X58.5817 Y75.102
G1 X58.9203 Y75.0173
G1 X59.132
G1 X59.4707 Y75.102
G1 X59.9363 Y75.5677
G1 X60.4867 Y75.61
G1 X62.5187 Y77.5997
G1 X62.8997 Y77.5573
G1 X63.2807 Y77.642
G1 X63.7887 Y78.15
G1 X63.8733 Y78.4887
G1 Y78.7003
G1 X63.7887 Y79.039
G1 X63.2807 Y79.547
G1 X62.942 Y79.6317
G1 X62.7303
G1 X62.3917 Y79.547
G1 X61.8837 Y79.039
G1 X61.799 Y78.658
G1 X61.8413 Y78.2347
G1 X61.418 Y77.8537
G1 Y98.1313
G1 X62.5187 Y99.1897
G1 X62.8997 Y99.1473
G1 X63.2807 Y99.232
G1 X63.7887 Y99.74
G1 X63.8733 Y100.0787
G1 Y100.2903
G1 X63.7887 Y100.629
G1 X63.2807 Y101.137
G1 X62.942 Y101.2217
G1 X62.7303
G1 X62.3917 Y101.137
G1 X61.8837 Y100.629
G1 X61.799 Y100.248
G1 X61.8413 Y99.8247
G1 X61.418 Y99.4437
G1 Y115.7843
G1 X61.8413 Y116.2077
G1 X63.0267 Y116.25
G1 X63.2807 Y116.504
G1 X63.323 Y122.7693
G1 X63.7887 Y123.235
G1 X63.8733 Y123.5737
G1 Y123.7853
G1 X63.7887 Y124.124
G1 X63.2807 Y124.632
G1 X62.942 Y124.7167
G1 X62.7303
G1 X62.3917 Y124.632
G1 X61.926 Y124.1663
G1 X61.418
G1 Y132.7177
G1 X74.499
G1 Y132.5907
G1 X74.5837 Y132.252
G1 X75.0917 Y131.744
G1 X75.4303 Y131.6593
G1 X75.642
G1 X75.9807 Y131.744
G1 X76.4887 Y132.252
G1 X76.5733 Y132.5907
G1 Y132.8023
G1 X76.4887 Y133.141
G1 X75.9807 Y133.649
G1 X75.642 Y133.7337
G1 X75.3457
G1 X75.2187 Y133.6913
G1 X68.3702 Y133.6713
G0 Z3.0
G0 X68.8331 Y132.2825
G0 Z1.2
G1 Z-0.2
G1 X68.7417 Y132.252
G1 X68.2337 Y131.744
G1 X68.149 Y131.363
G1 X68.1913 Y130.982
G1 X66.8367 Y129.585
G1 X66.7943 Y129.0347
G1 X66.3287 Y128.569
G1 X66.244 Y128.2303
G1 Y128.0187
G1 X66.3287 Y127.68
G1 X66.7943 Y127.2143
G1 Y113.7947
G1 X66.3287 Y113.329
G1 X66.244 Y112.9903
G1 Y112.7787
G1 X66.3287 Y112.44
G1 X66.7943 Y111.9743
G1 Y104.9047
G1 X66.3287 Y104.439
G1 X66.244 Y104.1003
G1 Y103.8887
G1 X66.3287 Y103.55
G1 X66.7943 Y103.0843
G1 Y92.2047
G1 X66.3287 Y91.739
G1 X66.244 Y91.4003
G1 Y91.1887
G1 X66.3287 Y90.85
G1 X66.7943 Y90.3843
G1 Y83.3147
G1 X66.3287 Y82.849
G1 X66.244 Y82.5103
G1 Y82.2987
G1 X66.3287 Y81.96
G1 X66.7943 Y81.4943
G1 Y70.6147
G1 X66.3287 Y70.149
G1 X66.244 Y69.8103
G1 Y69.5987
G1 X66.3287 Y69.26
G1 X66.7943 Y68.7943
G1 Y65.4077
G1 X56.973
G1 X55.068 Y67.355
G1 Y68.7943
G1 X55.5337 Y69.26
G1 X55.6183 Y69.5987
G1 Y69.8103
G1 X55.5337 Y70.149
G1 X55.068 Y70.6147
G1 Y84.0343
G1 X55.5337 Y84.5
G1 X55.6183 Y84.8387
G1 Y85.0503
G1 X55.5337 Y85.389
G1 X55.068 Y85.8547
G1 Y92.9243
G1 X55.5337 Y93.39
G1 X55.6183 Y93.7287
G1 Y93.9403
G1 X55.5337 Y94.279
G1 X55.068 Y94.7447
G1 Y105.6243
G1 X55.5337 Y106.09
G1 X55.6183 Y106.4287
G1 Y106.6403
G1 X55.5337 Y106.979
G1 X55.068 Y107.4447
G1 Y114.5143
G1 X55.5337 Y114.98
G1 X55.6183 Y115.3187
G1 Y115.5303
G1 X55.5337 Y115.869
G1 X55.068 Y116.3347
G1 Y127.2143
G1 X55.5337 Y127.68
G1 X55.6183 Y128.0187
G1 Y128.2303
G1 X55.5337 Y128.569
G1 X55.0257 Y129.077
G1 X54.687 Y129.1617
G1 X54.4753
G1 X54.1367 Y129.077
G1 X53.6287 Y128.569
G1 X53.544 Y128.2303
G1 Y128.0187
G1 X53.6287 Y127.68
G1 X54.0943 Y127.2143
G1 Y116.3347
G1 X53.6287 Y115.869
G1 X53.544 Y115.5303
G1 Y115.3187
G1 X53.6287 Y114.98
G1 X54.0943 Y114.5143
G1 Y107.4447
G1 X53.6287 Y106.979
G1 X53.544 Y106.6403
G1 Y106.4287
G1 X53.6287 Y106.09
G1 X54.0943 Y105.6243
G1 Y94.7447
G1 X53.6287 Y94.279
G1 X53.544 Y93.9403
G1 Y93.7287
G1 X53.6287 Y93.39
G1 X54.0943 Y92.9243
G1 Y85.8547
G1 X53.6287 Y85.389
G1 X53.544 Y85.0503
G1 Y84.8387
G1 X53.6287 Y84.5
G1 X54.0943 Y84.0343
G1 Y70.6147
G1 X53.6287 Y70.149
G1 X53.544 Y69.8103
G1 Y69.5987
G1 X53.6287 Y69.26
G1 X54.0943 Y68.7943
G1 X54.1367 Y66.974
G1 X56.6343 Y64.4763
G1 X72.5093 Y64.434
G1 X73.4407 Y63.545
G1 X79.1557 Y63.5027
G1 X81.6957 Y61.005
G1 X93.1257 Y60.9627
G1 X94.0993 Y60.0313
G1 Y53.4697
G1 X93.6337 Y53.004
G1 X93.549 Y52.6653
G1 Y52.4537
G1 X93.6337 Y52.115
G1 X94.0993 Y51.6493
G1 Y47.3313
G1 X72.0013
G1 X71.5357 Y47.797
G1 X71.197 Y47.8817
G1 X70.9853
G1 X70.6467 Y47.797
G1 X70.1387 Y47.289
G1 X70.054 Y46.9503
G1 Y46.7387
G1 X70.1387 Y46.4
G1 X70.6467 Y45.892
G1 X70.9853 Y45.8073
G1 X71.197
G1 X71.5357 Y45.892
G1 X72.0013 Y46.3577
G1 X94.0993
G1 Y32.6417
G1 X93.8453
G1 X93.5067 Y32.557
G1 X92.9987 Y32.049
G1 X92.914 Y31.7103
G1 Y31.4987
G1 X92.9987 Y31.16
G1 X93.5067 Y30.652
G1 X93.8453 Y30.5673
G1 X94.0993
G1 Y29.2127
G1 X93.7607 Y28.9163
G1 X50.9193
G1 X50.623 Y29.255
G1 Y34.5043
G1 X51.0887 Y34.97
G1 X51.1733 Y35.3087
G1 Y35.5203
G1 X51.0887 Y35.859
G1 X50.5807 Y36.367
G1 X50.242 Y36.4517
G1 X49.988
G1 Y53.004
G1 X50.5807 Y53.639
G1 X50.623 Y54.8243
G1 X51.0887 Y55.29
G1 X51.1733 Y55.6287
G1 Y55.8403
G1 X51.0887 Y56.179
G1 X50.5807 Y56.687
G1 X50.242 Y56.7717
G1 X50.0303
G1 X49.6917 Y56.687
G1 X49.1837 Y56.179
G1 X49.099 Y55.8403
G1 Y55.6287
G1 X49.1837 Y55.29
G1 X49.6493 Y54.8243
G1 Y54.02
G1 X49.0567 Y53.385
G1 X49.0143 Y35.986
G1 X49.1413 Y35.732
G1 X49.099 Y35.351
G1 X49.1837 Y34.97
G1 X49.6493 Y34.5043
G1 X49.6917 Y28.874
G1 X50.5807 Y27.985
G1 X76.9543 Y27.9427
G1 Y27.4347
G1 X76.4887 Y26.969
G1 X76.404 Y26.6303
G1 Y26.4187
G1 X76.4887 Y26.08
G1 X76.9967 Y25.572
G1 X77.3353 Y25.4873
G1 X77.547
G1 X77.8857 Y25.572
G1 X78.3937 Y26.08
G1 X78.4783 Y26.4187
G1 Y26.6303
G1 X78.3937 Y26.969
G1 X77.928 Y27.4347
G1 Y27.9427
G1 X94.1417 Y27.985
G1 X95.0307 Y28.874
G1 X95.073 Y51.6493
G1 X95.5387 Y52.115
G1 X95.6233 Y52.4537
G1 Y52.6653
G1 X95.5387 Y53.004
G1 X95.073 Y53.4697
G1 X95.0307 Y60.37
G1 X93.5067 Y61.894
G1 X82.0767 Y61.9363
G1 X79.5367 Y64.434
G1 X73.8217 Y64.4763
G1 X72.8903 Y65.3653
G1 X67.768 Y65.4077
G1 Y68.7943
G1 X68.2337 Y69.26
G1 X68.3183 Y69.5987
G1 Y69.8103
G1 X68.2337 Y70.149
G1 X67.768 Y70.6147
G1 Y81.4943
G1 X68.2337 Y81.96
G1 X68.3183 Y82.2987
G1 Y82.5103
G1 X68.2337 Y82.849
G1 X67.768 Y83.3147
G1 Y90.3843
G1 X68.2337 Y90.85
G1 X68.3183 Y91.1887
G1 Y91.4003
G1 X68.2337 Y91.739
G1 X67.768 Y92.2047
G1 Y103.0843
G1 X68.2337 Y103.55
G1 X68.3183 Y103.8887
G1 Y104.1003
G1 X68.2337 Y104.439
G1 X67.768 Y104.9047
G1 Y111.9743
G1 X68.2337 Y112.44
G1 X68.3183 Y112.7787
G1 Y112.9903
G1 X68.2337 Y113.329
G1 X67.768 Y113.7947
G1 Y127.2143
G1 X68.2337 Y127.68
G1 X68.3183 Y128.0187
G1 Y128.2303
G1 X68.2337 Y128.569
G1 X67.768 Y129.0347
G1 Y129.2463
G1 X68.8687 Y130.3047
G1 X69.2497 Y130.2623
G1 X69.6307 Y130.347
G1 X70.1387 Y130.855
G1 X70.2233 Y131.1937
G1 Y131.4053
G1 X70.1387 Y131.744
G1 X69.6307 Y132.252
G1 X69.292 Y132.3367
G1 X68.9957
G1 X68.8331 Y132.2825
G0 Z3.0
G0 X70.7737 Y131.744
G0 Z1.2
G1 Z-0.2
G1 X70.689 Y131.363
G1 X70.7313 Y130.982
G1 X70.0117 Y130.22
G1 X69.9693 Y127.045
G1 X69.546 Y126.5793
G1 X69.1227 Y126.6217
G1 X68.7417 Y126.537
G1 X68.2337 Y126.029
G1 X68.149 Y125.6903
G1 Y125.4787
G1 X68.2337 Y125.14
G1 X68.6993 Y124.6743
G1 Y102.3647
G1 X68.2337 Y101.899
G1 X68.149 Y101.5603
G1 Y101.3487
G1 X68.2337 Y101.01
G1 X68.6993 Y100.5443
G1 Y80.7747
G1 X68.2337 Y80.309
G1 X68.149 Y79.9703
G1 Y79.7587
G1 X68.2337 Y79.42
G1 X68.6993 Y78.9543
G1 X68.7417 Y66.339
G1 X68.9957 Y66.085
G1 X76.404 Y66.0427
G1 Y65.7887
G1 X76.4887 Y65.45
G1 X76.9967 Y64.942
G1 X77.3353 Y64.8573
G1 X77.547
G1 X77.8857 Y64.942
G1 X78.3937 Y65.45
G1 X78.4783 Y65.7887
G1 Y66.0003
G1 X78.3937 Y66.339
G1 X77.8857 Y66.847
G1 X77.5047 Y66.9317
G1 X77.1237 Y66.8893
G1 X76.912 Y67.0163
G1 X69.673
G1 Y78.9543
G1 X70.1387 Y79.42
G1 X70.2233 Y79.7587
G1 Y79.9703
G1 X70.1387 Y80.309
G1 X69.673 Y80.7747
G1 Y100.5443
G1 X70.1387 Y101.01
G1 X70.2233 Y101.3487
G1 Y101.5603
G1 X70.1387 Y101.899
G1 X69.673 Y102.3647
G1 Y124.6743
G1 X70.1387 Y125.14
G1 X70.2233 Y125.521
G1 X70.181 Y125.902
G1 X70.9007 Y126.664
G1 X70.943 Y129.839
G1 X71.3663 Y130.3047
G1 X71.7897 Y130.2623
G1 X72.1707 Y130.347
G1 X72.6787 Y130.855
G1 X72.7633 Y131.1937
G1 Y131.4053
G1 X72.6787 Y131.744
G1 X72.1707 Y132.252
G1 X71.832 Y132.3367
G1 X71.5357
G1 X71.2817 Y132.252
G1 X70.7737 Y131.744
G0 Z3.0
G0 X72.3612 Y130.1565
G0 Z1.2
G1 Z-0.2
G1 X72.0437 Y129.839
G1 X71.959 Y129.5003
G1 Y129.2887
G1 X72.0437 Y128.95
G1 X72.5517 Y128.442
G1 X72.8903 Y128.3573
G1 X73.102
G1 X73.4407 Y128.442
G1 X73.9487 Y128.95
G1 X74.0333 Y129.2887
G1 Y129.5003
G1 X73.9487 Y129.839
G1 X73.4407 Y130.347
G1 X73.102 Y130.4317
G1 X72.8057
G1 X72.5517 Y130.347
G1 X72.3612 Y130.1565
G0 Z3.0
G0 X74.5276 Y129.6149
G0 Z1.2
G1 Z-0.2
G1 X74.499 Y129.5003
G1 Y129.2887
G1 X74.5837 Y128.95
G1 X75.0917 Y128.442
G1 X75.4303 Y128.3573
G1 X75.642
G1 X75.9807 Y128.442
G1 X76.4887 Y128.95
G1 X76.5733 Y129.2887
G1 Y129.5003
G1 X76.4887 Y129.839
G1 X75.9807 Y130.347
G1 X75.642 Y130.4317
G1 X75.3457
G1 X75.0917 Y130.347
G1 X74.5837 Y129.839
G1 X74.5276 Y129.6149
G0 Z3.0
G0 X75.1264 Y127.8186
G0 Z1.2
G1 Z-0.2
G1 X75.0917 Y127.807
G1 X74.5837 Y127.299
G1 X74.499 Y126.9603
G1 Y126.7487
G1 X74.5837 Y126.41
G1 X75.0917 Y125.902
G1 X75.4303 Y125.8173
G1 X75.642
G1 X75.9807 Y125.902
G1 X76.4887 Y126.41
G1 X76.5733 Y126.7487
G1 Y126.9603
G1 X76.4887 Y127.299
G1 X75.9807 Y127.807
G1 X75.642 Y127.8917
G1 X75.3457
G1 X75.1264 Y127.8186
G0 Z3.0
G0 X73.9487 Y127.299
G0 Z1.2
G1 Z-0.2
G1 X73.4407 Y127.807
G1 X73.102 Y127.8917
G1 X72.8057
G1 X72.5517 Y127.807
G1 X72.0437 Y127.299
G1 X71.959 Y126.9603
G1 Y126.7487
G1 X72.0437 Y126.41
G1 X72.5517 Y125.902
G1 X72.8903 Y125.8173
G1 X73.102
G1 X73.4407 Y125.902
G1 X73.9487 Y126.41
G1 X74.0333 Y126.7487
G1 Y126.9603
G1 X73.9487 Y127.299
G0 Z3.0
G0 X73.4407 Y125.267
G0 Z1.2
G1 Z-0.2
G1 X73.102 Y125.3517
G1 X72.8057
G1 X72.5517 Y125.267
G1 X72.0437 Y124.759
G1 X71.959 Y124.4203
G1 Y124.2087
G1 X72.0437 Y123.87
G1 X72.5517 Y123.362
G1 X72.8903 Y123.2773
G1 X73.102
G1 X73.4407 Y123.362
G1 X73.9487 Y123.87
G1 X74.0333 Y124.2087
G1 Y124.4203
G1 X73.9487 Y124.759
G1 X73.4407 Y125.267
G0 Z3.0
G0 X74.5837 Y124.759
G0 Z1.2
G1 Z-0.2
G1 X74.499 Y124.4203
G1 Y124.2087
G1 X74.5837 Y123.87
G1 X75.0917 Y123.362
G1 X75.4303 Y123.2773
G1 X75.642
G1 X75.9807 Y123.362
G1 X76.4887 Y123.87
G1 X76.5733 Y124.2087
G1 Y124.4203
G1 X76.4887 Y124.759
G1 X75.9807 Y125.267
G1 X75.642 Y125.3517
G1 X75.3457
G1 X75.0917 Y125.267
G1 X74.5837 Y124.759
G0 Z3.0
G0 X75.2441 Y122.7778
G0 Z1.2
G1 Z-0.2
G1 X75.0917 Y122.727
G1 X74.5837 Y122.219
G1 X74.499 Y121.8803
G1 Y121.6687
G1 X74.5837 Y121.33
G1 X75.0917 Y120.822
G1 X75.4303 Y120.7373
G1 X75.642
G1 X75.9807 Y120.822
G1 X76.4887 Y121.33
G1 X76.5733 Y121.6687
G1 Y121.8803
G1 X76.4887 Y122.219
G1 X75.9807 Y122.727
G1 X75.642 Y122.8117
G1 X75.3457
G1 X75.2441 Y122.7778
G0 Z3.0
G0 X73.9487 Y122.219
G0 Z1.2
G1 Z-0.2
G1 X73.4407 Y122.727
G1 X73.102 Y122.8117
G1 X72.8057
G1 X72.5517 Y122.727
G1 X72.0437 Y122.219
G1 X71.959 Y121.8803
G1 Y121.6687
G1 X72.0437 Y121.33
G1 X72.5517 Y120.822
G1 X72.8903 Y120.7373
G1 X73.102
G1 X73.4407 Y120.822
G1 X73.9487 Y121.33
G1 X74.0333 Y121.6687
G1 Y121.8803
G1 X73.9487 Y122.219
G0 Z3.0
G0 X73.4407 Y120.187
G0 Z1.2
G1 Z-0.2
G1 X73.102 Y120.2717
G1 X72.8057
G1 X72.5517 Y120.187
G1 X72.0437 Y119.679
G1 X71.959 Y119.3403
G1 Y119.1287
G1 X72.0437 Y118.79
G1 X72.5517 Y118.282
G1 X72.8903 Y118.1973
G1 X73.102
G1 X73.4407 Y118.282
G1 X73.9487 Y118.79
G1 X74.0333 Y119.1287
G1 Y119.3403
G1 X73.9487 Y119.679
G1 X73.4407 Y120.187
G0 Z3.0
G0 X74.5837 Y119.679
G0 Z1.2
G1 Z-0.2
G1 X74.499 Y119.3403
G1 Y119.1287
G1 X74.5837 Y118.79
G1 X75.0917 Y118.282
G1 X75.4303 Y118.1973
G1 X75.642
G1 X75.9807 Y118.282
G1 X76.4887 Y118.79
G1 X76.5733 Y119.1287
G1 Y119.3403
G1 X76.4887 Y119.679
G1 X75.9807 Y120.187
G1 X75.642 Y120.2717
G1 X75.3457
G1 X75.0917 Y120.187
G1 X74.5837 Y119.679
G0 Z3.0
G0 X75.2441 Y117.6978
G0 Z1.2
G1 Z-0.2
G1 X75.0917 Y117.647
G1 X74.5837 Y117.139
G1 X74.499 Y116.8003
G1 Y116.5887
G1 X74.5837 Y116.25
G1 X75.0917 Y115.742
G1 X75.4303 Y115.6573
G1 X75.642
G1 X75.9807 Y115.742
G1 X76.4887 Y116.25
G1 X76.5733 Y116.5887
G1 Y116.8003
G1 X76.4887 Y117.139
G1 X75.9807 Y117.647
G1 X75.642 Y117.7317
G1 X75.3457
G1 X75.2441 Y117.6978
G0 Z3.0
G0 X73.9487 Y117.139
G0 Z1.2
G1 Z-0.2
G1 X73.4407 Y117.647
G1 X73.102 Y117.7317
G1 X72.8057
G1 X72.5517 Y117.647
G1 X72.0437 Y117.139
G1 X71.959 Y116.8003
G1 Y116.5887
G1 X72.0437 Y116.25
G1 X72.5517 Y115.742
G1 X72.8903 Y115.6573
G1 X73.102
G1 X73.4407 Y115.742
G1 X73.9487 Y116.25
G1 X74.0333 Y116.5887
G1 Y116.8003
G1 X73.9487 Y117.139
G0 Z3.0
G0 X73.4407 Y115.107
G0 Z1.2
G1 Z-0.2
G1 X73.102 Y115.1917
G1 X72.8057
G1 X72.5517 Y115.107
G1 X72.0437 Y114.599
G1 X71.959 Y114.2603
G1 Y114.0487
G1 X72.0437 Y113.71
G1 X72.5517 Y113.202
G1 X72.8903 Y113.1173
G1 X73.102
G1 X73.4407 Y113.202
G1 X73.9487 Y113.71
G1 X74.0333 Y114.0487
G1 Y114.2603
G1 X73.9487 Y114.599
G1 X73.4407 Y115.107
G0 Z3.0
G0 X74.5837 Y114.599
G0 Z1.2
G1 Z-0.2
G1 X74.499 Y114.2603
G1 Y114.0487
G1 X74.5837 Y113.71
G1 X75.0917 Y113.202
G1 X75.4303 Y113.1173
G1 X75.642
G1 X75.9807 Y113.202
G1 X76.4887 Y113.71
G1 X76.5733 Y114.0487
G1 Y114.2603
G1 X76.4887 Y114.599
G1 X75.9807 Y115.107
G1 X75.642 Y115.1917
G1 X75.3457
G1 X75.0917 Y115.107
G1 X74.5837 Y114.599
G0 Z3.0
G0 X74.0757 Y112.694
G0 Z1.2
G1 Z-0.2
G1 X71.9167
G1 Y110.535
G1 X74.0757
G1 Y112.694
G0 Z3.0
G0 X74.6472 Y112.1225
G0 Z1.2
G1 Z-0.2
G1 X74.5837 Y112.059
G1 X74.499 Y111.7203
G1 Y111.5087
G1 X74.5837 Y111.17
G1 X75.0917 Y110.662
G1 X75.4303 Y110.5773
G1 X75.642
G1 X75.9807 Y110.662
G1 X76.4887 Y111.17
G1 X76.5733 Y111.5087
G1 Y111.7203
G1 X76.4887 Y112.059
G1 X75.9807 Y112.567
G1 X75.642 Y112.6517
G1 X75.3457
G1 X75.0917 Y112.567
G1 X74.6472 Y112.1225
G0 Z3.0
G0 X71.578
G0 Z1.2
G1 Z-0.2
G1 Y114.5143
G1 X72.0437 Y114.98
G1 X72.1283 Y115.3187
G1 Y115.5303
G1 X72.0437 Y115.869
G1 X71.5357 Y116.377
G1 X71.197 Y116.4617
G1 X70.9007
G1 X70.6467 Y116.377
G1 X70.1387 Y115.869
G1 X70.054 Y115.5303
G1 Y115.3187
G1 X70.1387 Y114.98
G1 X70.6043 Y114.5143
G1 Y107.4447
G1 X70.1387 Y106.979
G1 X70.054 Y106.6403
G1 Y106.4287
G1 X70.1387 Y106.09
G1 X70.6467 Y105.582
G1 X70.9853 Y105.4973
G1 X71.197
G1 X71.5357 Y105.582
G1 X72.0437 Y106.09
G1 X72.1283 Y106.4287
G1 Y106.6403
G1 X72.0437 Y106.979
G1 X71.578 Y107.4447
G1 Y112.1225
G0 Z3.0
G0 X72.685 Y108.8015
G0 Z1.2
G1 Z-0.2
G1 X72.5517 Y108.757
G1 X72.0437 Y108.249
G1 X71.959 Y107.9103
G1 Y107.6987
G1 X72.0437 Y107.36
G1 X72.5517 Y106.852
G1 X72.8903 Y106.7673
G1 X73.102
G1 X73.4407 Y106.852
G1 X73.9487 Y107.36
G1 X74.0333 Y107.6987
G1 Y107.9103
G1 X73.9487 Y108.249
G1 X73.4407 Y108.757
G1 X73.102 Y108.8417
G1 X72.8057
G1 X72.685 Y108.8015
G0 Z3.0
G0 X74.5837 Y108.249
G0 Z1.2
G1 Z-0.2
G1 X74.499 Y107.9103
G1 Y107.6987
G1 X74.5837 Y107.36
G1 X75.0917 Y106.852
G1 X75.4303 Y106.7673
G1 X75.642
G1 X75.9807 Y106.852
G1 X76.4887 Y107.36
G1 X76.5733 Y107.6987
G1 Y107.9103
G1 X76.4887 Y108.249
G1 X75.9807 Y108.757
G1 X75.642 Y108.8417
G1 X75.3457
G1 X75.0917 Y108.757
G1 X74.5837 Y108.249
G0 Z3.0
G0 X75.2441 Y106.2678
G0 Z1.2
G1 Z-0.2
G1 X75.0917 Y106.217
G1 X74.5837 Y105.709
G1 X74.499 Y105.3703
G1 Y105.1587
G1 X74.5837 Y104.82
G1 X75.0917 Y104.312
G1 X75.4303 Y104.2273
G1 X75.642
G1 X75.9807 Y104.312
G1 X76.4887 Y104.82
G1 X76.5733 Y105.1587
G1 Y105.3703
G1 X76.4887 Y105.709
G1 X75.9807 Y106.217
G1 X75.642 Y106.3017
G1 X75.3457
G1 X75.2441 Y106.2678
G0 Z3.0
G0 X73.9487 Y105.709
G0 Z1.2
G1 Z-0.2
G1 X73.4407 Y106.217
G1 X73.102 Y106.3017
G1 X72.8057
G1 X72.5517 Y106.217
G1 X72.0437 Y105.709
G1 X71.959 Y105.3703
G1 Y105.1587
G1 X72.0437 Y104.82
G1 X72.5517 Y104.312
G1 X72.8903 Y104.2273
G1 X73.102
G1 X73.4407 Y104.312
G1 X73.9487 Y104.82
G1 X74.0333 Y105.1587
G1 Y105.3703
G1 X73.9487 Y105.709
G0 Z3.0
G0 X73.4407 Y103.677
G0 Z1.2
G1 Z-0.2
G1 X73.102 Y103.7617
G1 X72.8057
G1 X72.5517 Y103.677
G1 X72.0437 Y103.169
G1 X71.959 Y102.8303
G1 Y102.6187
G1 X72.0437 Y102.28
G1 X72.5517 Y101.772
G1 X72.8903 Y101.6873
G1 X73.102
G1 X73.4407 Y101.772
G1 X73.9487 Y102.28
G1 X74.0333 Y102.6187
G1 Y102.8303
G1 X73.9487 Y103.169
G1 X73.4407 Y103.677
G0 Z3.0
G0 X74.5837 Y103.169
G0 Z1.2
G1 Z-0.2
G1 X74.499 Y102.8303
G1 Y102.6187
G1 X74.5837 Y102.28
G1 X75.0917 Y101.772
G1 X75.4303 Y101.6873
G1 X75.642
G1 X75.9807 Y101.772
G1 X76.4887 Y102.28
G1 X76.5733 Y102.6187
G1 Y102.8303
G1 X76.4887 Y103.169
G1 X75.9807 Y103.677
G1 X75.642 Y103.7617
G1 X75.3457
G1 X75.0917 Y103.677
G1 X74.5837 Y103.169
G0 Z3.0
G0 X75.2441 Y101.1878
G0 Z1.2
G1 Z-0.2
G1 X75.0917 Y101.137
G1 X74.5837 Y100.629
G1 X74.499 Y100.2903
G1 Y100.0787
G1 X74.5837 Y99.74
G1 X75.0917 Y99.232
G1 X75.4303 Y99.1473
G1 X75.642
G1 X75.9807 Y99.232
G1 X76.4887 Y99.74
G1 X76.5733 Y100.0787
G1 Y100.2903
G1 X76.4887 Y100.629
G1 X75.9807 Y101.137
G1 X75.642 Y101.2217
G1 X75.3457
G1 X75.2441 Y101.1878
G0 Z3.0
G0 X73.9487 Y100.629
G0 Z1.2
G1 Z-0.2
G1 X73.4407 Y101.137
G1 X73.102 Y101.2217
G1 X72.8057
G1 X72.5517 Y101.137
G1 X72.0437 Y100.629
G1 X71.959 Y100.2903
G1 Y100.0787
G1 X72.0437 Y99.74
G1 X72.5517 Y99.232
G1 X72.8903 Y99.1473
G1 X73.102
G1 X73.4407 Y99.232
G1 X73.9487 Y99.74
G1 X74.0333 Y100.0787
G1 Y100.2903
G1 X73.9487 Y100.629
G0 Z3.0
G0 X73.4407 Y98.597
G0 Z1.2
G1 Z-0.2
G1 X73.102 Y98.6817
G1 X72.8057
G1 X72.5517 Y98.597
G1 X72.0437 Y98.089
G1 X71.959 Y97.7503
G1 Y97.5387
G1 X72.0437 Y97.2
G1 X72.5517 Y96.692
G1 X72.8903 Y96.6073
G1 X73.102
G1 X73.4407 Y96.692
G1 X73.9487 Y97.2
G1 X74.0333 Y97.5387
G1 Y97.7503
G1 X73.9487 Y98.089
G1 X73.4407 Y98.597
G0 Z3.0
G0 X74.5837 Y98.089
G0 Z1.2
G1 Z-0.2
G1 X74.499 Y97.7503
G1 Y97.5387
G1 X74.5837 Y97.2
G1 X75.0917 Y96.692
G1 X75.4303 Y96.6073
G1 X75.642
G1 X75.9807 Y96.692
G1 X76.4887 Y97.2
G1 X76.5733 Y97.5387
G1 Y97.7503
G1 X76.4887 Y98.089
G1 X75.9807 Y98.597
G1 X75.642 Y98.6817
G1 X75.3457
G1 X75.0917 Y98.597
G1 X74.5837 Y98.089
G0 Z3.0
G0 X75.2441 Y96.1078
G0 Z1.2
G1 Z-0.2
G1 X75.0917 Y96.057
G1 X74.5837 Y95.549
G1 X74.499 Y95.2103
G1 Y94.9987
G1 X74.5837 Y94.66
G1 X75.0917 Y94.152
G1 X75.4303 Y94.0673
G1 X75.642
G1 X75.9807 Y94.152
G1 X76.4887 Y94.66
G1 X76.5733 Y94.9987
G1 Y95.2103
G1 X76.4887 Y95.549
G1 X75.9807 Y96.057
G1 X75.642 Y96.1417
G1 X75.3457
G1 X75.2441 Y96.1078
G0 Z3.0
G0 X73.9487 Y95.549
G0 Z1.2
G1 Z-0.2
G1 X73.4407 Y96.057
G1 X73.102 Y96.1417
G1 X72.8057
G1 X72.5517 Y96.057
G1 X72.0437 Y95.549
G1 X71.959 Y95.2103
G1 Y94.9987
G1 X72.0437 Y94.66
G1 X72.5517 Y94.152
G1 X72.8903 Y94.0673
G1 X73.102
G1 X73.4407 Y94.152
G1 X73.9487 Y94.66
G1 X74.0333 Y94.9987
G1 Y95.2103
G1 X73.9487 Y95.549
G0 Z3.0
G0 X73.4407 Y93.517
G0 Z1.2
G1 Z-0.2
G1 X73.102 Y93.6017
G1 X72.8057
G1 X72.5517 Y93.517
G1 X72.0437 Y93.009
G1 X71.959 Y92.6703
G1 Y92.4587
G1 X72.0437 Y92.12
G1 X72.5517 Y91.612
G1 X72.8903 Y91.5273
G1 X73.102
G1 X73.4407 Y91.612
G1 X73.9487 Y92.12
G1 X74.0333 Y92.4587
G1 Y92.6703
G1 X73.9487 Y93.009
G1 X73.4407 Y93.517
G0 Z3.0
G0 X74.5837 Y93.009
G0 Z1.2
G1 Z-0.2
G1 X74.499 Y92.6703
G1 Y92.4587
G1 X74.5837 Y92.12
G1 X75.0917 Y91.612
G1 X75.4303 Y91.5273
G1 X75.642
G1 X75.9807 Y91.612
G1 X76.4887 Y92.12
G1 X76.5733 Y92.4587
G1 Y92.6703
G1 X76.4887 Y93.009
G1 X75.9807 Y93.517
G1 X75.642 Y93.6017
G1 X75.3457
G1 X75.0917 Y93.517
G1 X74.5837 Y93.009
G0 Z3.0
G0 X74.0757 Y91.104
G0 Z1.2
G1 Z-0.2
G1 X71.9167
G1 Y88.945
G1 X74.0757
G1 Y91.104
G0 Z3.0
G0 X74.6472 Y90.5325
G0 Z1.2
G1 Z-0.2
G1 X74.5837 Y90.469
G1 X74.499 Y90.1303
G1 Y89.9187
G1 X74.5837 Y89.58
G1 X75.0917 Y89.072
G1 X75.4303 Y88.9873
G1 X75.642
G1 X75.9807 Y89.072
G1 X76.4887 Y89.58
G1 X76.5733 Y89.9187
G1 Y90.1303
G1 X76.4887 Y90.469
G1 X75.9807 Y90.977
G1 X75.642 Y91.0617
G1 X75.3457
G1 X75.0917 Y90.977
G1 X74.6472 Y90.5325
G0 Z3.0
G0 X71.578
G0 Z1.2
G1 Z-0.2
G1 Y92.9243
G1 X72.0437 Y93.39
G1 X72.1283 Y93.7287
G1 Y93.9403
G1 X72.0437 Y94.279
G1 X71.5357 Y94.787
G1 X71.197 Y94.8717
G1 X70.9007
G1 X70.6467 Y94.787
G1 X70.1387 Y94.279
G1 X70.054 Y93.9403
G1 Y93.7287
G1 X70.1387 Y93.39
G1 X70.6043 Y92.9243
G1 Y85.8547
G1 X70.1387 Y85.389
G1 X70.054 Y85.0503
G1 Y84.8387
G1 X70.1387 Y84.5
G1 X70.6467 Y83.992
G1 X70.9853 Y83.9073
G1 X71.197
G1 X71.5357 Y83.992
G1 X72.0437 Y84.5
G1 X72.1283 Y84.8387
G1 Y85.0503
G1 X72.0437 Y85.389
G1 X71.578 Y85.8547
G1 Y90.5325
G0 Z3.0
G0 X72.685 Y87.2115
G0 Z1.2
G1 Z-0.2
G1 X72.5517 Y87.167
G1 X72.0437 Y86.659
G1 X71.959 Y86.3203
G1 Y86.1087
G1 X72.0437 Y85.77
G1 X72.5517 Y85.262
G1 X72.8903 Y85.1773
G1 X73.102
G1 X73.4407 Y85.262
G1 X73.9487 Y85.77
G1 X74.0333 Y86.1087
G1 Y86.3203
G1 X73.9487 Y86.659
G1 X73.4407 Y87.167
G1 X73.102 Y87.2517
G1 X72.8057
G1 X72.685 Y87.2115
G0 Z3.0
G0 X74.5837 Y86.659
G0 Z1.2
G1 Z-0.2
G1 X74.499 Y86.3203
G1 Y86.1087
G1 X74.5837 Y85.77
G1 X75.0917 Y85.262
G1 X75.4303 Y85.1773
G1 X75.642
G1 X75.9807 Y85.262
G1 X76.4887 Y85.77
G1 X76.5733 Y86.1087
G1 Y86.3203
G1 X76.4887 Y86.659
G1 X75.9807 Y87.167
G1 X75.642 Y87.2517
G1 X75.3457
G1 X75.0917 Y87.167
G1 X74.5837 Y86.659
G0 Z3.0
G0 X75.2441 Y84.6778
G0 Z1.2
G1 Z-0.2
G1 X75.0917 Y84.627
G1 X74.5837 Y84.119
G1 X74.499 Y83.7803
G1 Y83.5687
G1 X74.5837 Y83.23
G1 X75.0917 Y82.722
G1 X75.4303 Y82.6373
G1 X75.642
G1 X75.9807 Y82.722
G1 X76.4887 Y83.23
G1 X76.5733 Y83.5687
G1 Y83.7803
G1 X76.4887 Y84.119
G1 X75.9807 Y84.627
G1 X75.642 Y84.7117
G1 X75.3457
G1 X75.2441 Y84.6778
G0 Z3.0
G0 X73.9487 Y84.119
G0 Z1.2
G1 Z-0.2
G1 X73.4407 Y84.627
G1 X73.102 Y84.7117
G1 X72.8057
G1 X72.5517 Y84.627
G1 X72.0437 Y84.119
G1 X71.959 Y83.7803
G1 Y83.5687
G1 X72.0437 Y83.23
G1 X72.5517 Y82.722
G1 X72.8903 Y82.6373
G1 X73.102
G1 X73.4407 Y82.722
G1 X73.9487 Y83.23
G1 X74.0333 Y83.5687
G1 Y83.7803
G1 X73.9487 Y84.119
G0 Z3.0
G0 X73.4407 Y82.087
G0 Z1.2
G1 Z-0.2
G1 X73.102 Y82.1717
G1 X72.8057
G1 X72.5517 Y82.087
G1 X72.0437 Y81.579
G1 X71.959 Y81.2403
G1 Y81.0287
G1 X72.0437 Y80.69
G1 X72.5517 Y80.182
G1 X72.8903 Y80.0973
G1 X73.102
G1 X73.4407 Y80.182
G1 X73.9487 Y80.69
G1 X74.0333 Y81.0287
G1 Y81.2403
G1 X73.9487 Y81.579
G1 X73.4407 Y82.087
G0 Z3.0
G0 X74.5837 Y81.579
G0 Z1.2
G1 Z-0.2
G1 X74.499 Y81.2403
G1 Y81.0287
G1 X74.5837 Y80.69
G1 X75.0917 Y80.182
G1 X75.4303 Y80.0973
G1 X75.642
G1 X75.9807 Y80.182
G1 X76.4887 Y80.69
G1 X76.5733 Y81.0287
G1 Y81.2403
G1 X76.4887 Y81.579
G1 X75.9807 Y82.087
G1 X75.642 Y82.1717
G1 X75.3457
G1 X75.0917 Y82.087
G1 X74.5837 Y81.579
G0 Z3.0
G0 X75.2441 Y79.5978
G0 Z1.2
G1 Z-0.2
G1 X75.0917 Y79.547
G1 X74.5837 Y79.039
G1 X74.499 Y78.7003
G1 Y78.4887
G1 X74.5837 Y78.15
G1 X75.0917 Y77.642
G1 X75.4303 Y77.5573
G1 X75.642
G1 X75.9807 Y77.642
G1 X76.4887 Y78.15
G1 X76.5733 Y78.4887
G1 Y78.7003
G1 X76.4887 Y79.039
G1 X75.9807 Y79.547
G1 X75.642 Y79.6317
G1 X75.3457
G1 X75.2441 Y79.5978
G0 Z3.0
G0 X73.9487 Y79.039
G0 Z1.2
G1 Z-0.2
G1 X73.4407 Y79.547
G1 X73.102 Y79.6317
G1 X72.8057
G1 X72.5517 Y79.547
G1 X72.0437 Y79.039
G1 X71.959 Y78.7003
G1 Y78.4887
G1 X72.0437 Y78.15
G1 X72.5517 Y77.642
G1 X72.8903 Y77.5573
G1 X73.102
G1 X73.4407 Y77.642
G1 X73.9487 Y78.15
G1 X74.0333 Y78.4887
G1 Y78.7003
G1 X73.9487 Y79.039
G0 Z3.0
G0 X73.4407 Y77.007
G0 Z1.2
G1 Z-0.2
G1 X73.102 Y77.0917
G1 X72.8057
G1 X72.5517 Y77.007
G1 X72.0437 Y76.499
G1 X71.959 Y76.1603
G1 Y75.9487
G1 X72.0437 Y75.61
G1 X72.5517 Y75.102
G1 X72.8903 Y75.0173
G1 X73.102
G1 X73.4407 Y75.102
G1 X73.9487 Y75.61
G1 X74.0333 Y75.9487
G1 Y76.1603
G1 X73.9487 Y76.499
G1 X73.4407 Y77.007
G0 Z3.0
G0 X74.5837 Y76.499
G0 Z1.2
G1 Z-0.2
G1 X74.499 Y76.1603
G1 Y75.9487
G1 X74.5837 Y75.61
G1 X75.0917 Y75.102
G1 X75.4303 Y75.0173
G1 X75.642
G1 X75.9807 Y75.102
G1 X76.4887 Y75.61
G1 X76.5733 Y75.9487
G1 Y76.1603
G1 X76.4887 Y76.499
G1 X75.9807 Y77.007
G1 X75.642 Y77.0917
G1 X75.3457
G1 X75.0917 Y77.007
G1 X74.5837 Y76.499
G0 Z3.0
G0 X75.2441 Y74.5178
G0 Z1.2
G1 Z-0.2
G1 X75.0917 Y74.467
G1 X74.5837 Y73.959
G1 X74.499 Y73.6203
G1 Y73.4087
G1 X74.5837 Y73.07
G1 X75.0917 Y72.562
G1 X75.4303 Y72.4773
G1 X75.642
G1 X75.9807 Y72.562
G1 X76.4887 Y73.07
G1 X76.5733 Y73.4087
G1 Y73.6203
G1 X76.4887 Y73.959
G1 X75.9807 Y74.467
G1 X75.642 Y74.5517
G1 X75.3457
G1 X75.2441 Y74.5178
G0 Z3.0
G0 X73.9487 Y73.959
G0 Z1.2
G1 Z-0.2
G1 X73.4407 Y74.467
G1 X73.102 Y74.5517
G1 X72.8057
G1 X72.5517 Y74.467
G1 X72.0437 Y73.959
G1 X71.959 Y73.6203
G1 Y73.4087
G1 X72.0437 Y73.07
G1 X72.5517 Y72.562
G1 X72.8903 Y72.4773
G1 X73.102
G1 X73.4407 Y72.562
G1 X73.9487 Y73.07
G1 X74.0333 Y73.4087
G1 Y73.6203
G1 X73.9487 Y73.959
G0 Z3.0
G0 X73.4407 Y71.927
G0 Z1.2
G1 Z-0.2
G1 X73.102 Y72.0117
G1 X72.8057
G1 X72.5517 Y71.927
G1 X72.0437 Y71.419
G1 X71.959 Y71.0803
G1 Y70.8687
G1 X72.0437 Y70.53
G1 X72.5517 Y70.022
G1 X72.8903 Y69.9373
G1 X73.102
G1 X73.4407 Y70.022
G1 X73.9487 Y70.53
G1 X74.0333 Y70.8687
G1 Y71.0803
G1 X73.9487 Y71.419
G1 X73.4407 Y71.927
G0 Z3.0
G0 X74.5837 Y71.419
G0 Z1.2
G1 Z-0.2
G1 X74.499 Y71.0803
G1 Y70.8687
G1 X74.5837 Y70.53
G1 X75.0917 Y70.022
G1 X75.4303 Y69.9373
G1 X75.642
G1 X75.9807 Y70.022
G1 X76.4887 Y70.53
G1 X76.5733 Y70.8687
G1 Y71.0803
G1 X76.4887 Y71.419
G1 X75.9807 Y71.927
G1 X75.642 Y72.0117
G1 X75.3457
G1 X75.0917 Y71.927
G1 X74.5837 Y71.419
G0 Z3.0
G0 X74.0757 Y69.514
G0 Z1.2
G1 Z-0.2
G1 X71.9167
G1 Y67.355
G1 X74.0757
G1 Y69.514
G0 Z3.0
G0 X74.6472 Y68.9425
G0 Z1.2
G1 Z-0.2
G1 X74.5837 Y68.879
G1 X74.499 Y68.5403
G1 Y68.3287
G1 X74.5837 Y67.99
G1 X75.0917 Y67.482
G1 X75.4303 Y67.3973
G1 X75.642
G1 X75.9807 Y67.482
G1 X76.4887 Y67.99
G1 X76.5733 Y68.3287
G1 Y68.5403
G1 X76.4887 Y68.879
G1 X75.9807 Y69.387
G1 X75.642 Y69.4717
G1 X75.3457
G1 X75.0917 Y69.387
G1 X74.6472 Y68.9425
G0 Z3.0
G0 X72.2553 Y64.0953
G0 Z1.2
G1 Z-0.2
G1 X56.3803 Y64.1377
G1 X53.163 Y67.3127
G1 Y71.3343
G1 X53.6287 Y71.8
G1 X53.7133 Y72.1387
G1 Y72.3503
G1 X53.6287 Y72.689
G1 X53.163 Y73.1547
G1 Y95.4643
G1 X53.6287 Y95.93
G1 X53.7133 Y96.2687
G1 Y96.4803
G1 X53.6287 Y96.819
G1 X53.163 Y97.2847
G1 Y117.0543
G1 X53.6287 Y117.52
G1 X53.7133 Y117.8587
G1 Y118.0703
G1 X53.6287 Y118.409
G1 X53.163 Y118.8747
G1 Y124.6743
G1 X53.6287 Y125.14
G1 X53.7133 Y125.4787
G1 Y125.6903
G1 X53.6287 Y126.029
G1 X53.1207 Y126.537
G1 X52.782 Y126.6217
G1 X52.4857
G1 X52.2317 Y126.537
G1 X51.7237 Y126.029
G1 X51.639 Y125.6903
G1 Y125.4787
G1 X51.7237 Y125.14
G1 X52.1893 Y124.6743
G1 Y118.8747
G1 X51.7237 Y118.409
G1 X51.639 Y118.0703
G1 Y117.8587
G1 X51.7237 Y117.52
G1 X52.1893 Y117.0543
G1 Y97.2847
G1 X51.7237 Y96.819
G1 X51.639 Y96.4803
G1 Y96.2687
G1 X51.7237 Y95.93
G1 X52.1893 Y95.4643
G1 Y73.1547
G1 X51.7237 Y72.689
G1 X51.639 Y72.3503
G1 Y72.1387
G1 X51.7237 Y71.8
G1 X52.1893 Y71.3343
G1 X52.2317 Y66.974
G1 X55.9993 Y63.2063
G1 X71.8743 Y63.164
G1 X73.4407 Y61.64
G1 X75.896 Y61.5977
G1 X76.3617 Y61.132
G1 X76.7427 Y61.0473
G1 X77.1237 Y61.0897
G1 X78.5207 Y59.735
G1 X92.4907 Y59.6927
G1 X92.8293 Y59.3963
G1 Y54.6127
G1 X91.8557 Y53.6813
G1 X89.7813
G1 X89.3157 Y54.147
G1 X88.977 Y54.2317
G1 X88.7653
G1 X88.4267 Y54.147
G1 X87.961 Y53.6813
G1 X78.5207 Y53.639
G1 X77.42 Y52.5807
G1 X76.3617 Y53.639
G1 X68.3607
G1 X67.3023 Y52.5807
G1 X66.2017 Y53.639
G1 X56.7613 Y53.6813
G1 X56.2957 Y54.147
G1 X55.957 Y54.2317
G1 X55.7453
G1 X55.4067 Y54.147
G1 X54.941 Y53.6813
G1 X51.8507 Y53.639
G1 X50.3267 Y52.115
G1 Y37.129
G1 X51.258 Y36.1553
G1 X51.3003 Y33.6153
G1 X52.4857 Y32.43
G1 X54.941 Y32.3877
G1 X55.4067 Y31.922
G1 X55.7453 Y31.8373
G1 X55.957
G1 X56.2957 Y31.922
G1 X56.7613 Y32.3877
G1 X65.8207
G1 X67.0907 Y31.16
G1 X67.4717
G1 X68.7417 Y32.3877
G1 X75.9807
G1 X77.2507 Y31.16
G1 X77.6317
G1 X78.9017 Y32.3877
G1 X87.961
G1 X88.4267 Y31.922
G1 X88.7653 Y31.8373
G1 X88.977
G1 X89.3157 Y31.922
G1 X89.8237 Y32.43
G1 X89.9083 Y32.7687
G1 Y32.9803
G1 X89.8237 Y33.319
G1 X89.3157 Y33.827
G1 X88.977 Y33.9117
G1 X88.7653
G1 X88.4267 Y33.827
G1 X87.961 Y33.3613
G1 X78.5207 Y33.319
G1 X77.42 Y32.2607
G1 X76.3617 Y33.319
G1 X68.3607
G1 X67.3023 Y32.2607
G1 X66.2017 Y33.319
G1 X56.7613 Y33.3613
G1 X56.2957 Y33.827
G1 X55.957 Y33.9117
G1 X55.7453
G1 X55.4067 Y33.827
G1 X54.941 Y33.3613
G1 X52.8243
G1 X52.2317 Y33.9963
G1 X52.1893 Y36.5363
G1 X51.258 Y37.51
G1 Y51.7763
G1 X52.2317 Y52.7077
G1 X54.941
G1 X55.4067 Y52.242
G1 X55.7453 Y52.1573
G1 X55.957
G1 X56.2957 Y52.242
G1 X56.7613 Y52.7077
G1 X65.8207
G1 X67.0907 Y51.48
G1 X67.4717
G1 X68.7417 Y52.7077
G1 X75.9807
G1 X77.2507 Y51.48
G1 X77.6317
G1 X78.9017 Y52.7077
G1 X87.961
G1 X88.4267 Y52.242
G1 X88.7653 Y52.1573
G1 X88.977
G1 X89.3157 Y52.242
G1 X89.7813 Y52.7077
G1 X92.2367 Y52.75
G1 X93.7607 Y54.274
G1 Y59.735
G1 X92.8717 Y60.624
G1 X78.9017 Y60.6663
G1 X77.801 Y61.7247
G1 X77.8433 Y62.148
G1 X77.7587 Y62.529
G1 X77.2507 Y63.037
G1 X76.912 Y63.1217
G1 X76.7003
G1 X76.3617 Y63.037
G1 X75.896 Y62.5713
G1 X73.8217
G1 X72.2553 Y64.0953
G0 Z3.0
G0 X71.197 Y59.3117
G0 Z1.2
G1 Z-0.2
G1 X70.9007
G1 X70.6467 Y59.227
G1 X70.1387 Y58.719
G1 X70.054 Y58.3803
G1 Y58.1687
G1 X70.1387 Y57.83
G1 X70.6467 Y57.322
G1 X70.9853 Y57.2373
G1 X71.197
G1 X71.5357 Y57.322
G1 X72.0437 Y57.83
G1 X72.1283 Y58.1687
G1 Y58.3803
G1 X72.0437 Y58.719
G1 X71.5357 Y59.227
G1 X71.197 Y59.3117
G0 Z3.0
G0 X72.6787 Y58.719
G0 Z1.2
G1 Z-0.2
G1 X72.594 Y58.3803
G1 Y58.1687
G1 X72.6787 Y57.83
G1 X73.1867 Y57.322
G1 X73.5253 Y57.2373
G1 X73.737
G1 X74.0757 Y57.322
G1 X74.5837 Y57.83
G1 X74.6683 Y58.1687
G1 Y58.3803
G1 X74.5837 Y58.719
G1 X74.0757 Y59.227
G1 X73.737 Y59.3117
G1 X73.4407
G1 X73.1867 Y59.227
G1 X72.6787 Y58.719
G0 Z3.0
G0 X75.134 Y58.3803
G0 Z1.2
G1 Z-0.2
G1 Y58.1687
G1 X75.2187 Y57.83
G1 X75.7267 Y57.322
G1 X76.0653 Y57.2373
G1 X76.277
G1 X76.6157 Y57.322
G1 X77.1237 Y57.83
G1 X77.2083 Y58.1687
G1 Y58.3803
G1 X77.1237 Y58.719
G1 X76.6157 Y59.227
G1 X76.277 Y59.3117
G1 X75.9807
G1 X75.7267 Y59.227
G1 X75.2187 Y58.719
G1 X75.134 Y58.3803
G0 Z3.0
G0 X76.6219 Y56.8412
G0 Z1.2
G1 Z-0.2
G1 X75.9807 Y56.2213
G1 X68.7417
G1 X67.4717 Y57.449
G1 X67.1753 Y57.4913
G1 X67.006 Y57.4067
G1 X65.863 Y56.2213
G1 X54.2213
G1 X53.7557 Y56.687
G1 X53.417 Y56.7717
G1 X53.2053
G1 X52.8667 Y56.687
G1 X52.3587 Y56.179
G1 X52.274 Y55.8403
G1 Y55.6287
G1 X52.3587 Y55.29
G1 X52.8667 Y54.782
G1 X53.2053 Y54.6973
G1 X53.417
G1 X53.7557 Y54.782
G1 X54.2213 Y55.2477
G1 X66.2017 Y55.29
G1 X67.26 Y56.3483
G1 X68.3607 Y55.29
G1 X76.3617
G1 X77.4623 Y56.3483
G1 X78.5207 Y55.29
G1 X90.501 Y55.2477
G1 X90.9667 Y54.782
G1 X91.3053 Y54.6973
G1 X91.517
G1 X91.8557 Y54.782
G1 X92.3637 Y55.29
G1 X92.4483 Y55.6287
G1 Y55.8403
G1 X92.3637 Y56.179
G1 X91.8557 Y56.687
G1 X91.517 Y56.7717
G1 X91.3053
G1 X90.9667 Y56.687
G1 X90.501 Y56.2213
G1 X78.9017
G1 X77.6317 Y57.449
G1 X77.2507
G1 X76.6219 Y56.8412
G0 Z3.0
G0 X76.9967 Y55.417
G0 Z1.2
G1 Z-0.2
G1 X76.531 Y54.9513
G1 X68.1913
G1 X67.7257 Y55.417
G1 X67.387 Y55.5017
G1 X67.0907
G1 X66.8367 Y55.417
G1 X66.3287 Y54.909
G1 X66.244 Y54.5703
G1 Y54.3587
G1 X66.3287 Y54.02
G1 X66.8367 Y53.512
G1 X67.1753 Y53.4273
G1 X67.387
G1 X67.7257 Y53.512
G1 X68.1913 Y53.9777
G1 X76.531
G1 X76.9967 Y53.512
G1 X77.3353 Y53.4273
G1 X77.547
G1 X77.8857 Y53.512
G1 X78.3937 Y54.02
G1 X78.4783 Y54.3587
G1 Y54.5703
G1 X78.3937 Y54.909
G1 X77.8857 Y55.417
G1 X77.547 Y55.5017
G1 X77.3353
G1 X76.9967 Y55.417
G0 Z3.0
G0 X78.2667 Y57.322
G0 Z1.2
G1 Z-0.2
G1 X78.6053 Y57.2373
G1 X78.817
G1 X79.1557 Y57.322
G1 X79.6637 Y57.83
G1 X79.7483 Y58.1687
G1 Y58.3803
G1 X79.6637 Y58.719
G1 X79.1557 Y59.227
G1 X78.817 Y59.3117
G1 X78.5207
G1 X78.2667 Y59.227
G1 X77.7587 Y58.719
G1 X77.674 Y58.3803
G1 Y58.1687
G1 X77.7587 Y57.83
G1 X78.2667 Y57.322
G0 Z3.0
G0 X80.2987 Y57.83
G0 Z1.2
G1 Z-0.2
G1 X80.8067 Y57.322
G1 X81.1453 Y57.2373
G1 X81.357
G1 X81.6957 Y57.322
G1 X82.2037 Y57.83
G1 X82.2883 Y58.1687
G1 Y58.3803
G1 X82.2037 Y58.719
G1 X81.6957 Y59.227
G1 X81.357 Y59.3117
G1 X81.0607
G1 X80.8067 Y59.227
G1 X80.2987 Y58.719
G1 X80.214 Y58.3803
G1 Y58.1687
G1 X80.2987 Y57.83
G0 Z3.0
G0 X82.754 Y58.1687
G0 Z1.2
G1 Z-0.2
G1 X82.8387 Y57.83
G1 X83.3467 Y57.322
G1 X83.6853 Y57.2373
G1 X83.897
G1 X84.2357 Y57.322
G1 X84.7437 Y57.83
G1 X84.8283 Y58.1687
G1 Y58.3803
G1 X84.7437 Y58.719
G1 X84.2357 Y59.227
G1 X83.897 Y59.3117
G1 X83.6007
G1 X83.3467 Y59.227
G1 X82.8387 Y58.719
G1 X82.754 Y58.3803
G1 Y58.1687
G0 Z3.0
G0 X85.294
G0 Z1.2
G1 Z-0.2
G1 X85.3787 Y57.83
G1 X85.8867 Y57.322
G1 X86.2253 Y57.2373
G1 X86.437
G1 X86.7757 Y57.322
G1 X87.2837 Y57.83
G1 X87.3683 Y58.1687
G1 Y58.3803
G1 X87.2837 Y58.719
G1 X86.7757 Y59.227
G1 X86.437 Y59.3117
G1 X86.1407
G1 X85.8867 Y59.227
G1 X85.3787 Y58.719
G1 X85.294 Y58.3803
G1 Y58.1687
G0 Z3.0
G0 X87.834
G0 Z1.2
G1 Z-0.2
G1 X87.9187 Y57.83
G1 X88.4267 Y57.322
G1 X88.7653 Y57.2373
G1 X88.977
G1 X89.3157 Y57.322
G1 X89.8237 Y57.83
G1 X89.9083 Y58.1687
G1 Y58.3803
G1 X89.8237 Y58.719
G1 X89.3157 Y59.227
G1 X88.977 Y59.3117
G1 X88.6807
G1 X88.4267 Y59.227
G1 X87.9187 Y58.719
G1 X87.834 Y58.3803
G1 Y58.1687
G0 Z3.0
G0 X90.3317
G0 Z1.2
G1 Z-0.2
G1 Y57.195
G1 X92.4907
G1 Y59.354
G1 X90.3317
G1 Y58.1687
G0 Z3.0
G0 X96.0043
G0 Z1.2
G1 Z-0.2
G1 Y55.3747
G1 X95.5387 Y54.909
G1 X95.454 Y54.5703
G1 Y54.3587
G1 X95.5387 Y54.02
G1 X96.0043 Y53.5543
G1 Y35.0547
G1 X95.5387 Y34.589
G1 X95.454 Y34.2503
G1 Y34.0387
G1 X95.5387 Y33.7
G1 X96.0467 Y33.192
G1 X96.3853 Y33.1073
G1 X96.597
G1 X96.9357 Y33.192
G1 X97.4437 Y33.7
G1 X97.5283 Y34.0387
G1 Y34.2503
G1 X97.4437 Y34.589
G1 X96.978 Y35.0547
G1 Y53.5543
G1 X97.4437 Y54.02
G1 X97.5283 Y54.3587
G1 Y54.5703
G1 X97.4437 Y54.909
G1 X96.978 Y55.3747
G1 X96.9357 Y61.005
G1 X92.2367 Y65.704
G1 X81.4417 Y65.7463
G1 X81.103 Y66.0427
G1 Y129.1193
G1 X81.5687 Y129.585
G1 X81.6533 Y129.9237
G1 Y130.1353
G1 X81.5687 Y130.474
G1 X81.0607 Y130.982
G1 X80.722 Y131.0667
G1 X80.4257
G1 X80.1717 Y130.982
G1 X79.6637 Y130.474
G1 X79.579 Y130.1353
G1 Y129.9237
G1 X79.6637 Y129.585
G1 X80.1293 Y129.1193
G1 X80.1717 Y65.704
G1 X81.0607 Y64.815
G1 X91.8557 Y64.7727
G1 X96.0043 Y60.6663
G1 Y58.1687
G0 Z3.0
G0 X97.359
G0 Z1.2
G1 Z-0.2
G1 X97.4437 Y57.83
G1 X97.9517 Y57.322
G1 X98.2903 Y57.2373
G1 X98.502
G1 X98.8407 Y57.322
G1 X99.3487 Y57.83
G1 X99.4333 Y58.1687
G1 Y58.3803
G1 X99.3487 Y58.719
G1 X98.8407 Y59.227
G1 X98.502 Y59.3117
G1 X98.2057
G1 X97.9517 Y59.227
G1 X97.4437 Y58.719
G1 X97.359 Y58.3803
G1 Y58.1687
G0 Z3.0
G0 X97.9517 Y56.687
G0 Z1.2
G1 Z-0.2
G1 X97.4437 Y56.179
G1 X97.359 Y55.8403
G1 Y55.6287
G1 X97.4437 Y55.29
G1 X97.9517 Y54.782
G1 X98.2903 Y54.6973
G1 X98.502
G1 X98.8407 Y54.782
G1 X99.3487 Y55.29
G1 X99.4333 Y55.6287
G1 Y55.8403
G1 X99.3487 Y56.179
G1 X98.8407 Y56.687
G1 X98.502 Y56.7717
G1 X98.2057
G1 X97.9517 Y56.687
G0 Z3.0
G0 X99.899
G0 Z1.2
G1 Z-0.2
G1 Y54.6973
G1 X101.9733
G1 Y56.7717
G1 X99.899
G1 Y56.687
G0 Z3.0
G0 Y57.2373
G0 Z1.2
G1 Z-0.2
G1 X101.9733
G1 Y59.3117
G1 X99.899
G1 Y57.2373
G0 Z3.0
G0 Y59.7773
G0 Z1.2
G1 Z-0.2
G1 X101.9733
G1 Y61.8517
G1 X99.899
G1 Y59.7773
G0 Z3.0
G0 X99.3275 Y60.3488
G0 Z1.2
G1 Z-0.2
G1 X99.3487 Y60.37
G1 X99.4333 Y60.7087
G1 Y60.9203
G1 X99.3487 Y61.259
G1 X98.8407 Y61.767
G1 X98.502 Y61.8517
G1 X98.2057
G1 X97.9517 Y61.767
G1 X97.4437 Y61.259
G1 X97.359 Y60.9203
G1 Y60.7087
G1 X97.4437 Y60.37
G1 X97.9517 Y59.862
G1 X98.2903 Y59.7773
G1 X98.502
G1 X98.8407 Y59.862
G1 X99.3275 Y60.3488
G0 Z3.0
G0 X99.899 Y62.3173
G0 Z1.2
G1 Z-0.2
G1 X101.9733
G1 Y64.3917
G1 X99.899
G1 Y62.3173
G0 Z3.0
G0 X99.3275 Y62.8888
G0 Z1.2
G1 Z-0.2
G1 X99.3487 Y62.91
G1 X99.4333 Y63.2487
G1 Y63.4603
G1 X99.3487 Y63.799
G1 X98.8407 Y64.307
G1 X98.502 Y64.3917
G1 X98.2057
G1 X97.9517 Y64.307
G1 X97.4437 Y63.799
G1 X97.359 Y63.4603
G1 Y63.2487
G1 X97.4437 Y62.91
G1 X97.9517 Y62.402
G1 X98.2903 Y62.3173
G1 X98.502
G1 X98.8407 Y62.402
G1 X99.3275 Y62.8888
G0 Z3.0
G0 X105.3177 Y68.2017
G0 Z1.2
G1 Z-0.2
G1 X105.9527 Y67.609
G1 X106.4607 Y67.3127
G1 X107.011 Y67.101
G1 X107.646 Y66.974
G1 X108.1963
G1 X108.8313 Y67.101
G1 X109.3817 Y67.3127
G1 X109.8897 Y67.609
G1 X110.5247 Y68.2017
G1 X110.9057 Y68.7943
G1 X111.1597 Y69.4293
G1 X111.2867 Y70.0643
G1 Y70.6147
G1 X111.1597 Y71.2497
G1 X110.9057 Y71.8847
G1 X110.5247 Y72.4773
G1 X109.8897 Y73.07
G1 X109.3817 Y73.3663
G1 X108.8313 Y73.578
G1 X108.1963 Y73.705
G1 X107.5613
G1 X107.011 Y73.578
G1 X106.4607 Y73.3663
G1 X105.9527 Y73.07
G1 X105.3177 Y72.4773
G1 X104.9367 Y71.8847
G1 X104.6827 Y71.2497
G1 X104.5557 Y70.6147
G1 Y70.0643
G1 X104.6827 Y69.4293
G1 X104.9367 Y68.7943
G1 X105.3177 Y68.2017
G0 Z3.0
G0 X110.1437 Y63.799
G0 Z1.2
G1 Z-0.2
G1 X110.059 Y63.4603
G1 Y63.2487
G1 X110.1437 Y62.91
G1 X110.6517 Y62.402
G1 X110.9903 Y62.3173
G1 X111.202
G1 X111.5407 Y62.402
G1 X112.0487 Y62.91
G1 X112.1333 Y63.2487
G1 Y63.4603
G1 X112.0487 Y63.799
G1 X111.5407 Y64.307
G1 X111.202 Y64.3917
G1 X110.9057
G1 X110.6517 Y64.307
G1 X110.1437 Y63.799
G0 Z3.0
G0 X110.8041 Y61.8178
G0 Z1.2
G1 Z-0.2
G1 X110.6517 Y61.767
G1 X110.1437 Y61.259
G1 X110.059 Y60.9203
G1 Y60.7087
G1 X110.1437 Y60.37
G1 X110.6517 Y59.862
G1 X110.9903 Y59.7773
G1 X111.202
G1 X111.5407 Y59.862
G1 X112.0487 Y60.37
G1 X112.1333 Y60.7087
G1 Y60.9203
G1 X112.0487 Y61.259
G1 X111.5407 Y61.767
G1 X111.202 Y61.8517
G1 X110.9057
G1 X110.8041 Y61.8178
G0 Z3.0
G0 X110.9057 Y59.3117
G0 Z1.2
G1 Z-0.2
G1 X110.6517 Y59.227
G1 X110.1437 Y58.719
G1 X110.059 Y58.3803
G1 Y58.1687
G1 X110.1437 Y57.83
G1 X110.6517 Y57.322
G1 X110.9903 Y57.2373
G1 X111.202
G1 X111.5407 Y57.322
G1 X112.0487 Y57.83
G1 X112.1333 Y58.1687
G1 Y58.3803
G1 X112.0487 Y58.719
G1 X111.5407 Y59.227
G1 X111.202 Y59.3117
G1 X110.9057
G0 Z3.0
G0 Y56.7717
G0 Z1.2
G1 Z-0.2
G1 X110.6517 Y56.687
G1 X110.1437 Y56.179
G1 X110.059 Y55.8403
G1 Y55.6287
G1 X110.1437 Y55.29
G1 X110.6517 Y54.782
G1 X110.9903 Y54.6973
G1 X111.202
G1 X111.5407 Y54.782
G1 X112.0487 Y55.29
G1 X112.1333 Y55.6287
G1 Y55.8403
G1 X112.0487 Y56.179
G1 X111.5407 Y56.687
G1 X111.202 Y56.7717
G1 X110.9057
G0 Z3.0
G0 Y54.2317
G0 Z1.2
G1 Z-0.2
G1 X110.6517 Y54.147
G1 X110.1437 Y53.639
G1 X110.059 Y53.3003
G1 Y53.0887
G1 X110.1437 Y52.75
G1 X110.6517 Y52.242
G1 X110.9903 Y52.1573
G1 X111.202
G1 X111.5407 Y52.242
G1 X112.0487 Y52.75
G1 X112.1333 Y53.0887
G1 Y53.3003
G1 X112.0487 Y53.639
G1 X111.5407 Y54.147
G1 X111.202 Y54.2317
G1 X110.9057
G0 Z3.0
G0 Y51.6917
G0 Z1.2
G1 Z-0.2
G1 X110.6517 Y51.607
G1 X110.1437 Y51.099
G1 X110.059 Y50.7603
G1 Y50.5487
G1 X110.1437 Y50.21
G1 X110.6517 Y49.702
G1 X110.9903 Y49.6173
G1 X111.202
G1 X111.5407 Y49.702
G1 X112.0487 Y50.21
G1 X112.1333 Y50.5487
G1 Y50.7603
G1 X112.0487 Y51.099
G1 X111.5407 Y51.607
G1 X111.202 Y51.6917
G1 X110.9057
G0 Z3.0
G0 Y49.1517
G0 Z1.2
G1 Z-0.2
G1 X110.6517 Y49.067
G1 X110.1437 Y48.559
G1 X110.059 Y48.2203
G1 Y48.0087
G1 X110.1437 Y47.67
G1 X110.6517 Y47.162
G1 X110.9903 Y47.0773
G1 X111.202
G1 X111.5407 Y47.162
G1 X112.0487 Y47.67
G1 X112.1333 Y48.0087
G1 Y48.2203
G1 X112.0487 Y48.559
G1 X111.5407 Y49.067
G1 X111.202 Y49.1517
G1 X110.9057
G0 Z3.0
G0 Y46.6117
G0 Z1.2
G1 Z-0.2
G1 X110.6517 Y46.527
G1 X110.1437 Y46.019
G1 X110.059 Y45.6803
G1 Y45.4687
G1 X110.1437 Y45.13
G1 X110.6517 Y44.622
G1 X110.9903 Y44.5373
G1 X111.202
G1 X111.5407 Y44.622
G1 X112.0487 Y45.13
G1 X112.1333 Y45.4687
G1 Y45.6803
G1 X112.0487 Y46.019
G1 X111.5407 Y46.527
G1 X111.202 Y46.6117
G1 X110.9057
G0 Z3.0
G0 Y44.0717
G0 Z1.2
G1 Z-0.2
G1 X110.6517 Y43.987
G1 X110.1437 Y43.479
G1 X110.059 Y43.1403
G1 Y42.9287
G1 X110.1437 Y42.59
G1 X110.6517 Y42.082
G1 X110.9903 Y41.9973
G1 X111.202
G1 X111.5407 Y42.082
G1 X112.0487 Y42.59
G1 X112.1333 Y42.9287
G1 Y43.1403
G1 X112.0487 Y43.479
G1 X111.5407 Y43.987
G1 X111.202 Y44.0717
G1 X110.9057
G0 Z3.0
G0 Y41.5317
G0 Z1.2
G1 Z-0.2
G1 X110.6517 Y41.447
G1 X110.1437 Y40.939
G1 X110.059 Y40.6003
G1 Y40.3887
G1 X110.1437 Y40.05
G1 X110.6517 Y39.542
G1 X110.9903 Y39.4573
G1 X111.202
G1 X111.5407 Y39.542
G1 X112.0487 Y40.05
G1 X112.1333 Y40.3887
G1 Y40.6003
G1 X112.0487 Y40.939
G1 X111.5407 Y41.447
G1 X111.202 Y41.5317
G1 X110.9057
G0 Z3.0
G0 Y38.9917
G0 Z1.2
G1 Z-0.2
G1 X110.6517 Y38.907
G1 X110.1437 Y38.399
G1 X110.059 Y38.0603
G1 Y37.8487
G1 X110.1437 Y37.51
G1 X110.6517 Y37.002
G1 X110.9903 Y36.9173
G1 X111.202
G1 X111.5407 Y37.002
G1 X112.0487 Y37.51
G1 X112.1333 Y37.8487
G1 Y38.0603
G1 X112.0487 Y38.399
G1 X111.5407 Y38.907
G1 X111.202 Y38.9917
G1 X110.9057
G0 Z3.0
G0 Y36.4517
G0 Z1.2
G1 Z-0.2
G1 X110.6517 Y36.367
G1 X110.1437 Y35.859
G1 X110.059 Y35.5203
G1 Y35.3087
G1 X110.1437 Y34.97
G1 X110.6517 Y34.462
G1 X110.9903 Y34.3773
G1 X111.202
G1 X111.5407 Y34.462
G1 X112.0487 Y34.97
G1 X112.1333 Y35.3087
G1 Y35.5203
G1 X112.0487 Y35.859
G1 X111.5407 Y36.367
G1 X111.202 Y36.4517
G1 X110.9057
G0 Z3.0
G0 Y33.9117
G0 Z1.2
G1 Z-0.2
G1 X110.6517 Y33.827
G1 X110.1437 Y33.319
G1 X110.059 Y32.9803
G1 Y32.7687
G1 X110.1437 Y32.43
G1 X110.6517 Y31.922
G1 X110.9903 Y31.8373
G1 X111.202
G1 X111.5407 Y31.922
G1 X112.0487 Y32.43
G1 X112.1333 Y32.7687
G1 Y32.9803
G1 X112.0487 Y33.319
G1 X111.5407 Y33.827
G1 X111.202 Y33.9117
G1 X110.9057
G0 Z3.0
G0 Y31.3717
G0 Z1.2
G1 Z-0.2
G1 X110.6517 Y31.287
G1 X110.1437 Y30.779
G1 X110.059 Y30.4403
G1 Y30.2287
G1 X110.1437 Y29.89
G1 X110.6517 Y29.382
G1 X110.9903 Y29.2973
G1 X111.202
G1 X111.5407 Y29.382
G1 X112.0487 Y29.89
G1 X112.1333 Y30.2287
G1 Y30.4403
G1 X112.0487 Y30.779
G1 X111.5407 Y31.287
G1 X111.202 Y31.3717
G1 X110.9057
G0 Z3.0
G0 Y28.8317
G0 Z1.2
G1 Z-0.2
G1 X110.6517 Y28.747
G1 X110.1437 Y28.239
G1 X110.059 Y27.9003
G1 Y27.6887
G1 X110.1437 Y27.35
G1 X110.6517 Y26.842
G1 X110.9903 Y26.7573
G1 X111.202
G1 X111.5407 Y26.842
G1 X112.0487 Y27.35
G1 X112.1333 Y27.6887
G1 Y27.9003
G1 X112.0487 Y28.239
G1 X111.5407 Y28.747
G1 X111.202 Y28.8317
G1 X110.9057
G0 Z3.0
G0 Y26.2917
G0 Z1.2
G1 Z-0.2
G1 X110.6517 Y26.207
G1 X110.1437 Y25.699
G1 X110.059 Y25.3603
G1 Y25.1487
G1 X110.1437 Y24.81
G1 X110.6517 Y24.302
G1 X110.9903 Y24.2173
G1 X111.202
G1 X111.5407 Y24.302
G1 X112.0487 Y24.81
G1 X112.1333 Y25.1487
G1 Y25.3603
G1 X112.0487 Y25.699
G1 X111.5407 Y26.207
G1 X111.202 Y26.2917
G1 X110.9057
G0 Z3.0
G0 X101.9733
G0 Z1.2
G1 Z-0.2
G1 X99.899
G1 Y24.2173
G1 X101.9733
G1 Y26.2917
G0 Z3.0
G0 Y26.7573
G0 Z1.2
G1 Z-0.2
G1 Y28.8317
G1 X99.899
G1 Y26.7573
G1 X101.9733
G0 Z3.0
G0 X99.4757 Y26.334
G0 Z1.2
G1 Z-0.2
G1 X97.3167
G1 Y24.175
G1 X99.4757
G1 Y26.334
G0 Z3.0
G0 X98.9042 Y26.9055
G0 Z1.2
G1 Z-0.2
G1 X99.3487 Y27.35
G1 X99.4333 Y27.6887
G1 Y27.9003
G1 X99.3487 Y28.239
G1 X98.8407 Y28.747
G1 X98.502 Y28.8317
G1 X98.2057
G1 X97.9517 Y28.747
G1 X97.4437 Y28.239
G1 X97.359 Y27.9003
G1 Y27.6887
G1 X97.4437 Y27.35
G1 X97.9517 Y26.842
G1 X98.2903 Y26.7573
G1 X98.502
G1 X98.8407 Y26.842
G1 X98.9042 Y26.9055
G0 Z3.0
G0 X98.502 Y29.2973
G0 Z1.2
G1 Z-0.2
G1 X98.8407 Y29.382
G1 X99.3487 Y29.89
G1 X99.4333 Y30.2287
G1 Y30.4403
G1 X99.3487 Y30.779
G1 X98.8407 Y31.287
G1 X98.502 Y31.3717
G1 X98.2057
G1 X97.9517 Y31.287
G1 X97.4437 Y30.779
G1 X97.359 Y30.4403
G1 Y30.2287
G1 X97.4437 Y29.89
G1 X97.9517 Y29.382
G1 X98.2903 Y29.2973
G1 X98.502
G0 Z3.0
G0 X99.899
G0 Z1.2
G1 Z-0.2
G1 X101.9733
G1 Y31.3717
G1 X99.899
G1 Y29.2973
G0 Z3.0
G0 Y31.8373
G0 Z1.2
G1 Z-0.2
G1 X101.9733
G1 Y33.9117
G1 X99.899
G1 Y31.8373
G0 Z3.0
G0 X99.3275 Y32.4088
G0 Z1.2
G1 Z-0.2
G1 X99.3487 Y32.43
G1 X99.4333 Y32.7687
G1 Y32.9803
G1 X99.3487 Y33.319
G1 X98.8407 Y33.827
G1 X98.502 Y33.9117
G1 X98.2057
G1 X97.9517 Y33.827
G1 X97.4437 Y33.319
G1 X97.359 Y32.9803
G1 Y32.7687
G1 X97.4437 Y32.43
G1 X97.9517 Y31.922
G1 X98.2903 Y31.8373
G1 X98.502
G1 X98.8407 Y31.922
G1 X99.3275 Y32.4088
G0 Z3.0
G0 X99.899 Y34.3773
G0 Z1.2
G1 Z-0.2
G1 X101.9733
G1 Y36.4517
G1 X99.899
G1 Y34.3773
G0 Z3.0
G0 X99.3275 Y34.9488
G0 Z1.2
G1 Z-0.2
G1 X99.3487 Y34.97
G1 X99.4333 Y35.3087
G1 Y35.5203
G1 X99.3487 Y35.859
G1 X98.8407 Y36.367
G1 X98.502 Y36.4517
G1 X98.2057
G1 X97.9517 Y36.367
G1 X97.4437 Y35.859
G1 X97.359 Y35.5203
G1 Y35.3087
G1 X97.4437 Y34.97
G1 X97.9517 Y34.462
G1 X98.2903 Y34.3773
G1 X98.502
G1 X98.8407 Y34.462
G1 X99.3275 Y34.9488
G0 Z3.0
G0 X99.899 Y36.9173
G0 Z1.2
G1 Z-0.2
G1 X101.9733
G1 Y38.9917
G1 X99.899
G1 Y36.9173
G0 Z3.0
G0 X99.3275 Y37.4888
G0 Z1.2
G1 Z-0.2
G1 X99.3487 Y37.51
G1 X99.4333 Y37.8487
G1 Y38.0603
G1 X99.3487 Y38.399
G1 X98.8407 Y38.907
G1 X98.502 Y38.9917
G1 X98.2057
G1 X97.9517 Y38.907
G1 X97.4437 Y38.399
G1 X97.359 Y38.0603
G1 Y37.8487
G1 X97.4437 Y37.51
G1 X97.9517 Y37.002
G1 X98.2903 Y36.9173
G1 X98.502
G1 X98.8407 Y37.002
G1 X99.3275 Y37.4888
G0 Z3.0
G0 X99.899 Y39.4573
G0 Z1.2
G1 Z-0.2
G1 X101.9733
G1 Y41.5317
G1 X99.899
G1 Y39.4573
G0 Z3.0
G0 X99.3275 Y40.0288
G0 Z1.2
G1 Z-0.2
G1 X99.3487 Y40.05
G1 X99.4333 Y40.3887
G1 Y40.6003
G1 X99.3487 Y40.939
G1 X98.8407 Y41.447
G1 X98.502 Y41.5317
G1 X98.2057
G1 X97.9517 Y41.447
G1 X97.4437 Y40.939
G1 X97.359 Y40.6003
G1 Y40.3887
G1 X97.4437 Y40.05
G1 X97.9517 Y39.542
G1 X98.2903 Y39.4573
G1 X98.502
G1 X98.8407 Y39.542
G1 X99.3275 Y40.0288
G0 Z3.0
G0 X99.899 Y41.9973
G0 Z1.2
G1 Z-0.2
G1 X101.9733
G1 Y44.0717
G1 X99.899
G1 Y41.9973
G0 Z3.0
G0 X99.3275 Y42.5688
G0 Z1.2
G1 Z-0.2
G1 X99.3487 Y42.59
G1 X99.4333 Y42.9287
G1 Y43.1403
G1 X99.3487 Y43.479
G1 X98.8407 Y43.987
G1 X98.502 Y44.0717
G1 X98.2057
G1 X97.9517 Y43.987
G1 X97.4437 Y43.479
G1 X97.359 Y43.1403
G1 Y42.9287
G1 X97.4437 Y42.59
G1 X97.9517 Y42.082
G1 X98.2903 Y41.9973
G1 X98.502
G1 X98.8407 Y42.082
G1 X99.3275 Y42.5688
G0 Z3.0
G0 Y44.495
G0 Z1.2
G1 Z-0.2
G1 X99.4757
G1 Y46.654
G1 X97.3167
G1 Y44.495
G1 X99.3275
G0 Z3.0
G0 X99.899 Y44.5373
G0 Z1.2
G1 Z-0.2
G1 X101.9733
G1 Y46.6117
G1 X99.899
G1 Y44.5373
G0 Z3.0
G0 Y47.0773
G0 Z1.2
G1 Z-0.2
G1 X101.9733
G1 Y49.1517
G1 X99.899
G1 Y47.0773
G0 Z3.0
G0 X99.3275 Y47.6488
G0 Z1.2
G1 Z-0.2
G1 X99.3487 Y47.67
G1 X99.4333 Y48.0087
G1 Y48.2203
G1 X99.3487 Y48.559
G1 X98.8407 Y49.067
G1 X98.502 Y49.1517
G1 X98.2057
G1 X97.9517 Y49.067
G1 X97.4437 Y48.559
G1 X97.359 Y48.2203
G1 Y48.0087
G1 X97.4437 Y47.67
G1 X97.9517 Y47.162
G1 X98.2903 Y47.0773
G1 X98.502
G1 X98.8407 Y47.162
G1 X99.3275 Y47.6488
G0 Z3.0
G0 X99.899 Y49.6173
G0 Z1.2
G1 Z-0.2
G1 X101.9733
G1 Y51.6917
G1 X99.899
G1 Y49.6173
G0 Z3.0
G0 X99.3275 Y50.1888
G0 Z1.2
G1 Z-0.2
G1 X99.3487 Y50.21
G1 X99.4333 Y50.5487
G1 Y50.7603
G1 X99.3487 Y51.099
G1 X98.8407 Y51.607
G1 X98.502 Y51.6917
G1 X98.2057
G1 X97.9517 Y51.607
G1 X97.4437 Y51.099
G1 X97.359 Y50.7603
G1 Y50.5487
G1 X97.4437 Y50.21
G1 X97.9517 Y49.702
G1 X98.2903 Y49.6173
G1 X98.502
G1 X98.8407 Y49.702
G1 X99.3275 Y50.1888
G0 Z3.0
G0 X99.899 Y52.1573
G0 Z1.2
G1 Z-0.2
G1 X101.9733
G1 Y54.2317
G1 X99.899
G1 Y52.1573
G0 Z3.0
G0 X99.3275 Y52.7288
G0 Z1.2
G1 Z-0.2
G1 X99.3487 Y52.75
G1 X99.4333 Y53.0887
G1 Y53.3003
G1 X99.3487 Y53.639
G1 X98.8407 Y54.147
G1 X98.502 Y54.2317
G1 X98.2057
G1 X97.9517 Y54.147
G1 X97.4437 Y53.639
G1 X97.359 Y53.3003
G1 Y53.0887
G1 X97.4437 Y52.75
G1 X97.9517 Y52.242
G1 X98.2903 Y52.1573
G1 X98.502
G1 X98.8407 Y52.242
G1 X99.3275 Y52.7288
G0 Z3.0
G0 X92.3898 Y50.9944
G0 Z1.2
G1 Z-0.2
G1 X92.3637 Y51.099
G1 X91.8557 Y51.607
G1 X91.517 Y51.6917
G1 X91.2207
G1 X90.9667 Y51.607
G1 X90.4587 Y51.099
G1 X90.374 Y50.7603
G1 Y50.5487
G1 X90.4587 Y50.21
G1 X90.9667 Y49.702
G1 X91.3053 Y49.6173
G1 X91.517
G1 X91.8557 Y49.702
G1 X92.3637 Y50.21
G1 X92.4483 Y50.5487
G1 Y50.7603
G1 X92.3898 Y50.9944
G0 Z3.0
G0 X89.9083 Y50.7603
G0 Z1.2
G1 Z-0.2
G1 X89.8237 Y51.099
G1 X89.3157 Y51.607
G1 X88.977 Y51.6917
G1 X88.6807
G1 X88.4267 Y51.607
G1 X87.9187 Y51.099
G1 X87.834 Y50.7603
G1 Y50.5487
G1 X87.9187 Y50.21
G1 X88.4267 Y49.702
G1 X88.7653 Y49.6173
G1 X88.977
G1 X89.3157 Y49.702
G1 X89.8237 Y50.21
G1 X89.9083 Y50.5487
G1 Y50.7603
G0 Z3.0
G0 X87.3683
G0 Z1.2
G1 Z-0.2
G1 X87.2837 Y51.099
G1 X86.7757 Y51.607
G1 X86.437 Y51.6917
G1 X86.1407
G1 X85.8867 Y51.607
G1 X85.3787 Y51.099
G1 X85.294 Y50.7603
G1 Y50.5487
G1 X85.3787 Y50.21
G1 X85.8867 Y49.702
G1 X86.2253 Y49.6173
G1 X86.437
G1 X86.7757 Y49.702
G1 X87.2837 Y50.21
G1 X87.3683 Y50.5487
G1 Y50.7603
G0 Z3.0
G0 X84.8283
G0 Z1.2
G1 Z-0.2
G1 X84.7437 Y51.099
G1 X84.2357 Y51.607
G1 X83.897 Y51.6917
G1 X83.6007
G1 X83.3467 Y51.607
G1 X82.8387 Y51.099
G1 X82.754 Y50.7603
G1 Y50.5487
G1 X82.8387 Y50.21
G1 X83.3467 Y49.702
G1 X83.6853 Y49.6173
G1 X83.897
G1 X84.2357 Y49.702
G1 X84.7437 Y50.21
G1 X84.8283 Y50.5487
G1 Y50.7603
G0 Z3.0
G0 X82.2883
G0 Z1.2
G1 Z-0.2
G1 X82.2037 Y51.099
G1 X81.6957 Y51.607
G1 X81.357 Y51.6917
G1 X81.0607
G1 X80.8067 Y51.607
G1 X80.2987 Y51.099
G1 X80.214 Y50.7603
G1 Y50.5487
G1 X80.2987 Y50.21
G1 X80.8067 Y49.702
G1 X81.1453 Y49.6173
G1 X81.357
G1 X81.6957 Y49.702
G1 X82.2037 Y50.21
G1 X82.2883 Y50.5487
G1 Y50.7603
G0 Z3.0
G0 X79.7483
G0 Z1.2
G1 Z-0.2
G1 X79.6637 Y51.099
G1 X79.1557 Y51.607
G1 X78.817 Y51.6917
G1 X78.5207
G1 X78.2667 Y51.607
G1 X77.7587 Y51.099
G1 X77.674 Y50.7603
G1 Y50.5487
G1 X77.7587 Y50.21
G1 X78.2667 Y49.702
G1 X78.6053 Y49.6173
G1 X78.817
G1 X79.1557 Y49.702
G1 X79.6637 Y50.21
G1 X79.7483 Y50.5487
G1 Y50.7603
G0 Z3.0
G0 X77.2083
G0 Z1.2
G1 Z-0.2
G1 X77.1237 Y51.099
G1 X76.6157 Y51.607
G1 X76.277 Y51.6917
G1 X75.9807
G1 X75.7267 Y51.607
G1 X75.2187 Y51.099
G1 X75.134 Y50.7603
G1 Y50.5487
G1 X75.2187 Y50.21
G1 X75.7267 Y49.702
G1 X76.0653 Y49.6173
G1 X76.277
G1 X76.6157 Y49.702
G1 X77.1237 Y50.21
G1 X77.2083 Y50.5487
G1 Y50.7603
G0 Z3.0
G0 X74.6683
G0 Z1.2
G1 Z-0.2
G1 X74.5837 Y51.099
G1 X74.0757 Y51.607
G1 X73.737 Y51.6917
G1 X73.4407
G1 X73.1867 Y51.607
G1 X72.6787 Y51.099
G1 X72.594 Y50.7603
G1 Y50.5487
G1 X72.6787 Y50.21
G1 X73.1867 Y49.702
G1 X73.5253 Y49.6173
G1 X73.737
G1 X74.0757 Y49.702
G1 X74.5837 Y50.21
G1 X74.6683 Y50.5487
G1 Y50.7603
G0 Z3.0
G0 X72.1283
G0 Z1.2
G1 Z-0.2
G1 X72.0437 Y51.099
G1 X71.5357 Y51.607
G1 X71.197 Y51.6917
G1 X70.9007
G1 X70.6467 Y51.607
G1 X70.1387 Y51.099
G1 X70.054 Y50.7603
G1 Y50.5487
G1 X70.1387 Y50.21
G1 X70.6467 Y49.702
G1 X70.9853 Y49.6173
G1 X71.197
G1 X71.5357 Y49.702
G1 X72.0437 Y50.21
G1 X72.1283 Y50.5487
G1 Y50.7603
G0 Z3.0
G0 X69.5883
G0 Z1.2
G1 Z-0.2
G1 X69.5037 Y51.099
G1 X68.9957 Y51.607
G1 X68.657 Y51.6917
G1 X68.3607
G1 X68.1067 Y51.607
G1 X67.5987 Y51.099
G1 X67.514 Y50.7603
G1 Y50.5487
G1 X67.5987 Y50.21
G1 X68.1067 Y49.702
G1 X68.4453 Y49.6173
G1 X68.657
G1 X68.9957 Y49.702
G1 X69.5037 Y50.21
G1 X69.5883 Y50.5487
G1 Y50.7603
G0 Z3.0
G0 X67.0483
G0 Z1.2
G1 Z-0.2
G1 X66.9637 Y51.099
G1 X66.4557 Y51.607
G1 X66.117 Y51.6917
G1 X65.8207
G1 X65.5667 Y51.607
G1 X65.0587 Y51.099
G1 X64.974 Y50.7603
G1 Y50.5487
G1 X65.0587 Y50.21
G1 X65.5667 Y49.702
G1 X65.9053 Y49.6173
G1 X66.117
G1 X66.4557 Y49.702
G1 X66.9637 Y50.21
G1 X67.0483 Y50.5487
G1 Y50.7603
G0 Z3.0
G0 X64.5083
G0 Z1.2
G1 Z-0.2
G1 X64.4237 Y51.099
G1 X63.9157 Y51.607
G1 X63.577 Y51.6917
G1 X63.2807
G1 X63.0267 Y51.607
G1 X62.5187 Y51.099
G1 X62.434 Y50.7603
G1 Y50.5487
G1 X62.5187 Y50.21
G1 X63.0267 Y49.702
G1 X63.3653 Y49.6173
G1 X63.577
G1 X63.9157 Y49.702
G1 X64.4237 Y50.21
G1 X64.5083 Y50.5487
G1 Y50.7603
G0 Z3.0
G0 X61.9683
G0 Z1.2
G1 Z-0.2
G1 X61.8837 Y51.099
G1 X61.3757 Y51.607
G1 X61.037 Y51.6917
G1 X60.7407
G1 X60.4867 Y51.607
G1 X59.9787 Y51.099
G1 X59.894 Y50.7603
G1 Y50.5487
G1 X59.9787 Y50.21
G1 X60.4867 Y49.702
G1 X60.8253 Y49.6173
G1 X61.037
G1 X61.3757 Y49.702
G1 X61.8837 Y50.21
G1 X61.9683 Y50.5487
G1 Y50.7603
G0 Z3.0
G0 X59.4283
G0 Z1.2
G1 Z-0.2
G1 X59.3437 Y51.099
G1 X58.8357 Y51.607
G1 X58.497 Y51.6917
G1 X58.2007
G1 X57.9467 Y51.607
G1 X57.4387 Y51.099
G1 X57.354 Y50.7603
G1 Y50.5487
G1 X57.4387 Y50.21
G1 X57.9467 Y49.702
G1 X58.2853 Y49.6173
G1 X58.497
G1 X58.8357 Y49.702
G1 X59.3437 Y50.21
G1 X59.4283 Y50.5487
G1 Y50.7603
G0 Z3.0
G0 X56.8883
G0 Z1.2
G1 Z-0.2
G1 X56.8037 Y51.099
G1 X56.2957 Y51.607
G1 X55.957 Y51.6917
G1 X55.6607
G1 X55.4067 Y51.607
G1 X54.8987 Y51.099
G1 X54.814 Y50.7603
G1 Y50.5487
G1 X54.8987 Y50.21
G1 X55.4067 Y49.702
G1 X55.7453 Y49.6173
G1 X55.957
G1 X56.2957 Y49.702
G1 X56.8037 Y50.21
G1 X56.8883 Y50.5487
G1 Y50.7603
G0 Z3.0
G0 X54.3907
G0 Z1.2
G1 Z-0.2
G1 Y51.734
G1 X52.2317
G1 Y49.575
G1 X54.3907
G1 Y50.7603
G0 Z3.0
G0 X48.718
G0 Z1.2
G1 Z-0.2
G1 Y53.5543
G1 X49.1837 Y54.02
G1 X49.2683 Y54.3587
G1 Y54.5703
G1 X49.1837 Y54.909
G1 X48.6757 Y55.417
G1 X48.337 Y55.5017
G1 X48.0407
G1 X47.7867 Y55.417
G1 X47.2787 Y54.909
G1 X47.194 Y54.5703
G1 Y54.3587
G1 X47.2787 Y54.02
G1 X47.7443 Y53.5543
G1 Y35.0547
G1 X47.2787 Y34.589
G1 X47.194 Y34.2503
G1 Y34.0387
G1 X47.2787 Y33.7
G1 X47.7867 Y33.192
G1 X48.1253 Y33.1073
G1 X48.337
G1 X48.6757 Y33.192
G1 X49.1837 Y33.7
G1 X49.2683 Y34.0387
G1 Y34.2503
G1 X49.1837 Y34.589
G1 X48.718 Y35.0547
G1 Y50.7603
G0 Z3.0
G0 X47.3633
G0 Z1.2
G1 Z-0.2
G1 X47.2787 Y51.099
G1 X46.7707 Y51.607
G1 X46.432 Y51.6917
G1 X46.1357
G1 X45.8817 Y51.607
G1 X45.3737 Y51.099
G1 X45.289 Y50.7603
G1 Y50.5487
G1 X45.3737 Y50.21
G1 X45.8817 Y49.702
G1 X46.2203 Y49.6173
G1 X46.432
G1 X46.7707 Y49.702
G1 X47.2787 Y50.21
G1 X47.3633 Y50.5487
G1 Y50.7603
G0 Z3.0
G0 X46.7707 Y52.242
G0 Z1.2
G1 Z-0.2
G1 X47.2787 Y52.75
G1 X47.3633 Y53.0887
G1 Y53.3003
G1 X47.2787 Y53.639
G1 X46.7707 Y54.147
G1 X46.432 Y54.2317
G1 X46.1357
G1 X45.8817 Y54.147
G1 X45.3737 Y53.639
G1 X45.289 Y53.3003
G1 Y53.0887
G1 X45.3737 Y52.75
G1 X45.8817 Y52.242
G1 X46.2203 Y52.1573
G1 X46.432
G1 X46.7707 Y52.242
G0 Z3.0
G0 X44.8233
G0 Z1.2
G1 Z-0.2
G1 Y54.2317
G1 X42.749
G1 Y52.1573
G1 X44.8233
G1 Y52.242
G0 Z3.0
G0 Y51.6917
G0 Z1.2
G1 Z-0.2
G1 X42.749
G1 Y49.6173
G1 X44.8233
G1 Y51.6917
G0 Z3.0
G0 Y49.1517
G0 Z1.2
G1 Z-0.2
G1 X42.749
G1 Y47.0773
G1 X44.8233
G1 Y49.1517
G0 Z3.0
G0 X45.3948 Y48.5802
G0 Z1.2
G1 Z-0.2
G1 X45.3737 Y48.559
G1 X45.289 Y48.2203
G1 Y48.0087
G1 X45.3737 Y47.67
G1 X45.8817 Y47.162
G1 X46.2203 Y47.0773
G1 X46.432
G1 X46.7707 Y47.162
G1 X47.2787 Y47.67
G1 X47.3633 Y48.0087
G1 Y48.2203
G1 X47.2787 Y48.559
G1 X46.7707 Y49.067
G1 X46.432 Y49.1517
G1 X46.1357
G1 X45.8817 Y49.067
G1 X45.3948 Y48.5802
G0 Z3.0
G0 X44.8233 Y46.6117
G0 Z1.2
G1 Z-0.2
G1 X42.749
G1 Y44.5373
G1 X44.8233
G1 Y46.6117
G0 Z3.0
G0 X45.3948 Y46.0402
G0 Z1.2
G1 Z-0.2
G1 X45.3737 Y46.019
G1 X45.289 Y45.6803
G1 Y45.4687
G1 X45.3737 Y45.13
G1 X45.8817 Y44.622
G1 X46.2203 Y44.5373
G1 X46.432
G1 X46.7707 Y44.622
G1 X47.2787 Y45.13
G1 X47.3633 Y45.4687
G1 Y45.6803
G1 X47.2787 Y46.019
G1 X46.7707 Y46.527
G1 X46.432 Y46.6117
G1 X46.1357
G1 X45.8817 Y46.527
G1 X45.3948 Y46.0402
G0 Z3.0
G0 Y44.114
G0 Z1.2
G1 Z-0.2
G1 X45.2467
G1 Y41.955
G1 X47.4057
G1 Y44.114
G1 X45.3948
G0 Z3.0
G0 X44.8233 Y44.0717
G0 Z1.2
G1 Z-0.2
G1 X42.749
G1 Y41.9973
G1 X44.8233
G1 Y44.0717
G0 Z3.0
G0 Y41.5317
G0 Z1.2
G1 Z-0.2
G1 X42.749
G1 Y39.4573
G1 X44.8233
G1 Y41.5317
G0 Z3.0
G0 X45.3948 Y40.9602
G0 Z1.2
G1 Z-0.2
G1 X45.3737 Y40.939
G1 X45.289 Y40.6003
G1 Y40.3887
G1 X45.3737 Y40.05
G1 X45.8817 Y39.542
G1 X46.2203 Y39.4573
G1 X46.432
G1 X46.7707 Y39.542
G1 X47.2787 Y40.05
G1 X47.3633 Y40.3887
G1 Y40.6003
G1 X47.2787 Y40.939
G1 X46.7707 Y41.447
G1 X46.432 Y41.5317
G1 X46.1357
G1 X45.8817 Y41.447
G1 X45.3948 Y40.9602
G0 Z3.0
G0 X44.8233 Y38.9917
G0 Z1.2
G1 Z-0.2
G1 X42.749
G1 Y36.9173
G1 X44.8233
G1 Y38.9917
G0 Z3.0
G0 X45.3948 Y38.4202
G0 Z1.2
G1 Z-0.2
G1 X45.3737 Y38.399
G1 X45.289 Y38.0603
G1 Y37.8487
G1 X45.3737 Y37.51
G1 X45.8817 Y37.002
G1 X46.2203 Y36.9173
G1 X46.432
G1 X46.7707 Y37.002
G1 X47.2787 Y37.51
G1 X47.3633 Y37.8487
G1 Y38.0603
G1 X47.2787 Y38.399
G1 X46.7707 Y38.907
G1 X46.432 Y38.9917
G1 X46.1357
G1 X45.8817 Y38.907
G1 X45.3948 Y38.4202
G0 Z3.0
G0 X44.8233 Y36.4517
G0 Z1.2
G1 Z-0.2
G1 X42.749
G1 Y34.3773
G1 X44.8233
G1 Y36.4517
G0 Z3.0
G0 X45.3948 Y35.8802
G0 Z1.2
G1 Z-0.2
G1 X45.3737 Y35.859
G1 X45.289 Y35.5203
G1 Y35.3087
G1 X45.3737 Y34.97
G1 X45.8817 Y34.462
G1 X46.2203 Y34.3773
G1 X46.432
G1 X46.7707 Y34.462
G1 X47.2787 Y34.97
G1 X47.3633 Y35.3087
G1 Y35.5203
G1 X47.2787 Y35.859
G1 X46.7707 Y36.367
G1 X46.432 Y36.4517
G1 X46.1357
G1 X45.8817 Y36.367
G1 X45.3948 Y35.8802
G0 Z3.0
G0 X44.8233 Y33.9117
G0 Z1.2
G1 Z-0.2
G1 X42.749
G1 Y31.8373
G1 X44.8233
G1 Y33.9117
G0 Z3.0
G0 X45.3948 Y33.3402
G0 Z1.2
G1 Z-0.2
G1 X45.3737 Y33.319
G1 X45.289 Y32.9803
G1 Y32.7687
G1 X45.3737 Y32.43
G1 X45.8817 Y31.922
G1 X46.2203 Y31.8373
G1 X46.432
G1 X46.7707 Y31.922
G1 X47.2787 Y32.43
G1 X47.3633 Y32.7687
G1 Y32.9803
G1 X47.2787 Y33.319
G1 X46.7707 Y33.827
G1 X46.432 Y33.9117
G1 X46.1357
G1 X45.8817 Y33.827
G1 X45.3948 Y33.3402
G0 Z3.0
G0 X44.8233 Y31.3717
G0 Z1.2
G1 Z-0.2
G1 X42.749
G1 Y29.2973
G1 X44.8233
G1 Y31.3717
G0 Z3.0
G0 X45.3948 Y30.8002
G0 Z1.2
G1 Z-0.2
G1 X45.3737 Y30.779
G1 X45.289 Y30.4403
G1 Y30.2287
G1 X45.3737 Y29.89
G1 X45.8817 Y29.382
G1 X46.2203 Y29.2973
G1 X46.432
G1 X46.7707 Y29.382
G1 X47.2787 Y29.89
G1 X47.3633 Y30.2287
G1 Y30.4403
G1 X47.2787 Y30.779
G1 X46.7707 Y31.287
G1 X46.432 Y31.3717
G1 X46.1357
G1 X45.8817 Y31.287
G1 X45.3948 Y30.8002
G0 Z3.0
G0 X44.8233 Y28.8317
G0 Z1.2
G1 Z-0.2
G1 X42.749
G1 Y26.7573
G1 X44.8233
G1 Y28.8317
G0 Z3.0
G0 X45.3948 Y28.2602
G0 Z1.2
G1 Z-0.2
G1 X45.3737 Y28.239
G1 X45.289 Y27.9003
G1 Y27.6887
G1 X45.3737 Y27.35
G1 X45.8817 Y26.842
G1 X46.2203 Y26.7573
G1 X46.432
G1 X46.7707 Y26.842
G1 X47.2787 Y27.35
G1 X47.3633 Y27.6887
G1 Y27.9003
G1 X47.2787 Y28.239
G1 X46.7707 Y28.747
G1 X46.432 Y28.8317
G1 X46.1357
G1 X45.8817 Y28.747
G1 X45.3948 Y28.2602
G0 Z3.0
G0 X44.8233 Y26.2917
G0 Z1.2
G1 Z-0.2
G1 X42.749
G1 Y24.2173
G1 X44.8233
G1 Y26.2917
G0 Z3.0
G0 X45.3948 Y25.7202
G0 Z1.2
G1 Z-0.2
G1 X45.3737 Y25.699
G1 X45.289 Y25.3603
G1 Y25.1487
G1 X45.3737 Y24.81
G1 X45.8817 Y24.302
G1 X46.2203 Y24.2173
G1 X46.432
G1 X46.7707 Y24.302
G1 X47.2787 Y24.81
G1 X47.3633 Y25.1487
G1 Y25.3603
G1 X47.2787 Y25.699
G1 X46.7707 Y26.207
G1 X46.432 Y26.2917
G1 X46.1357
G1 X45.8817 Y26.207
G1 X45.3948 Y25.7202
G0 Z3.0
G0 X52.2317 Y29.255
G0 Z1.2
G1 Z-0.2
G1 X54.3907
G1 Y31.414
G1 X52.2317
G1 Y29.255
G0 Z3.0
G0 X54.8912 Y29.9199
G0 Z1.2
G1 Z-0.2
G1 X54.8987 Y29.89
G1 X55.4067 Y29.382
G1 X55.7453 Y29.2973
G1 X55.957
G1 X56.2957 Y29.382
G1 X56.8037 Y29.89
G1 X56.8883 Y30.2287
G1 Y30.4403
G1 X56.8037 Y30.779
G1 X56.2957 Y31.287
G1 X55.957 Y31.3717
G1 X55.6607
G1 X55.4067 Y31.287
G1 X54.8987 Y30.779
G1 X54.814 Y30.4403
G1 Y30.2287
G1 X54.8912 Y29.9199
G0 Z3.0
G0 X57.354 Y30.2287
G0 Z1.2
G1 Z-0.2
G1 X57.4387 Y29.89
G1 X57.9467 Y29.382
G1 X58.2853 Y29.2973
G1 X58.497
G1 X58.8357 Y29.382
G1 X59.3437 Y29.89
G1 X59.4283 Y30.2287
G1 Y30.4403
G1 X59.3437 Y30.779
G1 X58.8357 Y31.287
G1 X58.497 Y31.3717
G1 X58.2007
G1 X57.9467 Y31.287
G1 X57.4387 Y30.779
G1 X57.354 Y30.4403
G1 Y30.2287
G0 Z3.0
G0 X59.894
G0 Z1.2
G1 Z-0.2
G1 X59.9787 Y29.89
G1 X60.4867 Y29.382
G1 X60.8253 Y29.2973
G1 X61.037
G1 X61.3757 Y29.382
G1 X61.8837 Y29.89
G1 X61.9683 Y30.2287
G1 Y30.4403
G1 X61.8837 Y30.779
G1 X61.3757 Y31.287
G1 X61.037 Y31.3717
G1 X60.7407
G1 X60.4867 Y31.287
G1 X59.9787 Y30.779
G1 X59.894 Y30.4403
G1 Y30.2287
G0 Z3.0
G0 X62.434
G0 Z1.2
G1 Z-0.2
G1 X62.5187 Y29.89
G1 X63.0267 Y29.382
G1 X63.3653 Y29.2973
G1 X63.577
G1 X63.9157 Y29.382
G1 X64.4237 Y29.89
G1 X64.5083 Y30.2287
G1 Y30.4403
G1 X64.4237 Y30.779
G1 X63.9157 Y31.287
G1 X63.577 Y31.3717
G1 X63.2807
G1 X63.0267 Y31.287
G1 X62.5187 Y30.779
G1 X62.434 Y30.4403
G1 Y30.2287
G0 Z3.0
G0 X64.974
G0 Z1.2
G1 Z-0.2
G1 X65.0587 Y29.89
G1 X65.5667 Y29.382
G1 X65.9053 Y29.2973
G1 X66.117
G1 X66.4557 Y29.382
G1 X66.9637 Y29.89
G1 X67.0483 Y30.2287
G1 Y30.4403
G1 X66.9637 Y30.779
G1 X66.4557 Y31.287
G1 X66.117 Y31.3717
G1 X65.8207
G1 X65.5667 Y31.287
G1 X65.0587 Y30.779
G1 X64.974 Y30.4403
G1 Y30.2287
G0 Z3.0
G0 X67.514
G0 Z1.2
G1 Z-0.2
G1 X67.5987 Y29.89
G1 X68.1067 Y29.382
G1 X68.4453 Y29.2973
G1 X68.657
G1 X68.9957 Y29.382
G1 X69.5037 Y29.89
G1 X69.5883 Y30.2287
G1 Y30.4403
G1 X69.5037 Y30.779
G1 X68.9957 Y31.287
G1 X68.657 Y31.3717
G1 X68.3607
G1 X68.1067 Y31.287
G1 X67.5987 Y30.779
G1 X67.514 Y30.4403
G1 Y30.2287
G0 Z3.0
G0 X70.054
G0 Z1.2
G1 Z-0.2
G1 X70.1387 Y29.89
G1 X70.6467 Y29.382
G1 X70.9853 Y29.2973
G1 X71.197
G1 X71.5357 Y29.382
G1 X72.0437 Y29.89
G1 X72.1283 Y30.2287
G1 Y30.4403
G1 X72.0437 Y30.779
G1 X71.5357 Y31.287
G1 X71.197 Y31.3717
G1 X70.9007
G1 X70.6467 Y31.287
G1 X70.1387 Y30.779
G1 X70.054 Y30.4403
G1 Y30.2287
G0 Z3.0
G0 X72.594
G0 Z1.2
G1 Z-0.2
G1 X72.6787 Y29.89
G1 X73.1867 Y29.382
G1 X73.5253 Y29.2973
G1 X73.737
G1 X74.0757 Y29.382
G1 X74.5837 Y29.89
G1 X74.6683 Y30.2287
G1 Y30.4403
G1 X74.5837 Y30.779
G1 X74.0757 Y31.287
G1 X73.737 Y31.3717
G1 X73.4407
G1 X73.1867 Y31.287
G1 X72.6787 Y30.779
G1 X72.594 Y30.4403
G1 Y30.2287
G0 Z3.0
G0 X75.134
G0 Z1.2
G1 Z-0.2
G1 X75.2187 Y29.89
G1 X75.7267 Y29.382
G1 X76.0653 Y29.2973
G1 X76.277
G1 X76.6157 Y29.382
G1 X77.1237 Y29.89
G1 X77.2083 Y30.2287
G1 Y30.4403
G1 X77.1237 Y30.779
G1 X76.6157 Y31.287
G1 X76.277 Y31.3717
G1 X75.9807
G1 X75.7267 Y31.287
G1 X75.2187 Y30.779
G1 X75.134 Y30.4403
G1 Y30.2287
G0 Z3.0
G0 X77.674
G0 Z1.2
G1 Z-0.2
G1 X77.7587 Y29.89
G1 X78.2667 Y29.382
G1 X78.6053 Y29.2973
G1 X78.817
G1 X79.1557 Y29.382
G1 X79.6637 Y29.89
G1 X79.7483 Y30.2287
G1 Y30.4403
G1 X79.6637 Y30.779
G1 X79.1557 Y31.287
G1 X78.817 Y31.3717
G1 X78.5207
G1 X78.2667 Y31.287
G1 X77.7587 Y30.779
G1 X77.674 Y30.4403
G1 Y30.2287
G0 Z3.0
G0 X80.214
G0 Z1.2
G1 Z-0.2
G1 X80.2987 Y29.89
G1 X80.8067 Y29.382
G1 X81.1453 Y29.2973
G1 X81.357
G1 X81.6957 Y29.382
G1 X82.2037 Y29.89
G1 X82.2883 Y30.2287
G1 Y30.4403
G1 X82.2037 Y30.779
G1 X81.6957 Y31.287
G1 X81.357 Y31.3717
G1 X81.0607
G1 X80.8067 Y31.287
G1 X80.2987 Y30.779
G1 X80.214 Y30.4403
G1 Y30.2287
G0 Z3.0
G0 X82.754
G0 Z1.2
G1 Z-0.2
G1 X82.8387 Y29.89
G1 X83.3467 Y29.382
G1 X83.6853 Y29.2973
G1 X83.897
G1 X84.2357 Y29.382
G1 X84.7437 Y29.89
G1 X84.8283 Y30.2287
G1 Y30.4403
G1 X84.7437 Y30.779
G1 X84.2357 Y31.287
G1 X83.897 Y31.3717
G1 X83.6007
G1 X83.3467 Y31.287
G1 X82.8387 Y30.779
G1 X82.754 Y30.4403
G1 Y30.2287
G0 Z3.0
G0 X85.294
G0 Z1.2
G1 Z-0.2
G1 X85.3787 Y29.89
G1 X85.8867 Y29.382
G1 X86.2253 Y29.2973
G1 X86.437
G1 X86.7757 Y29.382
G1 X87.2837 Y29.89
G1 X87.3683 Y30.2287
G1 Y30.4403
G1 X87.2837 Y30.779
G1 X86.7757 Y31.287
G1 X86.437 Y31.3717
G1 X86.1407
G1 X85.8867 Y31.287
G1 X85.3787 Y30.779
G1 X85.294 Y30.4403
G1 Y30.2287
G0 Z3.0
G0 X87.834
G0 Z1.2
G1 Z-0.2
G1 X87.9187 Y29.89
G1 X88.4267 Y29.382
G1 X88.7653 Y29.2973
G1 X88.977
G1 X89.3157 Y29.382
G1 X89.8237 Y29.89
G1 X89.9083 Y30.2287
G1 Y30.4403
G1 X89.8237 Y30.779
G1 X89.3157 Y31.287
G1 X88.977 Y31.3717
G1 X88.6807
G1 X88.4267 Y31.287
G1 X87.9187 Y30.779
G1 X87.834 Y30.4403
G1 Y30.2287
G0 Z3.0
G0 X90.374
G0 Z1.2
G1 Z-0.2
G1 X90.4587 Y29.89
G1 X90.9667 Y29.382
G1 X91.3053 Y29.2973
G1 X91.517
