( Made using CamBam - http://www.cambam.co.uk )
( midi_organ_v0.3.gcode.complete 8/22/2014 3:03:45 AM )
( T0 : 1.0 )
G21 G90 G64 G40
G0 Z3.0
( T0 : 1.0 )
T0 M6
( drill-3.25-mirror )
G17
M3 S1000
G0 X24.1001 Y185.9199
G0 Z3.0
G0 X25.2251 Y185.9199
G0 Z1.0
G1 F300.0 Z0.0
G2 F400.0 X23.5376 Y184.9456 Z-0.1333 I-1.125 J0.0
G2 Y186.8942 Z-0.2667 I0.5625 J0.9743
G2 X25.2251 Y185.9199 Z-0.4 I0.5625 J-0.9743
G2 X23.5376 Y184.9456 Z-0.5333 I-1.125 J0.0
G2 Y186.8942 Z-0.6667 I0.5625 J0.9743
G2 X25.2251 Y185.9199 Z-0.8 I0.5625 J-0.9743
G2 X23.5376 Y184.9456 Z-0.9333 I-1.125 J0.0
G2 Y186.8942 Z-1.0667 I0.5625 J0.9743
G2 X25.2251 Y185.9199 Z-1.2 I0.5625 J-0.9743
G2 X23.5376 Y184.9456 Z-1.3333 I-1.125 J0.0
G2 Y186.8942 Z-1.4667 I0.5625 J0.9743
G2 X25.2251 Y185.9199 Z-1.6 I0.5625 J-0.9743
G2 X23.5376 Y184.9456 Z-1.7333 I-1.125 J0.0
G2 Y186.8942 Z-1.8667 I0.5625 J0.9743
G2 X25.2251 Y185.9199 Z-2.0 I0.5625 J-0.9743
G2 X23.5376 Y184.9456 Z-2.1333 I-1.125 J0.0
G2 Y186.8942 Z-2.2667 I0.5625 J0.9743
G2 X24.8956 Y186.7154 Z-2.35 I0.5625 J-0.9743
G2 X24.3912 Y184.8332 I-0.7955 J-0.7955
G2 X23.0134 Y186.2111 I-0.2912 J1.0867
G2 X24.8956 Y186.7154 I1.0867 J-0.2912
G0 Z3.0
G0 X25.2251 Y185.9199
G1 F300.0 Z0.0
G2 F400.0 X23.5376 Y184.9456 Z-0.1333 I-1.125 J0.0
G2 Y186.8942 Z-0.2667 I0.5625 J0.9743
G2 X25.2251 Y185.9199 Z-0.4 I0.5625 J-0.9743
G2 X23.5376 Y184.9456 Z-0.5333 I-1.125 J0.0
G2 Y186.8942 Z-0.6667 I0.5625 J0.9743
G2 X25.2251 Y185.9199 Z-0.8 I0.5625 J-0.9743
G2 X23.5376 Y184.9456 Z-0.9333 I-1.125 J0.0
G2 Y186.8942 Z-1.0667 I0.5625 J0.9743
G2 X25.2251 Y185.9199 Z-1.2 I0.5625 J-0.9743
G2 X23.5376 Y184.9456 Z-1.3333 I-1.125 J0.0
G2 Y186.8942 Z-1.4667 I0.5625 J0.9743
G2 X25.2251 Y185.9199 Z-1.6 I0.5625 J-0.9743
G2 X23.5376 Y184.9456 Z-1.7333 I-1.125 J0.0
G2 Y186.8942 Z-1.8667 I0.5625 J0.9743
G2 X25.2251 Y185.9199 Z-2.0 I0.5625 J-0.9743
G2 X23.5376 Y184.9456 Z-2.1333 I-1.125 J0.0
G2 Y186.8942 Z-2.2667 I0.5625 J0.9743
G2 X24.8956 Y186.7154 Z-2.35 I0.5625 J-0.9743
G2 X24.3912 Y184.8332 I-0.7955 J-0.7955
G2 X23.0134 Y186.2111 I-0.2912 J1.0867
G2 X24.8956 Y186.7154 I1.0867 J-0.2912
G0 Z3.0
G0 X109.0451 Y150.3599
G0 Z1.0
G1 F300.0 Z0.0
G2 F400.0 X107.3576 Y149.3856 Z-0.1333 I-1.125 J0.0
G2 Y151.3342 Z-0.2667 I0.5625 J0.9743
G2 X109.0451 Y150.3599 Z-0.4 I0.5625 J-0.9743
G2 X107.3576 Y149.3856 Z-0.5333 I-1.125 J0.0
G2 Y151.3342 Z-0.6667 I0.5625 J0.9743
G2 X109.0451 Y150.3599 Z-0.8 I0.5625 J-0.9743
G2 X107.3576 Y149.3856 Z-0.9333 I-1.125 J0.0
G2 Y151.3342 Z-1.0667 I0.5625 J0.9743
G2 X109.0451 Y150.3599 Z-1.2 I0.5625 J-0.9743
G2 X107.3576 Y149.3856 Z-1.3333 I-1.125 J0.0
G2 Y151.3342 Z-1.4667 I0.5625 J0.9743
G2 X109.0451 Y150.3599 Z-1.6 I0.5625 J-0.9743
G2 X107.3576 Y149.3856 Z-1.7333 I-1.125 J0.0
G2 Y151.3342 Z-1.8667 I0.5625 J0.9743
G2 X109.0451 Y150.3599 Z-2.0 I0.5625 J-0.9743
G2 X107.3576 Y149.3856 Z-2.1333 I-1.125 J0.0
G2 Y151.3342 Z-2.2667 I0.5625 J0.9743
G2 X108.7156 Y151.1554 Z-2.35 I0.5625 J-0.9743
G2 X108.2112 Y149.2732 I-0.7955 J-0.7955
G2 X106.8334 Y150.6511 I-0.2912 J1.0867
G2 X108.7156 Y151.1554 I1.0867 J-0.2912
G0 Z3.0
G0 X109.0451 Y150.3599
G1 F300.0 Z0.0
G2 F400.0 X107.3576 Y149.3856 Z-0.1333 I-1.125 J0.0
G2 Y151.3342 Z-0.2667 I0.5625 J0.9743
G2 X109.0451 Y150.3599 Z-0.4 I0.5625 J-0.9743
G2 X107.3576 Y149.3856 Z-0.5333 I-1.125 J0.0
G2 Y151.3342 Z-0.6667 I0.5625 J0.9743
G2 X109.0451 Y150.3599 Z-0.8 I0.5625 J-0.9743
G2 X107.3576 Y149.3856 Z-0.9333 I-1.125 J0.0
G2 Y151.3342 Z-1.0667 I0.5625 J0.9743
G2 X109.0451 Y150.3599 Z-1.2 I0.5625 J-0.9743
G2 X107.3576 Y149.3856 Z-1.3333 I-1.125 J0.0
G2 Y151.3342 Z-1.4667 I0.5625 J0.9743
G2 X109.0451 Y150.3599 Z-1.6 I0.5625 J-0.9743
G2 X107.3576 Y149.3856 Z-1.7333 I-1.125 J0.0
G2 Y151.3342 Z-1.8667 I0.5625 J0.9743
G2 X109.0451 Y150.3599 Z-2.0 I0.5625 J-0.9743
G2 X107.3576 Y149.3856 Z-2.1333 I-1.125 J0.0
G2 Y151.3342 Z-2.2667 I0.5625 J0.9743
G2 X108.7156 Y151.1554 Z-2.35 I0.5625 J-0.9743
G2 X108.2112 Y149.2732 I-0.7955 J-0.7955
G2 X106.8334 Y150.6511 I-0.2912 J1.0867
G2 X108.7156 Y151.1554 I1.0867 J-0.2912
G0 Z3.0
G0 X25.2251 Y70.3499
G0 Z1.0
G1 F300.0 Z0.0
G2 F400.0 X23.5376 Y69.3756 Z-0.1333 I-1.125 J0.0
G2 Y71.3242 Z-0.2667 I0.5625 J0.9743
G2 X25.2251 Y70.3499 Z-0.4 I0.5625 J-0.9743
G2 X23.5376 Y69.3756 Z-0.5333 I-1.125 J0.0
G2 Y71.3242 Z-0.6667 I0.5625 J0.9743
G2 X25.2251 Y70.3499 Z-0.8 I0.5625 J-0.9743
G2 X23.5376 Y69.3756 Z-0.9333 I-1.125 J0.0
G2 Y71.3242 Z-1.0667 I0.5625 J0.9743
G2 X25.2251 Y70.3499 Z-1.2 I0.5625 J-0.9743
G2 X23.5376 Y69.3756 Z-1.3333 I-1.125 J0.0
G2 Y71.3242 Z-1.4667 I0.5625 J0.9743
G2 X25.2251 Y70.3499 Z-1.6 I0.5625 J-0.9743
G2 X23.5376 Y69.3756 Z-1.7333 I-1.125 J0.0
G2 Y71.3242 Z-1.8667 I0.5625 J0.9743
G2 X25.2251 Y70.3499 Z-2.0 I0.5625 J-0.9743
G2 X23.5376 Y69.3756 Z-2.1333 I-1.125 J0.0
G2 Y71.3242 Z-2.2667 I0.5625 J0.9743
G2 X24.8956 Y71.1454 Z-2.35 I0.5625 J-0.9743
G2 X24.3912 Y69.2632 I-0.7955 J-0.7955
G2 X23.0134 Y70.6411 I-0.2912 J1.0867
G2 X24.8956 Y71.1454 I1.0867 J-0.2912
G0 Z3.0
G0 X25.2251 Y70.3499
G1 F300.0 Z0.0
G2 F400.0 X23.5376 Y69.3756 Z-0.1333 I-1.125 J0.0
G2 Y71.3242 Z-0.2667 I0.5625 J0.9743
G2 X25.2251 Y70.3499 Z-0.4 I0.5625 J-0.9743
G2 X23.5376 Y69.3756 Z-0.5333 I-1.125 J0.0
G2 Y71.3242 Z-0.6667 I0.5625 J0.9743
G2 X25.2251 Y70.3499 Z-0.8 I0.5625 J-0.9743
G2 X23.5376 Y69.3756 Z-0.9333 I-1.125 J0.0
G2 Y71.3242 Z-1.0667 I0.5625 J0.9743
G2 X25.2251 Y70.3499 Z-1.2 I0.5625 J-0.9743
G2 X23.5376 Y69.3756 Z-1.3333 I-1.125 J0.0
G2 Y71.3242 Z-1.4667 I0.5625 J0.9743
G2 X25.2251 Y70.3499 Z-1.6 I0.5625 J-0.9743
G2 X23.5376 Y69.3756 Z-1.7333 I-1.125 J0.0
G2 Y71.3242 Z-1.8667 I0.5625 J0.9743
G2 X25.2251 Y70.3499 Z-2.0 I0.5625 J-0.9743
G2 X23.5376 Y69.3756 Z-2.1333 I-1.125 J0.0
G2 Y71.3242 Z-2.2667 I0.5625 J0.9743
G2 X24.8956 Y71.1454 Z-2.35 I0.5625 J-0.9743
G2 X24.3912 Y69.2632 I-0.7955 J-0.7955
G2 X23.0134 Y70.6411 I-0.2912 J1.0867
G2 X24.8956 Y71.1454 I1.0867 J-0.2912
G0 Z3.0
G0 X109.0451 Y27.1699
G0 Z1.0
G1 F300.0 Z0.0
G2 F400.0 X107.3576 Y26.1956 Z-0.1333 I-1.125 J0.0
G2 Y28.1442 Z-0.2667 I0.5625 J0.9743
G2 X109.0451 Y27.1699 Z-0.4 I0.5625 J-0.9743
G2 X107.3576 Y26.1956 Z-0.5333 I-1.125 J0.0
G2 Y28.1442 Z-0.6667 I0.5625 J0.9743
G2 X109.0451 Y27.1699 Z-0.8 I0.5625 J-0.9743
G2 X107.3576 Y26.1956 Z-0.9333 I-1.125 J0.0
G2 Y28.1442 Z-1.0667 I0.5625 J0.9743
G2 X109.0451 Y27.1699 Z-1.2 I0.5625 J-0.9743
G2 X107.3576 Y26.1956 Z-1.3333 I-1.125 J0.0
G2 Y28.1442 Z-1.4667 I0.5625 J0.9743
G2 X109.0451 Y27.1699 Z-1.6 I0.5625 J-0.9743
G2 X107.3576 Y26.1956 Z-1.7333 I-1.125 J0.0
G2 Y28.1442 Z-1.8667 I0.5625 J0.9743
G2 X109.0451 Y27.1699 Z-2.0 I0.5625 J-0.9743
G2 X107.3576 Y26.1956 Z-2.1333 I-1.125 J0.0
G2 Y28.1442 Z-2.2667 I0.5625 J0.9743
G2 X108.7156 Y27.9654 Z-2.35 I0.5625 J-0.9743
G2 X108.2112 Y26.0832 I-0.7955 J-0.7955
G2 X106.8334 Y27.4611 I-0.2912 J1.0867
G2 X108.7156 Y27.9654 I1.0867 J-0.2912
G0 Z3.0
G0 X109.0451 Y27.1699
G1 F300.0 Z0.0
G2 F400.0 X107.3576 Y26.1956 Z-0.1333 I-1.125 J0.0
G2 Y28.1442 Z-0.2667 I0.5625 J0.9743
G2 X109.0451 Y27.1699 Z-0.4 I0.5625 J-0.9743
G2 X107.3576 Y26.1956 Z-0.5333 I-1.125 J0.0
G2 Y28.1442 Z-0.6667 I0.5625 J0.9743
G2 X109.0451 Y27.1699 Z-0.8 I0.5625 J-0.9743
G2 X107.3576 Y26.1956 Z-0.9333 I-1.125 J0.0
G2 Y28.1442 Z-1.0667 I0.5625 J0.9743
G2 X109.0451 Y27.1699 Z-1.2 I0.5625 J-0.9743
G2 X107.3576 Y26.1956 Z-1.3333 I-1.125 J0.0
G2 Y28.1442 Z-1.4667 I0.5625 J0.9743
G2 X109.0451 Y27.1699 Z-1.6 I0.5625 J-0.9743
G2 X107.3576 Y26.1956 Z-1.7333 I-1.125 J0.0
G2 Y28.1442 Z-1.8667 I0.5625 J0.9743
G2 X109.0451 Y27.1699 Z-2.0 I0.5625 J-0.9743
G2 X107.3576 Y26.1956 Z-2.1333 I-1.125 J0.0
G2 Y28.1442 Z-2.2667 I0.5625 J0.9743
G2 X108.7156 Y27.9654 Z-2.35 I0.5625 J-0.9743
G2 X108.2112 Y26.0832 I-0.7955 J-0.7955
G2 X106.8334 Y27.4611 I-0.2912 J1.0867
G2 X108.7156 Y27.9654 I1.0867 J-0.2912
G0 Z3.0
M5
M30
