( Made using CamBam - http://www.cambam.co.uk )
( midi_organ_v0.3.gcode.complete 8/21/2014 12:28:55 AM )
( T0 : 0.0 )
G21 G90 G64 G40
G0 Z3.0
( T0 : 0.0 )
T0 M6
( drill-1mm )
G17
M3 S1000
G0 X48.8651 Y187.8249
G98
G81 X48.8651 Y187.8249 Z-2.1 R3.0 F300.0
G81 Z-2.1
G81 X53.9451
G81 Z-2.1
G81 X74.2651
G81 Z-2.1
G81 X79.3451
G81 Z-2.1
G80
G0 Z3.0
M5
M30
