( Made using CamBam - http://www.cambam.co.uk )
( midi_organ_v0.3.gcode.complete 8/22/2014 2:57:07 AM )
( T0 : 0.0 )
G21 G90 G64 G40
G0 Z3.0
( T0 : 0.0 )
T0 M6
( he_logo )
G17
M3 S1000
G0 X97.3263 Y87.5095
G0 Z1.2
G1 F400.0 Z-0.2
G1 Y82.0805
G2 X97.0399 Y81.794 I-0.2863 J-0.0001
G2 X96.7535 Y82.0805 I0.0 J0.2864
G1 Y87.5095
G2 X97.0399 Y87.7959 I0.2866 J-0.0001
G2 X97.3263 Y87.5095 I0.0002 J-0.2862
G0 Z3.0
G0 X98.8244 Y85.6841
G0 Z1.2
G1 Z-0.2
G1 X101.2877 Y87.7057
G2 X101.5919 Y87.7433 I0.1818 J-0.2219
G2 X101.7558 Y87.4843 I-0.1227 J-0.2589
G1 Y82.1055
G2 X101.5919 Y81.8467 I-0.2864 J0.0
G2 X101.2877 Y81.884 I-0.1225 J0.2595
G1 X98.0107 Y84.5736
G2 X97.9113 Y84.7949 I0.1851 J0.2162
G2 X98.0107 Y85.0163 I0.2844 J0.0053
G1 X98.8244 Y85.6841
G0 Z3.0
G0 X96.2263 Y84.7991
G0 Z1.2
G1 Z-0.2
G2 X96.2416 Y84.7072 I-0.2717 J-0.0926
G2 X95.9559 Y84.4208 I-0.2861 J-0.0003
G1 X93.6936 Y84.4147
G1 X93.6974 Y84.3305
G1 X93.7056 Y84.2045
G1 X93.7176 Y84.0788
G3 X95.4997 Y80.6498 I5.3671 J0.6118
G3 X99.1119 Y79.277 I3.6044 J4.0454
G3 X102.95 Y80.8692 I0.0037 J5.4132
G3 X104.5425 Y84.7073 I-3.8197 J3.8342
G2 X104.8289 Y84.9937 I0.2865 J-0.0001
G2 X105.1153 Y84.7073 I0.0 J-0.2865
G2 X103.3549 Y80.4643 I-5.9846 J-0.0037
G2 X99.1119 Y78.7041 I-4.2393 J4.2249
G2 X95.1185 Y80.2222 I-0.0076 J5.9917
G2 X93.1485 Y84.0131 I3.9654 J4.468
G2 X93.1153 Y84.7004 I6.0339 J0.6358
G2 X93.401 Y84.9868 I0.2862 J0.0003
G1 X95.9545 Y84.9936
G2 X96.2263 Y84.7991 I0.0001 J-0.2871
G0 Z3.0
G0 Y89.9524
G0 Z1.2
G1 Z-0.2
G1 X98.5067
G1 Y91.269
G1 X96.5304
G1 Y92.756
G1 X98.5067
G1 Y94.0725
G1 X93.5287
G1 Y92.756
G1 X95.3824
G1 Y91.269
G1 X93.5287
G1 Y89.9524
G1 X96.2263
G0 Z3.0
G0 X100.022 Y90.0
G0 Z1.2
G1 Z-0.2
G1 X105.0
G1 Y93.2928
G1 X103.898
G1 Y91.3166
G1 X103.0084
G1 Y92.9404
G1 X101.9064
G1 Y91.3166
G1 X101.1241
G1 Y93.2162
G1 X100.022
G1 Y90.0
G0 Z3.0
G0 Y94.4297
G0 Z1.2
G1 Z-0.2
G1 X105.0
G1 Y97.6306
G1 X103.898
G1 Y95.7463
G1 X100.022
G1 Y94.4297
G0 Z3.0
G0 X98.1163 Y95.9841
G0 Z1.2
G1 Z-0.2
G3 X98.3639 Y96.3696 I-1.5724 J1.2825
G3 X98.5432 Y96.8923 I-2.06 J0.9984
G3 X98.5987 Y97.442 I-2.7437 J0.5546
G3 X98.5547 Y97.9335 I-2.5576 J0.019
G3 X98.2384 Y98.7334 I-2.1394 J-0.3835
G3 X97.8032 Y99.2073 I-1.6922 J-1.1173
G3 X97.3953 Y99.463 I-1.4047 J-1.7875
G3 X96.7115 Y99.6883 I-1.2138 J-2.5329
G3 X95.9946 Y99.7546 I-0.6978 J-3.6354
G3 X95.0395 Y99.6293 I-0.0349 J-3.4341
G3 X94.3741 Y99.3278 I0.6541 J-2.3288
G3 X93.66 Y98.5068 I1.0943 J-1.673
G3 X93.4892 Y97.9868 I2.0664 J-0.9666
G3 X93.4367 Y97.442 I2.5409 J-0.5196
G1 X93.4392 Y97.3197
G3 X93.4989 Y96.8494 I2.4634 J0.0737
G3 X93.8238 Y96.0894 I2.0853 J0.4421
G3 X94.2504 Y95.6417 I1.6214 J1.1178
G3 X95.0804 Y95.2421 I1.4282 J1.9046
G3 X95.3056 Y95.1905 I0.5842 J2.0306
G3 X95.6486 Y95.1436 I0.5837 J2.9916
G1 X95.8214 Y95.1325
G3 X95.9946 Y95.129 I0.1746 J4.2752
G3 X96.9573 Y95.2541 I0.0275 J3.5548
G3 X97.6304 Y95.5529 I-0.6582 J2.3901
G3 X98.1163 Y95.9841 I-1.0865 J1.7138
G0 Z3.0
G0 X97.2286 Y96.8642
G0 Z1.2
G1 Z-0.2
G2 X97.0466 Y96.7204 I-0.6816 J0.6758
G2 X96.537 Y96.5275 I-0.7975 J1.3375
G2 X95.9946 Y96.4762 I-0.5229 J2.6337
G2 X95.5256 Y96.5144 I-0.0166 J2.6947
G2 X95.1785 Y96.6108 I0.2879 J1.7095
G2 X94.9369 Y96.7391 I0.4832 J1.2017
G2 X94.6627 Y97.0432 I0.4774 J0.706
G2 X94.5695 Y97.442 I0.7684 J0.3899
G2 X94.7046 Y97.9113 I0.8368 J0.0132
G2 X94.9632 Y98.1623 I0.7457 J-0.5097
G2 X95.2035 Y98.2826 I0.6855 J-1.0693
G2 X95.5935 Y98.3801 I0.6228 J-1.6609
G2 X95.9946 Y98.4074 I0.3875 J-2.7365
G2 X96.4716 Y98.3686 I0.0104 J-2.8198
G2 X96.825 Y98.2725 I-0.3577 J-2.0139
G2 X97.073 Y98.1463 I-0.5384 J-1.3651
G2 X97.3625 Y97.846 I-0.486 J-0.7583
G2 X97.4659 Y97.442 I-0.6986 J-0.394
G2 X97.3173 Y96.9673 I-0.7973 J-0.0109
G2 X97.2286 Y96.8642 I-0.7703 J0.5727
G0 Z3.0
G0 X100.022 Y98.5387
G0 Z1.2
G1 Z-0.2
G1 X105.0
G1 Y101.8315
G1 X103.898
G1 Y99.8553
G1 X103.0084
G1 Y101.4791
G1 X101.9064
G1 Y99.8553
G1 X101.1241
G1 Y101.7549
G1 X100.022
G1 Y98.5387
G0 Z3.0
G0 X98.5067 Y100.7973
G0 Z1.2
G1 Z-0.2
G1 Y102.1139
G1 X96.8369
G1 Y102.6198
G1 X98.5067 Y103.478
G1 Y104.9481
G1 X96.5768 Y103.8687
G3 X96.321 Y104.2197 I-1.3867 J-0.7416
G3 X95.7757 Y104.5687 I-1.0193 J-0.992
G3 X95.1366 Y104.6724 I-0.6169 J-1.7814
G3 X94.769 Y104.642 I-0.0064 J-2.1612
G3 X94.1745 Y104.399 I0.2256 J-1.4006
G3 X93.8484 Y104.0502 I0.7517 J-1.0297
G3 X93.6901 Y103.7309 I1.4944 J-0.9395
G3 X93.5633 Y103.213 I2.3401 J-0.8477
G3 X93.5287 Y102.6811 I4.1824 J-0.5393
G1 Y100.7973
G1 X98.5067
G0 Z3.0
G0 X100.022 Y102.9684
G0 Z1.2
G1 Z-0.2
G1 X105.0
G1 Y104.285
G1 X103.7594
G1 X103.0853 Y104.7599
G1 X105.0 Y105.8629
G1 Y107.303
G1 X102.0439 Y105.5259
G1 X100.022 Y107.0119
G1 Y105.5719
G1 X101.8754 Y104.3156
G1 Y104.285
G1 X100.022
G1 Y102.9684
G0 Z3.0
G0 X98.5067 Y106.6183
G0 Z1.2
G1 Z-0.2
G1 Y108.2113
G1 X93.5287 Y109.6816
G1 Y108.3339
G1 X95.7038 Y107.8286
G1 X95.8023 Y107.8047
G1 X96.1723 Y107.7188
G1 X96.7282 Y107.5941
G1 X96.867 Y107.5621
G2 X97.2821 Y107.4609 I-2.3716 J-10.631
G1 Y107.4303
G2 X96.8884 Y107.3352 I-3.4828 J13.5499
G1 X96.2952 Y107.2034
G1 X95.999 Y107.1357
G1 X95.7042 Y107.0627
G1 X93.5287 Y106.5417
G1 Y105.1479
G1 X98.5067 Y106.6183
G0 Z3.0
G0 X100.022 Y107.6952
G0 Z1.2
G1 Z-0.2
G1 X101.1241
G1 Y109.0128
G1 X105.0
G1 Y110.3293
G1 X101.1241
G1 Y111.6468
G1 X100.022
G1 Y107.6952
G0 Z3.0
G0 X98.5067 Y109.5901
G0 Z1.2
G1 Z-0.2
G1 Y110.9379
G1 X97.4497 Y111.183
G1 Y112.5769
G1 X98.5067 Y112.8219
G1 Y114.2158
G1 X93.5287 Y112.6994
G1 Y111.1064
G1 X98.5067 Y109.5901
G0 Z3.0
G0 X96.4318 Y111.4205
G0 Z1.2
G1 Z-0.2
G1 X96.0868 Y111.5048
G3 X95.2993 Y111.6886 I-6.7639 J-27.2021
G3 X94.9038 Y111.7732 I-3.52 J-15.4687
G1 X94.5082 Y111.8568
G1 Y111.8875
G1 X94.9027 Y111.9804
G1 X95.4956 Y112.114
G1 X95.7917 Y112.1825
G1 X96.0868 Y112.2551
G1 X96.4318 Y112.3394
G1 Y111.4205
G0 Z3.0
G0 X94.6308 Y114.1769
G0 Z1.2
G1 Z-0.2
G1 Y115.4943
G1 X98.5067
G1 Y116.8109
G1 X94.6308
G1 Y118.1284
G1 X93.5287
G1 Y114.1769
G1 X94.6308
G0 Z3.0
G0 X100.022
G0 Z1.2
G1 Z-0.2
G1 Y112.4943
G1 X105.0
G1 Y113.8108
G1 X103.3301
G1 Y114.3167
G1 X105.0 Y115.1752
G1 Y116.645
G1 X103.07 Y115.5655
G3 X102.8144 Y115.9166 I-1.4143 J-0.7612
G3 X102.2691 Y116.2656 I-1.0165 J-0.9878
G3 X101.63 Y116.3692 I-0.6186 J-1.7927
G3 X101.2623 Y116.3388 I-0.0069 J-2.1547
G3 X100.6679 Y116.0958 I0.2251 J-1.3994
G3 X100.3418 Y115.7471 I0.7504 J-1.0286
G3 X100.1835 Y115.4278 I1.492 J-0.9384
G3 X100.0566 Y114.91 I2.3384 J-0.8473
G3 X100.022 Y114.378 I4.1686 J-0.5384
G1 Y114.1769
G0 Z3.0
G0 X101.0628
G0 Z1.2
G1 Z-0.2
G1 Y114.2861
G1 X101.0664 Y114.4229
G2 X101.0981 Y114.6633 I1.4872 J-0.0738
G2 X101.1607 Y114.8382 I0.694 J-0.1498
G2 X101.3585 Y115.0312 I0.3814 J-0.193
G2 X101.63 Y115.0833 I0.2526 J-0.583
G2 X101.9208 Y115.0292 I0.0159 J-0.7231
G2 X102.2182 Y114.7137 I-0.2199 J-0.5053
G2 X102.274 Y114.5033 I-0.8168 J-0.3293
G1 X102.281 Y114.4493
G2 X102.2894 Y114.2861 I-1.1666 J-0.1414
G1 Y113.8108
G1 X101.0628
G1 Y114.1769
G0 Z3.0
G0 X101.7202 Y117.2818
G0 Z1.2
G1 Z-0.2
G3 X101.7989 Y117.2667 I0.4369 J2.0637
G3 X102.1419 Y117.2198 I0.5825 J2.9834
G1 X102.3147 Y117.2087
G3 X102.4878 Y117.2052 I0.1737 J4.2306
G3 X103.4504 Y117.3302 I0.027 J3.5584
G3 X104.1235 Y117.629 I-0.6571 J2.3882
G3 X104.8572 Y118.4455 I-1.0834 J1.7113
G3 X105.0364 Y118.9682 I-2.0488 J0.9948
G3 X105.0919 Y119.5178 I-2.7289 J0.5532
G3 X105.048 Y120.0094 I-2.5557 J0.0193
G3 X104.7318 Y120.8093 I-2.1362 J-0.382
G3 X104.2967 Y121.2832 I-1.6877 J-1.1127
G3 X103.8888 Y121.539 I-1.4013 J-1.7813
G3 X103.2049 Y121.7645 I-1.2134 J-2.5307
G3 X102.4878 Y121.8308 I-0.6984 J-3.6398
G3 X101.5327 Y121.7054 I-0.0327 J-3.4493
G3 X100.8673 Y121.4038 I0.6604 J-2.3418
G3 X100.1533 Y120.5828 I1.0885 J-1.6676
G3 X99.9826 Y120.0627 I2.0698 J-0.9676
G3 X99.9301 Y119.5178 I2.5431 J-0.5199
G1 X99.9326 Y119.3956
G3 X99.9923 Y118.9253 I2.4728 J0.0751
G3 X100.3172 Y118.1655 I2.0906 J0.4447
G3 X100.7439 Y117.7178 I1.6249 J1.1214
G3 X101.5738 Y117.3183 I1.4284 J1.9055
G3 X101.7202 Y117.2818 I0.5833 J2.0272
G0 Z3.0
G0 X101.9755 Y118.5983
G0 Z1.2
G1 Z-0.2
G2 X101.6718 Y118.6868 I0.3278 J1.69
G2 X101.4302 Y118.8151 I0.4789 J1.194
G2 X101.156 Y119.1191 I0.4768 J0.7056
G2 X101.0628 Y119.5178 I0.7712 J0.3905
G2 X101.1978 Y119.9872 I0.8352 J0.0139
G2 X101.4563 Y120.2383 I0.7417 J-0.505
G2 X101.6967 Y120.3587 I0.6841 J-1.0656
G2 X102.0867 Y120.4563 I0.6238 J-1.6636
G2 X102.4878 Y120.4836 I0.3895 J-2.7635
G2 X102.965 Y120.4447 I0.0113 J-2.8086
G2 X103.3184 Y120.3486 I-0.3578 J-2.0131
G2 X103.5664 Y120.2224 I-0.5447 J-1.3767
G2 X103.8558 Y119.922 I-0.4892 J-0.7611
G2 X103.9592 Y119.5178 I-0.701 J-0.3946
G2 X103.8105 Y119.0432 I-0.7958 J-0.0113
G2 X103.5398 Y118.7963 I-0.7396 J0.5394
G2 X103.0302 Y118.6036 I-0.7987 J1.3416
G2 X102.4878 Y118.5523 I-0.523 J2.6371
G2 X102.0189 Y118.5905 I-0.0174 J2.6866
G2 X101.9755 Y118.5983 I0.2844 J1.6978
G0 Z3.0
G0 Y122.8732
G0 Z1.2
G1 Z-0.2
G1 X105.0
G1 Y124.1285
G1 X103.5603
G3 X102.6085 Y124.0689 I0.1099 J-9.3949
G1 X102.1346 Y124.0153
G1 X101.6609 Y123.9603
G1 Y123.991
G1 X102.7713 Y124.4659
G1 X105.0 Y125.5695
G1 Y126.9168
G1 X100.022
G1 Y125.6614
G1 X101.4617
G1 X101.581 Y125.6627
G1 X101.8044 Y125.671
G1 X101.9021 Y125.6766
G1 X102.085 Y125.6897
G1 X102.4046 Y125.7191
G1 X102.644 Y125.7449
G1 X102.8234 Y125.7657
G3 X103.0923 Y125.7981 I-1.8926 J16.8605
G1 X103.3611 Y125.83
G1 Y125.7993
G1 X102.243 Y125.3244
G1 X100.022 Y124.2208
G1 Y122.8732
G1 X101.9755
G0 Z3.0
G0 Y128.1918
G0 Z1.2
G1 Z-0.2
G1 X105.0
G1 Y129.5083
G1 X100.022
G1 Y128.1918
G1 X101.9755
G0 Z3.0
G0 Y130.7707
G0 Z1.2
G1 Z-0.2
G1 X105.0
G1 Y132.0873
G1 X103.7594
G1 X103.0853 Y132.5621
G1 X105.0 Y133.6652
G1 Y135.1053
G1 X102.0439 Y133.3282
G1 X100.022 Y134.8142
G1 Y133.3741
G1 X101.8754 Y132.1179
G1 Y132.0873
G1 X100.022
G1 Y130.7707
G1 X101.9755
G0 Z3.0
G0 X103.5558 Y135.9582
G0 Z1.2
G1 Z-0.2
G1 X105.0 Y135.5182
G1 Y136.8661
G1 X103.9429 Y137.1113
G1 Y138.505
G1 X105.0 Y138.7502
G1 Y140.144
G1 X100.022 Y138.6276
G1 Y137.0347
G1 X103.5558 Y135.9582
G0 Z3.0
G0 X102.9251 Y137.3487
G0 Z1.2
G1 Z-0.2
G1 X102.5801 Y137.433
G1 X102.384 Y137.482
G1 X102.0394 Y137.5624
G1 X101.5208 Y137.6755
G1 X101.0015 Y137.7853
G1 Y137.816
G1 X101.3959 Y137.9089
G1 X101.9889 Y138.0424
G1 X102.285 Y138.1108
G3 X102.5801 Y138.1833 I-11.552 J47.6529
G1 X102.9251 Y138.2676
G1 Y137.3487
G0 Z3.0
G0 X95.3107 Y103.3692
G0 Z1.2
G1 Z-0.2
G2 X95.4274 Y103.3324 I-0.1581 J-0.7054
G2 X95.7249 Y103.0169 I-0.2196 J-0.5051
G2 X95.7807 Y102.8065 I-0.8193 J-0.33
G1 X95.7877 Y102.7525
G2 X95.7961 Y102.5891 I-1.1739 J-0.1418
G1 Y102.1139
G1 X94.5695
G1 Y102.5891
G1 X94.573 Y102.726
G2 X94.6048 Y102.9665 I1.4797 J-0.0728
G2 X94.6673 Y103.1413 I0.6924 J-0.1492
G2 X94.8652 Y103.3344 I0.3812 J-0.1928
G2 X95.1366 Y103.3865 I0.2526 J-0.583
G2 X95.3107 Y103.3692 I0.016 J-0.7227
G0 Z3.0
M5
M30
