( Made using CamBam - http://www.cambam.co.uk )
( midi_organ_v0.3.gcode.complete 8/21/2014 12:27:46 AM )
( T0 : 0.0 )
G21 G90 G64 G40
G0 Z3.0
( T0 : 0.0 )
T0 M6
( drill-09mm )
G17
M3 S1000
G0 X95.8551 Y166.2349
G98
G81 X95.8551 Y166.2349 Z-2.1 R3.0 F300.0
G81 Z-2.1
G81 Y163.6949
G81 Z-2.1
G81 Y161.1549
G81 Z-2.1
G81 Y158.6149
G81 Z-2.1
G81 Y156.0749
G81 Z-2.1
G81 X100.9351
G81 Z-2.1
G81 Y158.6149
G81 Z-2.1
G81 Y161.1549
G81 Z-2.1
G81 Y163.6949
G81 Z-2.1
G81 Y166.2349
G81 Z-2.1
G81 Y168.7749
G81 Z-2.1
G81 Y171.3149
G81 Z-2.1
G81 Y173.8549
G81 Z-2.1
G81 X106.0151
G81 Z-2.1
G81 Y171.3149
G81 Z-2.1
G81 Y168.7749
G81 Z-2.1
G81 Y166.2349
G81 Z-2.1
G81 Y163.6949
G81 Z-2.1
G81 Y161.1549
G81 Z-2.1
G81 Y158.6149
G81 Z-2.1
G81 Y156.0749
G81 Z-2.1
G81 X111.0951
G81 Z-2.1
G81 Y158.6149
G81 Z-2.1
G81 Y161.1549
G81 Z-2.1
G81 Y163.6949
G81 Z-2.1
G81 Y166.2349
G81 Z-2.1
G81 Y168.7749
G81 Z-2.1
G81 Y171.3149
G81 Z-2.1
G81 Y173.8549
G81 Z-2.1
G81 X99.0301 Y182.7449
G81 Z-2.1
G81 X96.4901
G81 Z-2.1
G81 X93.9501
G81 Z-2.1
G81 X95.8551 Y173.8549
G81 Z-2.1
G81 Y171.3149
G81 Z-2.1
G81 Y168.7749
G81 Z-2.1
G81 X77.4401 Y136.3899
G81 Z-2.1
G81 X74.9001
G81 Z-2.1
G81 X72.3601
G81 Z-2.1
G81 X69.8201
G81 Z-2.1
G81 X67.2801
G81 Z-2.1
G81 X49.5001
G81 Z-2.1
G81 Y138.9299
G81 Z-2.1
G81 Y141.4699
G81 Z-2.1
G81 X46.9601
G81 Z-2.1
G81 Y138.9299
G81 Z-2.1
G81 Y136.3899
G81 Z-2.1
G81 X43.7851 Y128.1349
G81 Z-2.1
G81 Y125.5949
G81 Z-2.1
G81 Y123.0549
G81 Z-2.1
G81 Y120.5149
G81 Z-2.1
G81 Y117.9749
G81 Z-2.1
G81 Y115.4349
G81 Z-2.1
G81 Y112.8949
G81 Z-2.1
G81 Y110.3549
G81 Z-2.1
G81 Y107.8149
G81 Z-2.1
G81 Y105.2749
G81 Z-2.1
G81 Y102.7349
G81 Z-2.1
G81 Y100.1949
G81 Z-2.1
G81 Y97.6549
G81 Z-2.1
G81 Y95.1149
G81 Z-2.1
G81 Y92.5749
G81 Z-2.1
G81 Y90.0349
G81 Z-2.1
G81 Y87.4949
G81 Z-2.1
G81 Y84.9549
G81 Z-2.1
G81 Y82.4149
G81 Z-2.1
G81 Y79.8749
G81 Z-2.1
G81 Y77.3349
G81 Z-2.1
G81 Y74.7949
G81 Z-2.1
G81 Y72.2549
G81 Z-2.1
G81 Y69.7149
G81 Z-2.1
G81 X33.6251 Y63.3649
G81 Z-2.1
G81 Y60.8249
G81 Z-2.1
G81 Y58.2849
G81 Z-2.1
G81 Y55.7449
G81 Z-2.1
G81 Y53.2049
G81 Z-2.1
G81 Y50.6649
G81 Z-2.1
G81 Y48.1249
G81 Z-2.1
G81 Y45.5849
G81 Z-2.1
G81 Y43.0449
G81 Z-2.1
G81 Y40.5049
G81 Z-2.1
G81 Y37.9649
G81 Z-2.1
G81 Y35.4249
G81 Z-2.1
G81 Y32.8849
G81 Z-2.1
G81 Y30.3449
G81 Z-2.1
G81 Y27.8049
G81 Z-2.1
G81 Y25.2649
G81 Z-2.1
G81 X85.6951
G81 Z-2.1
G81 Y27.8049
G81 Z-2.1
G81 Y30.3449
G81 Z-2.1
G81 Y32.8849
G81 Z-2.1
G81 Y35.4249
G81 Z-2.1
G81 Y37.9649
G81 Z-2.1
G81 Y40.5049
G81 Z-2.1
G81 Y43.0449
G81 Z-2.1
G81 Y45.5849
G81 Z-2.1
G81 Y48.1249
G81 Z-2.1
G81 Y50.6649
G81 Z-2.1
G81 Y53.2049
G81 Z-2.1
G81 Y55.7449
G81 Z-2.1
G81 Y58.2849
G81 Z-2.1
G81 Y60.8249
G81 Z-2.1
G81 Y63.3649
G81 Z-2.1
G81 X98.3951 Y69.7149
G81 Z-2.1
G81 Y72.2549
G81 Z-2.1
G81 Y74.7949
G81 Z-2.1
G81 Y77.3349
G81 Z-2.1
G81 Y79.8749
G81 Z-2.1
G81 Y82.4149
G81 Z-2.1
G81 Y84.9549
G81 Z-2.1
G81 Y87.4949
G81 Z-2.1
G81 Y90.0349
G81 Z-2.1
G81 Y92.5749
G81 Z-2.1
G81 Y95.1149
G81 Z-2.1
G81 Y97.6549
G81 Z-2.1
G81 Y100.1949
G81 Z-2.1
G81 Y102.7349
G81 Z-2.1
G81 Y105.2749
G81 Z-2.1
G81 Y107.8149
G81 Z-2.1
G81 Y110.3549
G81 Z-2.1
G81 Y112.8949
G81 Z-2.1
G81 Y115.4349
G81 Z-2.1
G81 Y117.9749
G81 Z-2.1
G81 Y120.5149
G81 Z-2.1
G81 Y123.0549
G81 Z-2.1
G81 Y125.5949
G81 Z-2.1
G81 Y128.1349
G81 Z-2.1
G81 X45.6901 Y161.7899
G81 Z-2.1
G81 X43.1501
G81 Z-2.1
G81 X40.6101
G81 Z-2.1
G81 X38.0701
G81 Z-2.1
G81 X35.5301
G81 Z-2.1
G81 X32.9901
G81 Z-2.1
G81 X30.4501
G81 Z-2.1
G81 X27.9101
G81 Z-2.1
G81 X25.3701
G81 Z-2.1
G81 X22.8301
G81 Z-2.1
G81 Y169.4099
G81 Z-2.1
G81 X25.3701
G81 Z-2.1
G81 X27.9101
G81 Z-2.1
G81 X30.4501
G81 Z-2.1
G81 X32.9901
G81 Z-2.1
G81 X35.5301
G81 Z-2.1
G81 X38.0701
G81 Z-2.1
G81 X40.6101
G81 Z-2.1
G81 X43.1501
G81 Z-2.1
G81 X45.6901
G81 Z-2.1
G81 X22.8301 Y154.1699
G81 Z-2.1
G81 Y151.6299
G81 Z-2.1
G81 Y149.0899
G81 Z-2.1
G81 Y146.5499
G81 Z-2.1
G81 Y141.4699
G81 Z-2.1
G81 Y138.9299
G81 Z-2.1
G81 Y136.3899
G81 Z-2.1
G81 Y133.8499
G81 Z-2.1
G80
G0 Z3.0
M5
M30
