( Made using CamBam - http://www.cambam.co.uk )
( midi_organ_v0.3.gcode.complete 8/22/2014 3:06:22 AM )
( T0 : 0.0 )
G21 G90 G64 G40
G0 Z3.0
( T0 : 0.0 )
T0 M6
( drill-1 )
G17
M3 S1000
G0 X48.8651 Y187.8249
G98
G81 X48.8651 Y187.8249 Z-2.35 R3.0 F300.0
G81 Z-2.35
G81 X53.9451 Z-2.35
G81 Z-2.35
G81 X59.0251 Y182.7449 Z-2.35
G81 Z-2.35
G81 Y177.6649 Z-2.35
G81 Z-2.35
G81 X56.4851 Y175.1249 Z-2.35
G81 Z-2.35
G81 X51.4051 Y177.6649 Z-2.35
G81 Z-2.35
G81 X46.3251 Y175.1249 Z-2.35
G81 Z-2.35
G81 X43.7851 Y177.6649 Z-2.35
G81 Z-2.35
G81 Y182.7449 Z-2.35
G81 Z-2.35
G81 X69.1851 Z-2.35
G81 Z-2.35
G81 Y177.6649 Z-2.35
G81 Z-2.35
G81 X71.7251 Y175.1249 Z-2.35
G81 Z-2.35
G81 X76.8051 Y177.6649 Z-2.35
G81 Z-2.35
G81 X81.8851 Y175.1249 Z-2.35
G81 Z-2.35
G81 X84.4251 Y177.6649 Z-2.35
G81 Z-2.35
G81 Y182.7449 Z-2.35
G81 Z-2.35
G81 X79.3451 Y187.8249 Z-2.35
G81 Z-2.35
G81 X74.2651 Z-2.35
G81 Z-2.35
G80
G0 Z3.0
M5
M30
